;FLAVOR:Marlin
;TIME:3427
;Filament used: 3.793m
;Layer height: 0.2
;MINX:69.336
;MINY:81.835
;MINZ:0.24
;MAXX:150.665
;MAXY:138.165
;MAXZ:14.09
;Generated with Cura_SteamEngine 4.8.0
M140 S50
M105
M190 S50
M104 S200
M105
M109 S200
M82 ;absolute extrusion mode
M201 X500.00 Y500.00 Z100.00 E5000.00 ;Setup machine max acceleration
M203 X500.00 Y500.00 Z10.00 E50.00 ;Setup machine max feedrate
M204 P500.00 R1000.00 T500.00 ;Setup Print/Retract/Travel acceleration
M205 X8.00 Y8.00 Z0.40 E5.00 ;Setup Jerk
M220 S100 ;Reset Feedrate
M221 S100 ;Reset Flowrate

G28 ;Home

G92 E0 ;Reset Extruder
G1 Z2.0 F3000 ;Move Z Axis up
G1 X10.1 Y20 Z0.28 F5000.0 ;Move to start position
G1 X10.1 Y200.0 Z0.28 F1500.0 E15 ;Draw the first line
G1 X10.4 Y200.0 Z0.28 F5000.0 ;Move to side a little
G1 X10.4 Y20 Z0.28 F1500.0 E30 ;Draw the second line
G92 E0 ;Reset Extruder
G1 Z2.0 F3000 ;Move Z Axis up

G92 E0
G92 E0
G1 F2700 E-5
;LAYER_COUNT:65
;LAYER:-6
M107
G0 F12000 X75.598 Y86.333 Z0.24
;TYPE:SUPPORT-INTERFACE
G1 F2700 E0
G1 F1800 X75.714 Y86.237 E0.01202
G1 X76.426 Y85.687 E0.08384
G1 X76.585 Y85.574 E0.09941
G1 X77.323 Y85.084 E0.17012
G1 X77.449 Y85.008 E0.18187
G1 X78.243 Y84.562 E0.25456
G1 X78.393 Y84.484 E0.26806
G1 X79.208 Y84.101 E0.33994
G1 X79.351 Y84.041 E0.35232
G1 X80.21 Y83.712 E0.42574
G1 X80.36 Y83.66 E0.43842
G1 X81.21 Y83.405 E0.50926
G1 X81.383 Y83.358 E0.52357
G1 X82.278 Y83.158 E0.59677
G1 X82.408 Y83.135 E0.60731
G1 X83.313 Y83.001 E0.68034
G1 X83.482 Y82.983 E0.6939
G1 X84.371 Y82.917 E0.76506
G1 X84.555 Y82.908 E0.77977
G1 X85.06 Y82.9 E0.82008
G1 X135.003 Y82.901 E4.80675
G1 X136.004 Y82.937 E4.88671
G1 X136.127 Y82.946 E4.89655
G1 X137.044 Y83.048 E4.9702
G1 X137.219 Y83.073 E4.98431
G1 X138.108 Y83.237 E5.05647
G1 X138.231 Y83.265 E5.06654
G1 X139.125 Y83.499 E5.14031
G1 X139.288 Y83.548 E5.1539
G1 X140.13 Y83.834 E5.22488
G1 X140.296 Y83.898 E5.23908
G1 X141.099 Y84.239 E5.30872
G1 X141.288 Y84.327 E5.32536
G1 X142.082 Y84.735 E5.39662
G1 X142.199 Y84.802 E5.40738
G1 X142.978 Y85.276 E5.48017
G1 X143.129 Y85.376 E5.49463
G1 X143.843 Y85.887 E5.56472
G1 X143.991 Y86 E5.57958
G1 X144.682 Y86.576 E5.65139
G1 X144.795 Y86.677 E5.66349
G1 X145.444 Y87.302 E5.73541
G1 X145.564 Y87.427 E5.74924
G1 X146.167 Y88.098 E5.82126
G1 X146.263 Y88.214 E5.83328
G1 X146.822 Y88.938 E5.90629
G1 X146.916 Y89.069 E5.91916
G1 X147.416 Y89.823 E5.99138
G1 X147.492 Y89.949 E6.00313
G1 X147.938 Y90.743 E6.07582
G1 X148.016 Y90.893 E6.08932
G1 X148.399 Y91.708 E6.1612
G1 X148.459 Y91.851 E6.17358
G1 X148.788 Y92.71 E6.247
G1 X148.84 Y92.86 E6.25968
G1 X149.095 Y93.71 E6.33051
G1 X149.142 Y93.883 E6.34482
G1 X149.34 Y94.769 E6.41729
G1 X149.365 Y94.908 E6.42857
G1 X149.498 Y95.807 E6.50111
G1 X149.516 Y95.969 E6.51412
G1 X149.583 Y96.871 E6.58632
G1 X149.592 Y97.055 E6.60103
G1 X149.6 Y97.556 E6.64102
G1 X149.6 Y122.486 E8.63104
G1 X149.564 Y123.492 E8.7114
G1 X149.554 Y123.627 E8.7222
G1 X149.452 Y124.544 E8.79585
G1 X149.427 Y124.719 E8.80997
G1 X149.265 Y125.597 E8.88123
G1 X149.235 Y125.731 E8.8922
G1 X149.004 Y126.616 E8.96521
G1 X148.952 Y126.788 E8.97955
G1 X148.676 Y127.6 E9.04801
G1 X148.596 Y127.809 E9.06587
G1 X148.261 Y128.599 E9.13437
G1 X148.18 Y128.774 E9.14976
G1 X147.765 Y129.582 E9.22227
G1 X147.698 Y129.699 E9.23303
G1 X147.224 Y130.478 E9.30582
G1 X147.124 Y130.629 E9.32028
G1 X146.613 Y131.343 E9.39037
G1 X146.5 Y131.491 E9.40523
G1 X145.924 Y132.182 E9.47704
G1 X145.823 Y132.295 E9.48914
G1 X145.198 Y132.944 E9.56106
G1 X145.073 Y133.064 E9.57489
G1 X144.403 Y133.666 E9.64679
G1 X144.286 Y133.763 E9.65892
G1 X143.574 Y134.313 E9.73074
G1 X143.415 Y134.426 E9.74631
G1 X142.677 Y134.916 E9.81703
G1 X142.551 Y134.992 E9.82877
G1 X141.757 Y135.438 E9.90147
G1 X141.606 Y135.516 E9.91503
G1 X140.792 Y135.899 E9.98684
G1 X140.649 Y135.959 E9.99922
G1 X139.79 Y136.288 E10.07265
G1 X139.64 Y136.34 E10.08532
G1 X138.79 Y136.595 E10.15616
G1 X138.617 Y136.642 E10.17047
G1 X137.722 Y136.842 E10.24367
G1 X137.592 Y136.865 E10.25421
G1 X136.687 Y136.999 E10.32724
G1 X136.519 Y137.017 E10.34073
G1 X135.629 Y137.083 E10.41197
G1 X135.445 Y137.092 E10.42667
G1 X134.94 Y137.1 E10.46699
G1 X84.997 Y137.099 E14.45366
G1 X83.996 Y137.063 E14.53361
G1 X83.873 Y137.054 E14.54346
G1 X82.956 Y136.952 E14.61711
G1 X82.781 Y136.927 E14.63122
G1 X81.892 Y136.763 E14.70338
G1 X81.769 Y136.735 E14.71345
G1 X80.875 Y136.501 E14.78722
G1 X80.712 Y136.452 E14.8008
G1 X79.87 Y136.166 E14.87179
G1 X79.704 Y136.102 E14.88599
G1 X78.901 Y135.761 E14.95563
G1 X78.712 Y135.673 E14.97227
G1 X77.918 Y135.265 E15.04353
G1 X77.801 Y135.198 E15.05429
G1 X77.022 Y134.724 E15.12708
G1 X76.871 Y134.624 E15.14154
G1 X76.157 Y134.113 E15.21162
G1 X76.009 Y134 E15.22649
G1 X75.318 Y133.424 E15.2983
G1 X75.205 Y133.323 E15.31039
G1 X74.556 Y132.698 E15.38232
G1 X74.436 Y132.573 E15.39615
G1 X73.833 Y131.902 E15.46816
G1 X73.736 Y131.784 E15.48035
G1 X73.178 Y131.062 E15.55319
G1 X73.074 Y130.915 E15.56757
G1 X72.581 Y130.172 E15.63875
G1 X72.508 Y130.051 E15.65003
G1 X72.056 Y129.246 E15.72372
G1 X71.984 Y129.107 E15.73622
G1 X71.587 Y128.261 E15.81081
G1 X71.541 Y128.149 E15.82048
G1 X71.212 Y127.29 E15.89391
G1 X71.155 Y127.125 E15.90784
G1 X70.905 Y126.29 E15.97742
G1 X70.858 Y126.117 E15.99173
G1 X70.657 Y125.216 E16.06542
G1 X70.635 Y125.092 E16.07547
G1 X70.5 Y124.178 E16.14922
G1 X70.483 Y124.018 E16.16206
G1 X70.417 Y123.126 E16.23346
G1 X70.408 Y122.945 E16.24793
G1 X70.4 Y122.444 E16.28793
G1 X70.4 Y97.514 E18.27795
G1 X70.436 Y96.508 E18.3583
G1 X70.446 Y96.373 E18.36911
G1 X70.548 Y95.456 E18.44276
G1 X70.573 Y95.281 E18.45687
G1 X70.735 Y94.403 E18.52814
G1 X70.765 Y94.269 E18.5391
G1 X70.996 Y93.384 E18.61211
G1 X71.048 Y93.212 E18.62645
G1 X71.334 Y92.37 E18.69744
G1 X71.398 Y92.204 E18.71164
G1 X71.739 Y91.401 E18.78128
G1 X71.82 Y91.226 E18.79667
G1 X72.235 Y90.418 E18.86918
G1 X72.302 Y90.301 E18.87994
G1 X72.776 Y89.522 E18.95273
G1 X72.876 Y89.371 E18.96719
G1 X73.387 Y88.657 E19.03727
G1 X73.5 Y88.509 E19.05214
G1 X74.076 Y87.818 E19.12395
G1 X74.177 Y87.705 E19.13605
G1 X74.802 Y87.056 E19.20797
G1 X74.927 Y86.936 E19.2218
G1 X75.598 Y86.333 E19.29381
G0 F12000 X75.2 Y86.69
G1 F1800 X75.2 Y133.318 E23.01586
G0 F12000 X76.8 Y134.573
G1 F1800 X76.8 Y85.431 E26.93859
G0 F12000 X78.4 Y84.48
G1 F1800 X78.4 Y135.512 E31.01218
G0 F12000 X80 Y136.21
G1 F1800 X80 Y83.792 E35.19641
G0 F12000 X81.6 Y83.309
G1 F1800 X81.6 Y136.69 E39.45752
G0 F12000 X83.2 Y136.979
G1 F1800 X83.2 Y83.017 E43.765
G0 F12000 X84.8 Y82.904
G1 F1800 X84.8 Y137.091 E48.09044
G0 F12000 X86.4 Y137.099
G1 F1800 X86.4 Y82.901 E52.41676
G0 F12000 X88 Y82.901
G1 F1800 X88 Y137.099 E56.74307
G0 F12000 X89.6 Y137.099
G1 F1800 X89.6 Y82.901 E61.06939
G0 F12000 X91.2 Y82.901
G1 F1800 X91.2 Y137.099 E65.39571
G0 F12000 X92.8 Y137.099
G1 F1800 X92.8 Y82.901 E69.72203
G0 F12000 X94.4 Y82.901
G1 F1800 X94.4 Y137.099 E74.04835
G0 F12000 X96 Y137.099
G1 F1800 X96 Y82.901 E78.37467
G0 F12000 X97.6 Y82.901
G1 F1800 X97.6 Y137.099 E82.70099
G0 F12000 X99.2 Y137.099
G1 F1800 X99.2 Y82.901 E87.02731
G0 F12000 X100.8 Y82.901
G1 F1800 X100.8 Y137.099 E91.35362
G0 F12000 X102.4 Y137.099
G1 F1800 X102.4 Y82.901 E95.67994
G0 F12000 X104 Y82.901
G1 F1800 X104 Y137.099 E100.00626
G0 F12000 X105.6 Y137.099
G1 F1800 X105.6 Y82.901 E104.33258
G0 F12000 X107.2 Y82.901
G1 F1800 X107.2 Y137.099 E108.6589
G0 F12000 X108.8 Y137.099
G1 F1800 X108.8 Y82.901 E112.98522
G0 F12000 X110.4 Y82.901
G1 F1800 X110.4 Y137.099 E117.31154
G0 F12000 X112 Y137.099
G1 F1800 X112 Y82.901 E121.63786
G0 F12000 X113.6 Y82.901
G1 F1800 X113.6 Y137.099 E125.96417
G0 F12000 X115.2 Y137.099
G1 F1800 X115.2 Y82.901 E130.29049
G0 F12000 X116.8 Y82.901
G1 F1800 X116.8 Y137.099 E134.61681
G0 F12000 X118.4 Y137.099
G1 F1800 X118.4 Y82.901 E138.94313
G0 F12000 X120 Y82.901
G1 F1800 X120 Y137.099 E143.26945
G0 F12000 X121.6 Y137.099
G1 F1800 X121.6 Y82.901 E147.59577
G0 F12000 X123.2 Y82.901
G1 F1800 X123.2 Y137.099 E151.92209
G0 F12000 X124.8 Y137.099
G1 F1800 X124.8 Y82.901 E156.2484
G0 F12000 X126.4 Y82.901
G1 F1800 X126.4 Y137.099 E160.57472
G0 F12000 X128 Y137.099
G1 F1800 X128 Y82.901 E164.90104
G0 F12000 X129.6 Y82.901
G1 F1800 X129.6 Y137.099 E169.22736
G0 F12000 X131.2 Y137.099
G1 F1800 X131.2 Y82.901 E173.55368
G0 F12000 X132.8 Y82.901
G1 F1800 X132.8 Y137.099 E177.88
G0 F12000 X134.4 Y137.099
G1 F1800 X134.4 Y82.901 E182.20632
G0 F12000 X136 Y82.937
G1 F1800 X136 Y137.056 E186.52633
G0 F12000 X137.6 Y136.864
G1 F1800 X137.6 Y83.144 E190.81449
G0 F12000 X139.2 Y83.522
G1 F1800 X139.2 Y136.472 E195.04119
G0 F12000 X140.8 Y135.896
G1 F1800 X140.8 Y84.113 E199.17473
G0 F12000 X142.4 Y84.925
G1 F1800 X142.4 Y135.077 E203.17808
G0 F12000 X144 Y133.984
G1 F1800 X144 Y86.008 E207.00773
G0 F12000 X145.6 Y87.468
G1 F1800 X145.6 Y132.527 E210.60454
G0 F12000 X147.2 Y130.515
G1 F1800 X147.2 Y89.498 E213.87869
G0 F12000 X148.8 Y92.745
G1 F1800 X148.8 Y127.236 E216.63191
G1 F2700 E211.63191
G0 F12000 X149.808 Y127.577
G0 X149.132 Y129.249
G0 X148.126 Y131.043
G0 X147.338 Y132.148
G0 X145.945 Y133.703
G0 X144.944 Y134.599
G0 X143.24 Y135.819
G0 X142.086 Y136.466
G0 X140.159 Y137.287
G0 X138.878 Y137.673
G0 X136.82 Y138.055
G0 X134.947 Y138.165
G0 X83.943 Y138.126
G0 X82.617 Y137.979
G0 X80.59 Y137.527
G0 X79.3 Y137.087
G0 X77.42 Y136.205
G0 X76.261 Y135.496
G0 X74.617 Y134.225
G0 X74.076 Y133.703
G0 X72.901 Y132.444
G0 X73.6 Y131.608
G1 F2700 E216.63191
G1 F1800 X73.6 Y88.389 E220.08184
G0 F12000 X72 Y90.875
G1 F1800 X72 Y129.137 E223.13608
G0 F300 X72 Y129.137 Z0.54
G0 F12000 X73.514 Y131.497
;TIME_ELAPSED:105.859687
;LAYER:-5
;TYPE:SUPPORT
G1 F1800 X76.039 Y134.022 E223.49238
G1 X76.009 Y133.998 E223.49622
G1 X75.317 Y133.423 E223.58599
G1 X75.205 Y133.322 E223.60104
G1 X74.555 Y132.697 E223.69102
G1 X74.435 Y132.572 E223.70831
G1 X73.833 Y131.9 E223.79833
G1 X73.735 Y131.783 E223.81356
G0 F12000 X76.039 Y134.022
G1 F1800 X76.156 Y134.112 E223.82829
G1 X76.87 Y134.623 E223.91589
G1 X77.022 Y134.723 E223.93405
G1 X77.801 Y135.197 E224.02504
G1 X77.918 Y135.264 E224.03849
G1 X78.712 Y135.672 E224.12756
G1 X78.9 Y135.76 E224.14827
G1 X79.405 Y135.974 E224.203
G1 X71.517 Y128.086 E225.31608
G1 X71.212 Y127.289 E225.40123
G1 X71.155 Y127.124 E225.41865
G1 X70.904 Y126.289 E225.50565
G1 X70.857 Y126.116 E225.52354
G1 X70.827 Y125.981 E225.53734
G1 X81.512 Y136.666 E227.04511
G1 X81.769 Y136.733 E227.07161
G1 X81.892 Y136.762 E227.08422
G1 X82.78 Y136.926 E227.17432
G1 X82.956 Y136.951 E227.19206
G1 X83.242 Y136.982 E227.22076
G1 X70.51 Y124.25 E229.01738
G1 X70.499 Y124.177 E229.02475
G1 X70.482 Y124.016 E229.0409
G1 X70.417 Y123.124 E229.13015
G1 X70.408 Y122.944 E229.14813
G1 X70.404 Y122.73 E229.16948
G1 X84.763 Y137.089 E231.19569
G1 X84.997 Y137.098 E231.21906
G1 X86.186 Y137.098 E231.3377
G1 X70.4 Y121.311 E233.56535
G1 X70.4 Y119.897 E233.70643
G1 X87.6 Y137.098 E236.13361
G1 X89.014 Y137.098 E236.2747
G1 X70.4 Y118.483 E238.90141
G1 X70.4 Y117.069 E239.0425
G1 X90.429 Y137.098 E241.86881
G1 X91.843 Y137.098 E242.00989
G1 X70.4 Y115.655 E245.03573
G1 X70.4 Y114.24 E245.17692
G1 X93.257 Y137.098 E248.40236
G1 X94.671 Y137.098 E248.54345
G1 X70.4 Y112.826 E251.96842
G1 X70.4 Y111.412 E252.10951
G1 X96.085 Y137.098 E255.73401
G1 X97.5 Y137.098 E255.8752
G1 X70.4 Y109.998 E259.69931
G1 X70.4 Y108.584 E259.8404
G1 X98.914 Y137.098 E263.86403
G1 X100.328 Y137.098 E264.00512
G1 X70.4 Y107.169 E268.22835
G1 X70.4 Y105.755 E268.36944
G1 X101.742 Y137.098 E272.79221
G1 X103.156 Y137.098 E272.9333
G1 X70.4 Y104.341 E277.55559
G1 X70.4 Y102.927 E277.69668
G1 X104.571 Y137.098 E282.51858
G1 X105.985 Y137.098 E282.65967
G1 X70.4 Y101.512 E287.68117
G1 X70.4 Y100.098 E287.82226
G1 X107.399 Y137.098 E293.04329
G1 X108.813 Y137.098 E293.18438
G1 X70.4 Y98.684 E298.60494
G1 X70.4 Y97.513 E298.72178
G1 X70.408 Y97.278 E298.74524
G1 X110.228 Y137.098 E304.36427
G1 X111.642 Y137.098 E304.50536
G1 X70.492 Y95.948 E310.31207
G1 X70.548 Y95.455 E310.36158
G1 X70.572 Y95.28 E310.37921
G1 X70.676 Y94.718 E310.43623
G1 X113.057 Y137.098 E316.41658
G1 X114.471 Y137.098 E316.55767
G1 X70.946 Y93.573 E322.69952
G1 X70.996 Y93.383 E322.71912
G1 X71.047 Y93.211 E322.73702
G1 X71.289 Y92.502 E322.81177
G1 X115.885 Y137.098 E329.10475
G1 X117.299 Y137.098 E329.24584
G1 X71.697 Y91.496 E335.68078
G1 X71.738 Y91.4 E335.69119
G1 X71.819 Y91.225 E335.71043
G1 X72.165 Y90.55 E335.78612
G1 X118.714 Y137.098 E342.35461
G1 X120.128 Y137.098 E342.4957
G1 X72.69 Y89.661 E349.18965
G1 X72.776 Y89.521 E349.20604
G1 X72.875 Y89.369 E349.22414
G1 X73.266 Y88.823 E349.29115
G1 X121.542 Y137.098 E356.10334
G1 X122.956 Y137.098 E356.24443
G1 X73.893 Y88.035 E363.16775
G1 X74.075 Y87.817 E363.19609
G1 X74.176 Y87.703 E363.21129
G1 X74.568 Y87.296 E363.26767
G1 X124.37 Y137.098 E370.29527
G1 X125.785 Y137.098 E370.43646
G1 X75.293 Y86.607 E377.56136
G1 X75.598 Y86.332 E377.60233
G1 X75.714 Y86.235 E377.61742
G1 X76.065 Y85.965 E377.66161
G1 X127.199 Y137.098 E384.8771
G1 X128.613 Y137.098 E385.01819
G1 X76.887 Y85.373 E392.31721
G1 X77.323 Y85.083 E392.36946
G1 X77.448 Y85.007 E392.38406
G1 X77.761 Y84.832 E392.41984
G1 X130.027 Y137.098 E399.79514
G1 X131.441 Y137.098 E399.93623
G1 X78.688 Y84.345 E407.38024
G1 X79.207 Y84.099 E407.43755
G1 X79.35 Y84.04 E407.45299
G1 X79.674 Y83.917 E407.48757
G1 X132.856 Y137.098 E414.99205
G1 X134.27 Y137.098 E415.13314
G1 X80.722 Y83.551 E422.68927
G1 X81.209 Y83.404 E422.74003
G1 X81.383 Y83.357 E422.75802
G1 X81.841 Y83.255 E422.80483
G1 X135.665 Y137.079 E430.39998
G1 X136.518 Y137.016 E430.48533
G1 X136.687 Y136.998 E430.50228
G1 X136.958 Y136.958 E430.52962
G1 X83.041 Y83.041 E438.13789
G1 X83.312 Y83 E438.16524
G1 X83.481 Y82.983 E438.18219
G1 X84.333 Y82.919 E438.26744
G1 X138.158 Y136.743 E445.86266
G1 X138.616 Y136.642 E445.90945
G1 X138.789 Y136.594 E445.92737
G1 X139.276 Y136.448 E445.9781
G1 X85.728 Y82.9 E453.5343
G1 X87.143 Y82.9 E453.67549
G1 X140.324 Y136.081 E461.1799
G1 X140.648 Y135.958 E461.21448
G1 X140.791 Y135.899 E461.22992
G1 X141.311 Y135.654 E461.28727
G1 X88.557 Y82.9 E468.73143
G1 X89.971 Y82.9 E468.87252
G1 X142.238 Y135.166 E476.24789
G1 X142.55 Y134.991 E476.28358
G1 X142.675 Y134.915 E476.29818
G1 X143.111 Y134.626 E476.35037
G1 X91.385 Y82.9 E483.64947
G1 X92.799 Y82.9 E483.79056
G1 X143.933 Y134.034 E491.00612
G1 X144.285 Y133.763 E491.05045
G1 X144.402 Y133.665 E491.06568
G1 X144.705 Y133.392 E491.10637
G1 X94.214 Y82.9 E498.23127
G1 X95.628 Y82.9 E498.37236
G1 X145.43 Y132.702 E505.39996
G1 X145.822 Y132.295 E505.45634
G1 X145.923 Y132.181 E505.47154
G1 X146.105 Y131.963 E505.49987
G1 X97.042 Y82.9 E512.42319
G1 X98.456 Y82.9 E512.56428
G1 X146.732 Y131.176 E519.37655
G1 X147.123 Y130.629 E519.44364
G1 X147.223 Y130.477 E519.46179
G1 X147.308 Y130.338 E519.47805
G1 X99.871 Y82.9 E526.17199
G1 X101.285 Y82.9 E526.31308
G1 X147.833 Y129.448 E532.88151
G1 X148.179 Y128.774 E532.9571
G1 X148.26 Y128.598 E532.97644
G1 X148.301 Y128.502 E532.98685
G1 X102.699 Y82.9 E539.42179
G1 X104.113 Y82.9 E539.56288
G1 X148.71 Y127.497 E545.85599
G1 X148.951 Y126.787 E545.93081
G1 X149.002 Y126.615 E545.94871
G1 X149.053 Y126.425 E545.96834
G1 X105.527 Y82.9 E552.11026
G1 X106.942 Y82.9 E552.25145
G1 X149.322 Y125.28 E558.23172
G1 X149.426 Y124.718 E558.28875
G1 X149.451 Y124.544 E558.30629
G1 X149.507 Y124.051 E558.3558
G1 X108.356 Y82.9 E564.16265
G1 X109.77 Y82.9 E564.30374
G1 X149.591 Y122.721 E569.92291
G1 X149.599 Y122.485 E569.94647
G1 X149.599 Y121.314 E570.06332
G1 X111.185 Y82.901 E575.48388
G1 X112.599 Y82.901 E575.62497
G1 X149.599 Y119.9 E580.846
G1 X149.599 Y118.486 E580.98708
G1 X114.013 Y82.901 E586.00858
G1 X115.428 Y82.901 E586.14977
G1 X149.599 Y117.072 E590.97167
G1 X149.599 Y115.657 E591.11286
G1 X116.842 Y82.901 E595.73515
G1 X118.256 Y82.901 E595.87624
G1 X149.599 Y114.243 E600.29901
G1 X149.599 Y112.829 E600.4401
G1 X119.67 Y82.901 E604.66333
G1 X121.084 Y82.901 E604.80442
G1 X149.599 Y111.415 E608.82813
G1 X149.599 Y110.001 E608.96922
G1 X122.499 Y82.901 E612.79332
