;FLAVOR:Marlin
;TIME:2255
;Filament used: 2.58693m
;Layer height: 0.2
;MINX:74.336
;MINY:91.888
;MINZ:0.24
;MAXX:145.664
;MAXY:141.164
;MAXZ:14.09
;Generated with Cura_SteamEngine 4.8.0
M140 S50
M105
M190 S50
M104 S200
M105
M109 S200
M82 ;absolute extrusion mode
M201 X500.00 Y500.00 Z100.00 E5000.00 ;Setup machine max acceleration
M203 X500.00 Y500.00 Z10.00 E50.00 ;Setup machine max feedrate
M204 P500.00 R1000.00 T500.00 ;Setup Print/Retract/Travel acceleration
M205 X8.00 Y8.00 Z0.40 E5.00 ;Setup Jerk
M220 S100 ;Reset Feedrate
M221 S100 ;Reset Flowrate

G28 ;Home

G92 E0 ;Reset Extruder
G1 Z2.0 F3000 ;Move Z Axis up
G1 X10.1 Y20 Z0.28 F5000.0 ;Move to start position
G1 X10.1 Y200.0 Z0.28 F1500.0 E15 ;Draw the first line
G1 X10.4 Y200.0 Z0.28 F5000.0 ;Move to side a little
G1 X10.4 Y20 Z0.28 F1500.0 E30 ;Draw the second line
G92 E0 ;Reset Extruder
G1 Z2.0 F3000 ;Move Z Axis up

G92 E0
G92 E0
G1 F2700 E-5
;LAYER_COUNT:65
;LAYER:-6
M107
G0 F12000 X80.598 Y96.333 Z0.24
;TYPE:SUPPORT-INTERFACE
G1 F2700 E0
G1 F1800 X80.714 Y96.237 E0.01202
G1 X81.426 Y95.687 E0.08384
G1 X81.585 Y95.574 E0.09941
G1 X82.323 Y95.084 E0.17012
G1 X82.449 Y95.008 E0.18187
G1 X83.243 Y94.562 E0.25456
G1 X83.393 Y94.484 E0.26806
G1 X84.208 Y94.101 E0.33994
G1 X84.351 Y94.041 E0.35232
G1 X85.21 Y93.712 E0.42574
G1 X85.36 Y93.66 E0.43842
G1 X86.21 Y93.405 E0.50926
G1 X86.383 Y93.358 E0.52357
G1 X87.278 Y93.158 E0.59677
G1 X87.408 Y93.135 E0.60731
G1 X88.313 Y93.001 E0.68034
G1 X88.482 Y92.983 E0.6939
G1 X89.371 Y92.917 E0.76506
G1 X89.555 Y92.908 E0.77977
G1 X90.06 Y92.9 E0.82008
G1 X130.003 Y92.901 E4.00851
G1 X131.004 Y92.937 E4.08846
G1 X131.127 Y92.946 E4.09831
G1 X132.044 Y93.048 E4.17196
G1 X132.219 Y93.073 E4.18607
G1 X133.108 Y93.237 E4.25823
G1 X133.231 Y93.265 E4.2683
G1 X134.125 Y93.499 E4.34207
G1 X134.288 Y93.548 E4.35565
G1 X135.13 Y93.834 E4.42664
G1 X135.296 Y93.898 E4.44084
G1 X136.099 Y94.239 E4.51048
G1 X136.288 Y94.327 E4.52712
G1 X137.082 Y94.735 E4.59838
G1 X137.199 Y94.802 E4.60914
G1 X137.978 Y95.276 E4.68193
G1 X138.129 Y95.376 E4.69639
G1 X138.843 Y95.887 E4.76648
G1 X138.991 Y96 E4.78134
G1 X139.682 Y96.576 E4.85315
G1 X139.795 Y96.677 E4.86525
G1 X140.444 Y97.302 E4.93717
G1 X140.564 Y97.427 E4.951
G1 X141.167 Y98.098 E5.02301
G1 X141.263 Y98.214 E5.03503
G1 X141.822 Y98.938 E5.10805
G1 X141.916 Y99.069 E5.12092
G1 X142.416 Y99.823 E5.19314
G1 X142.492 Y99.949 E5.20488
G1 X142.938 Y100.743 E5.27758
G1 X143.016 Y100.893 E5.29107
G1 X143.399 Y101.708 E5.36296
G1 X143.459 Y101.851 E5.37533
G1 X143.788 Y102.71 E5.44876
G1 X143.84 Y102.86 E5.46143
G1 X144.095 Y103.71 E5.53227
G1 X144.142 Y103.883 E5.54658
G1 X144.34 Y104.769 E5.61905
G1 X144.365 Y104.908 E5.63032
G1 X144.498 Y105.807 E5.70287
G1 X144.516 Y105.969 E5.71588
G1 X144.583 Y106.871 E5.78808
G1 X144.592 Y107.055 E5.80278
G1 X144.6 Y107.556 E5.84278
G1 X144.6 Y125.486 E7.27403
G1 X144.564 Y126.492 E7.35439
G1 X144.554 Y126.627 E7.36519
G1 X144.452 Y127.544 E7.43884
G1 X144.427 Y127.719 E7.45295
G1 X144.265 Y128.597 E7.52422
G1 X144.235 Y128.731 E7.53518
G1 X144.004 Y129.616 E7.60819
G1 X143.952 Y129.788 E7.62254
G1 X143.676 Y130.6 E7.691
G1 X143.596 Y130.809 E7.70886
G1 X143.261 Y131.599 E7.77736
G1 X143.18 Y131.774 E7.79275
G1 X142.765 Y132.582 E7.86526
G1 X142.698 Y132.699 E7.87602
G1 X142.224 Y133.478 E7.94881
G1 X142.124 Y133.629 E7.96327
G1 X141.613 Y134.343 E8.03335
G1 X141.5 Y134.491 E8.04822
G1 X140.924 Y135.182 E8.12003
G1 X140.823 Y135.295 E8.13213
G1 X140.198 Y135.944 E8.20405
G1 X140.073 Y136.064 E8.21788
G1 X139.403 Y136.666 E8.28978
G1 X139.286 Y136.763 E8.30191
G1 X138.574 Y137.313 E8.37373
G1 X138.415 Y137.426 E8.3893
G1 X137.677 Y137.916 E8.46001
G1 X137.551 Y137.992 E8.47176
G1 X136.757 Y138.438 E8.54445
G1 X136.606 Y138.516 E8.55802
G1 X135.792 Y138.899 E8.62983
G1 X135.649 Y138.959 E8.64221
G1 X134.79 Y139.288 E8.71564
G1 X134.64 Y139.34 E8.72831
G1 X133.79 Y139.595 E8.79915
G1 X133.617 Y139.642 E8.81346
G1 X132.722 Y139.842 E8.88666
G1 X132.592 Y139.865 E8.8972
G1 X131.687 Y139.999 E8.97023
G1 X131.519 Y140.017 E8.98372
G1 X130.629 Y140.083 E9.05495
G1 X130.445 Y140.092 E9.06966
G1 X129.94 Y140.1 E9.10998
G1 X89.997 Y140.099 E12.2984
G1 X88.996 Y140.063 E12.37835
G1 X88.873 Y140.054 E12.3882
G1 X87.956 Y139.952 E12.46185
G1 X87.781 Y139.927 E12.47596
G1 X86.892 Y139.763 E12.54812
G1 X86.769 Y139.735 E12.55819
G1 X85.875 Y139.501 E12.63196
G1 X85.712 Y139.452 E12.64555
G1 X84.87 Y139.166 E12.71653
G1 X84.704 Y139.102 E12.73073
G1 X83.901 Y138.761 E12.80037
G1 X83.712 Y138.673 E12.81701
G1 X82.918 Y138.265 E12.88827
G1 X82.801 Y138.198 E12.89903
G1 X82.022 Y137.724 E12.97182
G1 X81.871 Y137.624 E12.98628
G1 X81.157 Y137.113 E13.05637
G1 X81.009 Y137 E13.07123
G1 X80.318 Y136.424 E13.14304
G1 X80.205 Y136.323 E13.15514
G1 X79.556 Y135.698 E13.22706
G1 X79.436 Y135.573 E13.24089
G1 X78.833 Y134.902 E13.3129
G1 X78.736 Y134.784 E13.3251
G1 X78.178 Y134.062 E13.39794
G1 X78.074 Y133.915 E13.41231
G1 X77.581 Y133.172 E13.48349
G1 X77.508 Y133.051 E13.49477
G1 X77.056 Y132.246 E13.56846
G1 X76.984 Y132.107 E13.58096
G1 X76.587 Y131.261 E13.65556
G1 X76.541 Y131.149 E13.66522
G1 X76.212 Y130.29 E13.73865
G1 X76.155 Y130.125 E13.75258
G1 X75.905 Y129.29 E13.82216
G1 X75.858 Y129.117 E13.83647
G1 X75.657 Y128.216 E13.91016
G1 X75.635 Y128.092 E13.92021
G1 X75.5 Y127.178 E13.99396
G1 X75.483 Y127.018 E14.00681
G1 X75.417 Y126.126 E14.07821
G1 X75.408 Y125.945 E14.09267
G1 X75.4 Y125.444 E14.13267
G1 X75.4 Y107.514 E15.56392
G1 X75.436 Y106.508 E15.64427
G1 X75.446 Y106.373 E15.65508
G1 X75.548 Y105.456 E15.72873
G1 X75.573 Y105.281 E15.74284
G1 X75.735 Y104.403 E15.81411
G1 X75.765 Y104.269 E15.82507
G1 X75.996 Y103.384 E15.89808
G1 X76.048 Y103.212 E15.91243
G1 X76.334 Y102.37 E15.98341
G1 X76.398 Y102.204 E15.99761
G1 X76.739 Y101.401 E16.06725
G1 X76.82 Y101.226 E16.08264
G1 X77.235 Y100.418 E16.15515
G1 X77.302 Y100.301 E16.16591
G1 X77.776 Y99.522 E16.2387
G1 X77.876 Y99.371 E16.25316
G1 X78.387 Y98.657 E16.32325
G1 X78.5 Y98.509 E16.33811
G1 X79.076 Y97.818 E16.40992
G1 X79.177 Y97.705 E16.42202
G1 X79.802 Y97.056 E16.49394
G1 X79.927 Y96.936 E16.50777
G1 X80.598 Y96.333 E16.57978
G0 F12000 X80 Y96.87
G1 F1800 X80 Y136.125 E19.71329
G0 F12000 X81.6 Y137.43
G1 F1800 X81.6 Y95.564 E23.05521
G0 F12000 X83.2 Y94.586
G1 F1800 X83.2 Y138.409 E26.55336
G0 F12000 X84.8 Y139.139
G1 F1800 X84.8 Y93.869 E30.167
G0 F12000 X86.4 Y93.354
G1 F1800 X86.4 Y139.638 E33.86159
G0 F12000 X88 Y139.956
G1 F1800 X88 Y93.047 E37.60607
G0 F12000 X89.6 Y92.907
G1 F1800 X89.6 Y140.084 E41.37194
G0 F12000 X91.2 Y140.099
G1 F1800 X91.2 Y92.901 E45.13949
G0 F12000 X92.8 Y92.901
G1 F1800 X92.8 Y140.099 E48.90704
G0 F12000 X94.4 Y140.099
G1 F1800 X94.4 Y92.901 E52.67459
G0 F12000 X96 Y92.901
G1 F1800 X96 Y140.099 E56.44214
G0 F12000 X97.6 Y140.099
G1 F1800 X97.6 Y92.901 E60.20969
G0 F12000 X99.2 Y92.901
G1 F1800 X99.2 Y140.099 E63.97723
G0 F12000 X100.8 Y140.099
G1 F1800 X100.8 Y92.901 E67.74478
G0 F12000 X102.4 Y92.901
G1 F1800 X102.4 Y140.099 E71.51233
G0 F12000 X104 Y140.099
G1 F1800 X104 Y92.901 E75.27988
G0 F12000 X105.6 Y92.901
G1 F1800 X105.6 Y140.099 E79.04743
G0 F12000 X107.2 Y140.099
G1 F1800 X107.2 Y92.901 E82.81498
G0 F12000 X108.8 Y92.901
G1 F1800 X108.8 Y140.099 E86.58252
G0 F12000 X110.4 Y140.099
G1 F1800 X110.4 Y92.901 E90.35007
G0 F12000 X112 Y92.901
G1 F1800 X112 Y140.099 E94.11762
G0 F12000 X113.6 Y140.099
G1 F1800 X113.6 Y92.901 E97.88517
G0 F12000 X115.2 Y92.901
G1 F1800 X115.2 Y140.099 E101.65272
G0 F12000 X116.8 Y140.099
G1 F1800 X116.8 Y92.901 E105.42027
G0 F12000 X118.4 Y92.901
G1 F1800 X118.4 Y140.099 E109.18781
G0 F12000 X120 Y140.099
G1 F1800 X120 Y92.901 E112.95536
G0 F12000 X121.6 Y92.901
G1 F1800 X121.6 Y140.099 E116.72291
G0 F12000 X123.2 Y140.099
G1 F1800 X123.2 Y92.901 E120.49046
G0 F12000 X124.8 Y92.901
G1 F1800 X124.8 Y140.099 E124.25801
G0 F12000 X126.4 Y140.099
G1 F1800 X126.4 Y92.901 E128.02556
G0 F12000 X128 Y92.901
G1 F1800 X128 Y140.099 E131.79311
G0 F12000 X129.6 Y140.099
G1 F1800 X129.6 Y92.901 E135.56065
G0 F12000 X131.2 Y92.955
G1 F1800 X131.2 Y140.041 E139.31926
G0 F12000 X132.8 Y139.825
G1 F1800 X132.8 Y93.181 E143.04259
G0 F12000 X134.4 Y93.587
G1 F1800 X134.4 Y139.412 E146.70054
G0 F12000 X136 Y138.802
G1 F1800 X136 Y94.197 E150.2611
G0 F12000 X137.6 Y95.046
G1 F1800 X137.6 Y137.963 E153.68692
G0 F12000 X139.2 Y136.83
G1 F1800 X139.2 Y96.175 E156.93218
G0 F12000 X140.8 Y97.69
G1 F1800 X140.8 Y135.319 E159.93589
G0 F12000 X142.4 Y133.189
G1 F1800 X142.4 Y99.799 E162.60122
G0 F12000 X144 Y103.394
G1 F1800 X144 Y129.63 E164.69549
G1 F2700 E159.69549
G0 F12000 X144.964 Y130.12
G0 X144.231 Y132.038
G0 X143.613 Y133.243
G0 X142.466 Y134.981
G0 X141.608 Y136.014
G0 X140.103 Y137.468
G0 X139.023 Y138.299
G0 X137.257 Y139.378
G0 X136.039 Y139.95
G0 X134.073 Y140.621
G0 X132.758 Y140.917
G0 X130.69 Y141.146
G0 X88.943 Y141.126
G0 X87.617 Y140.979
G0 X85.59 Y140.527
G0 X84.3 Y140.087
G0 X82.42 Y139.205
G0 X81.261 Y138.496
G0 X79.617 Y137.225
G0 X78.843 Y136.478
G0 X77.558 Y135
G0 X78.4 Y134.349
G1 F2700 E164.69549
G1 F1800 X78.4 Y98.639 E167.54602
G0 F12000 X76.8 Y101.269
G1 F1800 X76.8 Y131.714 E169.97627
G0 F300 X76.8 Y131.714 Z0.54
G0 F12000 X77.018 Y132.172
;TIME_ELAPSED:82.759412
;LAYER:-5
;TYPE:SUPPORT
G1 F1800 X83.312 Y138.467 E170.86449
G1 X82.917 Y138.264 E170.90881
G1 X82.8 Y138.196 E170.92231
G1 X82.021 Y137.723 E171.01325
G1 X81.87 Y137.623 E171.03132
G1 X81.157 Y137.112 E171.11885
G1 X81.008 Y136.999 E171.13751
G1 X80.318 Y136.422 E171.22725
G1 X80.205 Y136.322 E171.24231
G1 X79.555 Y135.697 E171.33229
G1 X79.436 Y135.572 E171.34951
G1 X78.833 Y134.901 E171.43952
G1 X78.736 Y134.783 E171.45476
G1 X78.178 Y134.061 E171.54581
G1 X78.073 Y133.914 E171.56384
G1 X77.58 Y133.17 E171.65289
G1 X77.508 Y133.049 E171.66694
G1 X77.055 Y132.245 E171.75902
G1 F2700 E166.75902
G0 F12000 X76.128 Y132.766
G0 X77.201 Y134.523
G0 X78.032 Y135.603
G0 X79.486 Y137.108
G0 X80.519 Y137.966
G0 X81.011 Y138.29
G0 X82.42 Y139.205
G0 X83.312 Y138.467
G1 F2700 E171.75902
G1 F1800 X83.711 Y138.672 E171.80378
G1 X83.901 Y138.759 E171.82463
G1 X84.703 Y139.101 E171.91163
G1 X84.869 Y139.165 E171.92938
G1 X85.709 Y139.449 E172.01786
G1 X76.056 Y129.796 E173.38
G1 X75.905 Y129.288 E173.43288
G1 X75.858 Y129.116 E173.45067
G1 X75.656 Y128.214 E173.5429
G1 X75.634 Y128.09 E173.55547
G1 X75.612 Y127.938 E173.57079
G1 X87.558 Y139.884 E175.2565
G1 X87.78 Y139.925 E175.27903
G1 X87.956 Y139.951 E175.29678
G1 X88.872 Y140.053 E175.38875
G1 X88.996 Y140.062 E175.40115
G1 X89.156 Y140.067 E175.41712
G1 X75.432 Y126.344 E177.35366
G1 X75.417 Y126.125 E177.37556
G1 X75.407 Y125.944 E177.39365
G1 X75.4 Y125.443 E177.44364
G1 X75.399 Y124.896 E177.49822
G1 X90.6 Y140.098 E179.64332
G1 X92.015 Y140.098 E179.78451
G1 X75.399 Y123.482 E182.12921
G1 X75.399 Y122.068 E182.2703
G1 X93.429 Y140.098 E184.81452
G1 X94.843 Y140.098 E184.95561
G1 X75.399 Y120.654 E187.69937
G1 X75.399 Y119.24 E187.84046
G1 X96.257 Y140.098 E190.78375
G1 X97.671 Y140.098 E190.92484
G1 X75.399 Y117.825 E194.06773
G1 X75.399 Y116.411 E194.20882
G1 X99.086 Y140.098 E197.55131
G1 X100.5 Y140.098 E197.6924
G1 X75.399 Y114.997 E201.23442
G1 X75.399 Y113.583 E201.37551
G1 X101.914 Y140.098 E205.11706
G1 X103.328 Y140.098 E205.25815
G1 X75.399 Y112.169 E209.19924
G1 X75.399 Y110.754 E209.34043
G1 X104.743 Y140.098 E213.48118
G1 X106.157 Y140.098 E213.62227
G1 X75.399 Y109.34 E217.96256
G1 X75.399 Y107.926 E218.10365
G1 X107.571 Y140.098 E222.64346
G1 X108.985 Y140.098 E222.78455
G1 X75.433 Y106.546 E227.5191
G1 X75.435 Y106.507 E227.523
G1 X75.446 Y106.372 E227.53652
G1 X75.547 Y105.455 E227.62857
G1 X75.573 Y105.28 E227.64622
G1 X75.574 Y105.272 E227.64702
G1 X110.4 Y140.099 E232.56142
G1 X111.814 Y140.099 E232.70251
G1 X75.81 Y104.094 E237.78313
G1 X75.995 Y103.383 E237.85644
G1 X76.047 Y103.21 E237.87446
G1 X76.121 Y102.991 E237.89753
G1 X113.229 Y140.099 E243.13387
G1 X114.643 Y140.099 E243.27496
G1 X76.501 Y101.957 E248.65721
G1 X76.739 Y101.4 E248.71765
G1 X76.82 Y101.225 E248.73689
G1 X76.943 Y100.984 E248.76389
G1 X116.057 Y140.099 E254.28336
G1 X117.471 Y140.099 E254.42445
G1 X77.442 Y100.069 E260.07305
G1 X77.776 Y99.521 E260.13708
G1 X77.875 Y99.37 E260.1551
G1 X77.993 Y99.206 E260.17526
G1 X118.885 Y140.099 E265.94563
G1 X120.3 Y140.099 E266.08682
G1 X78.594 Y98.393 E271.97199
G1 X79.075 Y97.816 E272.04694
G1 X79.176 Y97.704 E272.06199
G1 X79.246 Y97.631 E272.07208
G1 X121.714 Y140.099 E278.06478
G1 X123.128 Y140.099 E278.20587
G1 X79.947 Y96.918 E284.29917
G1 X80.598 Y96.332 E284.38657
G1 X80.695 Y96.252 E284.39912
G1 X124.542 Y140.099 E290.5864
G1 X125.956 Y140.099 E290.72749
G1 X81.495 Y95.637 E297.00149
G1 X81.585 Y95.573 E297.01251
G1 X82.322 Y95.083 E297.10082
G1 X82.343 Y95.071 E297.10323
G1 X127.371 Y140.099 E303.45717
G1 X128.785 Y140.099 E303.59826
G1 X83.246 Y94.559 E310.02437
G1 X83.393 Y94.483 E310.04088
G1 X84.203 Y94.103 E310.13016
G1 X130.195 Y140.094 E316.62005
G1 X130.444 Y140.091 E316.6449
G1 X130.629 Y140.082 E316.66338
G1 X131.519 Y140.015 E316.75244
G1 X131.528 Y140.014 E316.75334
G1 X85.221 Y93.707 E323.28776
G1 X85.36 Y93.659 E323.30243
G1 X86.209 Y93.403 E323.39091
G1 X86.307 Y93.378 E323.40101
G1 X132.76 Y139.831 E329.95603
G1 X133.617 Y139.641 E330.04361
G1 X133.79 Y139.594 E330.0615
G1 X133.903 Y139.56 E330.07328
G1 X87.469 Y93.125 E336.62569
G1 X88.313 Y93 E336.71082
G1 X88.482 Y92.982 E336.72778
G1 X88.722 Y92.964 E336.75179
G1 X134.973 Y139.216 E343.27838
G1 X135.649 Y138.958 E343.35058
G1 X135.792 Y138.897 E343.36609
G1 X135.98 Y138.808 E343.38684
G1 X90.071 Y92.9 E349.86503
G1 X91.486 Y92.9 E350.00622
G1 X136.926 Y138.341 E356.41836
G1 X137.551 Y137.991 E356.48984
G1 X137.677 Y137.914 E356.50457
G1 X137.82 Y137.82 E356.52165
G1 X92.9 Y92.9 E362.86034
G1 X94.314 Y92.9 E363.00143
G1 X138.66 Y137.245 E369.25906
G1 X139.285 Y136.762 E369.33788
G1 X139.402 Y136.666 E369.35298
G1 X139.45 Y136.622 E369.35948
G1 X95.728 Y92.9 E375.52912
G1 X97.143 Y92.9 E375.67031
G1 X140.19 Y135.948 E381.74478
G1 X140.197 Y135.943 E381.74564
G1 X140.821 Y135.294 E381.83547
G1 X140.883 Y135.227 E381.84458
G1 X98.557 Y92.9 E387.81731
G1 X99.971 Y92.9 E387.9584
G1 X141.527 Y134.456 E393.8224
G1 X141.612 Y134.343 E393.83651
G1 X142.119 Y133.633 E393.92356
G1 X101.385 Y92.9 E399.6715
G1 X102.799 Y92.9 E399.81258
G1 X142.66 Y132.76 E405.43733
G1 X142.697 Y132.699 E405.44445
G1 X142.764 Y132.581 E405.45799
G1 X143.148 Y131.834 E405.5418
G1 X104.214 Y92.9 E411.03581
G1 X105.628 Y92.9 E411.1769
G1 X143.578 Y130.85 E416.53205
G1 X143.595 Y130.809 E416.53648
G1 X143.675 Y130.599 E416.5589
G1 X143.946 Y129.804 E416.64271
G1 X107.042 Y92.9 E421.85026
G1 X108.456 Y92.9 E421.99135
G1 X144.244 Y128.687 E427.04135
G1 X144.263 Y128.597 E427.05053
G1 X144.426 Y127.719 E427.13964
G1 X144.451 Y127.544 E427.15728
G1 X144.457 Y127.487 E427.16299
G1 X109.87 Y92.9 E432.04359
G1 X111.285 Y92.9 E432.18478
G1 X144.574 Y126.189 E436.88222
G1 X144.599 Y125.485 E436.95251
G1 X144.599 Y124.8 E437.02086
G1 X112.699 Y92.9 E441.52229
G1 X114.113 Y92.9 E441.66338
G1 X144.599 Y123.386 E445.96529
G1 X144.599 Y121.972 E446.10638
G1 X115.527 Y92.9 E450.20875
G1 X116.942 Y92.9 E450.34994
G1 X144.599 Y120.558 E454.25271
G1 X144.599 Y119.143 E454.3939
G1 X118.356 Y92.9 E458.09707
G1 X119.77 Y92.9 E458.23816
G1 X144.599 Y117.729 E461.7418
G1 X144.599 Y116.315 E461.88289
G1 X121.184 Y92.9 E465.187
G1 X122.598 Y92.9 E465.32809
G1 X144.599 Y114.901 E468.43267
G1 X144.599 Y113.487 E468.57376
G1 X124.013 Y92.9 E471.47874
G1 X125.427 Y92.9 E471.61983
G1 X144.599 Y112.072 E474.3252
G1 X144.599 Y110.658 E474.46629
G1 X126.841 Y92.9 E476.97214
G1 X128.255 Y92.9 E477.11323
G1 X144.599 Y109.244 E479.41954
G1 X144.599 Y107.83 E479.56063
G1 X129.669 Y92.9 E481.66742
G1 X130.002 Y92.9 E481.70064
G1 X131.003 Y92.937 E481.80059
G1 X131.126 Y92.945 E481.81289
G0 F12000 X131.13 Y92.946
G1 F1800 X144.544 Y106.36 E483.70575
G1 X144.514 Y105.969 E483.74488
G1 X144.497 Y105.807 E483.76113
G1 X144.364 Y104.907 E483.85191
