;FLAVOR:Marlin
;TIME:1865
;Filament used: 2.08291m
;Layer height: 0.2
;MINX:74.336
;MINY:77.941
;MINZ:0.24
;MAXX:145.665
;MAXY:131.165
;MAXZ:6.09
;Generated with Cura_SteamEngine 4.8.0
M140 S50
M105
M190 S50
M104 S200
M105
M109 S200
M82 ;absolute extrusion mode
M201 X500.00 Y500.00 Z100.00 E5000.00 ;Setup machine max acceleration
M203 X500.00 Y500.00 Z10.00 E50.00 ;Setup machine max feedrate
M204 P500.00 R1000.00 T500.00 ;Setup Print/Retract/Travel acceleration
M205 X8.00 Y8.00 Z0.40 E5.00 ;Setup Jerk
M220 S100 ;Reset Feedrate
M221 S100 ;Reset Flowrate

G28 ;Home

G92 E0 ;Reset Extruder
G1 Z2.0 F3000 ;Move Z Axis up
G1 X10.1 Y20 Z0.28 F5000.0 ;Move to start position
G1 X10.1 Y200.0 Z0.28 F1500.0 E15 ;Draw the first line
G1 X10.4 Y200.0 Z0.28 F5000.0 ;Move to side a little
G1 X10.4 Y20 Z0.28 F1500.0 E30 ;Draw the second line
G92 E0 ;Reset Extruder
G1 Z2.0 F3000 ;Move Z Axis up

G92 E0
G92 E0
G1 F2700 E-5
;LAYER_COUNT:25
;LAYER:-6
M107
G0 F12000 X79.802 Y83.056 Z0.24
;TYPE:SUPPORT-INTERFACE
G1 F2700 E0
G1 F1800 X79.927 Y82.936 E0.01383
G1 X80.598 Y82.333 E0.08584
G1 X80.714 Y82.237 E0.09786
G1 X81.426 Y81.687 E0.16968
G1 X81.585 Y81.574 E0.18525
G1 X82.323 Y81.084 E0.25596
G1 X82.449 Y81.008 E0.26771
G1 X83.243 Y80.562 E0.34041
G1 X83.393 Y80.484 E0.3539
G1 X84.208 Y80.101 E0.42578
G1 X84.351 Y80.041 E0.43816
G1 X85.21 Y79.712 E0.51159
G1 X85.36 Y79.66 E0.52426
G1 X86.21 Y79.405 E0.5951
G1 X86.383 Y79.358 E0.60941
G1 X87.278 Y79.158 E0.68261
G1 X87.408 Y79.135 E0.69315
G1 X88.313 Y79.001 E0.76618
G1 X88.482 Y78.983 E0.77975
G1 X89.371 Y78.917 E0.85091
G1 X89.555 Y78.908 E0.86561
G1 X90.06 Y78.9 E0.90593
G1 X130.003 Y78.901 E4.09435
G1 X131.004 Y78.937 E4.17431
G1 X131.127 Y78.946 E4.18415
G1 X132.044 Y79.048 E4.2578
G1 X132.219 Y79.073 E4.27191
G1 X133.108 Y79.237 E4.34408
G1 X133.231 Y79.265 E4.35414
G1 X134.125 Y79.499 E4.42791
G1 X134.288 Y79.548 E4.4415
G1 X135.13 Y79.834 E4.51248
G1 X135.296 Y79.898 E4.52668
G1 X136.099 Y80.239 E4.59632
G1 X136.288 Y80.327 E4.61296
G1 X137.082 Y80.735 E4.68422
G1 X137.199 Y80.802 E4.69499
G1 X137.978 Y81.276 E4.76778
G1 X138.129 Y81.376 E4.78223
G1 X138.843 Y81.887 E4.85232
G1 X138.991 Y82 E4.86718
G1 X139.682 Y82.576 E4.93899
G1 X139.795 Y82.677 E4.95109
G1 X140.444 Y83.302 E5.02301
G1 X140.564 Y83.427 E5.03684
G1 X141.167 Y84.098 E5.10886
G1 X141.263 Y84.214 E5.12088
G1 X141.822 Y84.938 E5.19389
G1 X141.916 Y85.069 E5.20676
G1 X142.416 Y85.823 E5.27898
G1 X142.492 Y85.949 E5.29073
G1 X142.938 Y86.743 E5.36342
G1 X143.016 Y86.893 E5.37692
G1 X143.399 Y87.708 E5.4488
G1 X143.459 Y87.851 E5.46118
G1 X143.788 Y88.71 E5.5346
G1 X143.84 Y88.86 E5.54728
G1 X144.095 Y89.71 E5.61812
G1 X144.142 Y89.883 E5.63243
G1 X144.34 Y90.769 E5.70489
G1 X144.365 Y90.908 E5.71617
G1 X144.498 Y91.807 E5.78871
G1 X144.516 Y91.969 E5.80172
G1 X144.583 Y92.871 E5.87392
G1 X144.592 Y93.055 E5.88863
G1 X144.6 Y93.556 E5.92862
G1 X144.6 Y115.486 E7.67917
G1 X144.564 Y116.492 E7.75953
G1 X144.554 Y116.627 E7.77033
G1 X144.452 Y117.544 E7.84398
G1 X144.427 Y117.719 E7.85809
G1 X144.265 Y118.597 E7.92936
G1 X144.235 Y118.731 E7.94032
G1 X144.004 Y119.616 E8.01334
G1 X143.952 Y119.788 E8.02768
G1 X143.676 Y120.6 E8.09614
G1 X143.596 Y120.809 E8.114
G1 X143.261 Y121.599 E8.1825
G1 X143.18 Y121.774 E8.19789
G1 X142.765 Y122.582 E8.2704
G1 X142.698 Y122.699 E8.28116
G1 X142.224 Y123.478 E8.35395
G1 X142.124 Y123.629 E8.36841
G1 X141.613 Y124.343 E8.4385
G1 X141.5 Y124.491 E8.45336
G1 X140.924 Y125.182 E8.52517
G1 X140.823 Y125.295 E8.53727
G1 X140.198 Y125.944 E8.60919
G1 X140.073 Y126.064 E8.62302
G1 X139.403 Y126.666 E8.69492
G1 X139.286 Y126.763 E8.70705
G1 X138.574 Y127.313 E8.77887
G1 X138.415 Y127.426 E8.79444
G1 X137.677 Y127.916 E8.86515
G1 X137.551 Y127.992 E8.8769
G1 X136.757 Y128.438 E8.94959
G1 X136.606 Y128.516 E8.96316
G1 X135.792 Y128.899 E9.03497
G1 X135.649 Y128.959 E9.04735
G1 X134.79 Y129.288 E9.12078
G1 X134.64 Y129.34 E9.13345
G1 X133.79 Y129.595 E9.20429
G1 X133.617 Y129.642 E9.2186
G1 X132.722 Y129.842 E9.2918
G1 X132.592 Y129.865 E9.30234
G1 X131.687 Y129.999 E9.37537
G1 X131.519 Y130.017 E9.38886
G1 X130.629 Y130.083 E9.4601
G1 X130.445 Y130.092 E9.4748
G1 X129.94 Y130.1 E9.51512
G1 X89.997 Y130.099 E12.70354
G1 X88.996 Y130.063 E12.7835
G1 X88.873 Y130.054 E12.79334
G1 X87.956 Y129.952 E12.86699
G1 X87.781 Y129.927 E12.8811
G1 X86.892 Y129.763 E12.95326
G1 X86.769 Y129.735 E12.96333
G1 X85.875 Y129.501 E13.0371
G1 X85.712 Y129.452 E13.05069
G1 X84.87 Y129.166 E13.12167
G1 X84.704 Y129.102 E13.13587
G1 X83.901 Y128.761 E13.20551
G1 X83.712 Y128.673 E13.22215
G1 X82.918 Y128.265 E13.29341
G1 X82.801 Y128.198 E13.30417
G1 X82.022 Y127.724 E13.37696
G1 X81.871 Y127.624 E13.39142
G1 X81.157 Y127.113 E13.46151
G1 X81.009 Y127 E13.47637
G1 X80.318 Y126.424 E13.54818
G1 X80.205 Y126.323 E13.56028
G1 X79.556 Y125.698 E13.6322
G1 X79.436 Y125.573 E13.64603
G1 X78.833 Y124.902 E13.71805
G1 X78.736 Y124.784 E13.73024
G1 X78.178 Y124.062 E13.80308
G1 X78.074 Y123.915 E13.81745
G1 X77.581 Y123.172 E13.88863
G1 X77.508 Y123.051 E13.89991
G1 X77.056 Y122.246 E13.97361
G1 X76.984 Y122.107 E13.9861
G1 X76.587 Y121.261 E14.0607
G1 X76.541 Y121.149 E14.07036
G1 X76.212 Y120.29 E14.14379
G1 X76.155 Y120.125 E14.15772
G1 X75.905 Y119.29 E14.2273
G1 X75.858 Y119.117 E14.24161
G1 X75.657 Y118.216 E14.3153
G1 X75.635 Y118.092 E14.32535
G1 X75.5 Y117.178 E14.39911
G1 X75.483 Y117.018 E14.41195
G1 X75.417 Y116.126 E14.48335
G1 X75.408 Y115.945 E14.49781
G1 X75.4 Y115.444 E14.53781
G1 X75.4 Y93.514 E16.28836
G1 X75.436 Y92.508 E16.36871
G1 X75.446 Y92.373 E16.37952
G1 X75.548 Y91.456 E16.45317
G1 X75.573 Y91.281 E16.46728
G1 X75.735 Y90.403 E16.53855
G1 X75.765 Y90.269 E16.54951
G1 X75.996 Y89.384 E16.62252
G1 X76.048 Y89.212 E16.63686
G1 X76.334 Y88.37 E16.70785
G1 X76.398 Y88.204 E16.72205
G1 X76.739 Y87.401 E16.79169
G1 X76.82 Y87.226 E16.80708
G1 X77.235 Y86.418 E16.87959
G1 X77.302 Y86.301 E16.89035
G1 X77.776 Y85.522 E16.96314
G1 X77.876 Y85.371 E16.9776
G1 X78.387 Y84.657 E17.04769
G1 X78.5 Y84.509 E17.06255
G1 X79.076 Y83.818 E17.13436
G1 X79.177 Y83.705 E17.14646
G1 X79.802 Y83.056 E17.21838
G0 F12000 X80 Y82.87
G1 F1800 X80 Y126.125 E20.67118
G0 F12000 X81.6 Y127.43
G1 F1800 X81.6 Y81.564 E24.3324
G0 F12000 X83.2 Y80.586
G1 F1800 X83.2 Y128.409 E28.14984
G0 F12000 X84.8 Y129.139
G1 F1800 X84.8 Y79.869 E32.08279
G0 F12000 X86.4 Y79.354
G1 F1800 X86.4 Y129.638 E36.09667
G0 F12000 X88 Y129.956
G1 F1800 X88 Y79.047 E40.16045
G0 F12000 X89.6 Y78.907
G1 F1800 X89.6 Y130.084 E44.24562
G0 F12000 X91.2 Y130.099
G1 F1800 X91.2 Y78.901 E48.33246
G0 F12000 X92.8 Y78.901
G1 F1800 X92.8 Y130.099 E52.41931
G0 F12000 X94.4 Y130.099
G1 F1800 X94.4 Y78.901 E56.50616
G0 F12000 X96 Y78.901
G1 F1800 X96 Y130.099 E60.593
G0 F12000 X97.6 Y130.099
G1 F1800 X97.6 Y78.901 E64.67985
G0 F12000 X99.2 Y78.901
G1 F1800 X99.2 Y130.099 E68.76669
G0 F12000 X100.8 Y130.099
G1 F1800 X100.8 Y78.901 E72.85354
G0 F12000 X102.4 Y78.901
G1 F1800 X102.4 Y130.099 E76.94038
G0 F12000 X104 Y130.099
G1 F1800 X104 Y78.901 E81.02723
G0 F12000 X105.6 Y78.901
G1 F1800 X105.6 Y130.099 E85.11408
G0 F12000 X107.2 Y130.099
G1 F1800 X107.2 Y78.901 E89.20092
G0 F12000 X108.8 Y78.901
G1 F1800 X108.8 Y130.099 E93.28777
G0 F12000 X110.4 Y130.099
G1 F1800 X110.4 Y78.901 E97.37461
G0 F12000 X112 Y78.901
G1 F1800 X112 Y130.099 E101.46146
G0 F12000 X113.6 Y130.099
G1 F1800 X113.6 Y78.901 E105.5483
G0 F12000 X115.2 Y78.901
G1 F1800 X115.2 Y130.099 E109.63515
G0 F12000 X116.8 Y130.099
G1 F1800 X116.8 Y78.901 E113.722
G0 F12000 X118.4 Y78.901
G1 F1800 X118.4 Y130.099 E117.80884
G0 F12000 X120 Y130.099
G1 F1800 X120 Y78.901 E121.89569
G0 F12000 X121.6 Y78.901
G1 F1800 X121.6 Y130.099 E125.98253
G0 F12000 X123.2 Y130.099
G1 F1800 X123.2 Y78.901 E130.06938
G0 F12000 X124.8 Y78.901
G1 F1800 X124.8 Y130.099 E134.15622
G0 F12000 X126.4 Y130.099
G1 F1800 X126.4 Y78.901 E138.24307
G0 F12000 X128 Y78.901
G1 F1800 X128 Y130.099 E142.32992
G0 F12000 X129.6 Y130.099
G1 F1800 X129.6 Y78.901 E146.41676
G0 F12000 X131.2 Y78.955
G1 F1800 X131.2 Y130.041 E150.49467
G0 F12000 X132.8 Y129.825
G1 F1800 X132.8 Y79.181 E154.53729
G0 F12000 X134.4 Y79.587
G1 F1800 X134.4 Y129.412 E158.51454
G0 F12000 X136 Y128.802
G1 F1800 X136 Y80.197 E162.3944
G0 F12000 X137.6 Y81.046
G1 F1800 X137.6 Y127.963 E166.13952
G0 F12000 X139.2 Y126.83
G1 F1800 X139.2 Y82.175 E169.70407
G0 F12000 X140.8 Y83.69
G1 F1800 X140.8 Y125.319 E173.02708
G0 F12000 X142.4 Y123.189
G1 F1800 X142.4 Y85.799 E176.01171
G0 F12000 X144 Y89.394
G1 F1800 X144 Y119.63 E178.42528
G1 F2700 E173.42528
G0 F12000 X144.964 Y120.12
G0 X144.231 Y122.038
G0 X143.613 Y123.243
G0 X142.466 Y124.981
G0 X141.608 Y126.014
G0 X140.103 Y127.468
G0 X139.023 Y128.299
G0 X137.257 Y129.378
G0 X136.039 Y129.95
G0 X134.073 Y130.621
G0 X132.758 Y130.917
G0 X130.69 Y131.146
G0 X88.943 Y131.126
G0 X87.617 Y130.979
G0 X85.59 Y130.527
G0 X84.3 Y130.087
G0 X82.42 Y129.205
G0 X81.261 Y128.496
G0 X79.617 Y127.225
G0 X78.843 Y126.478
G0 X77.558 Y125
G0 X78.4 Y124.349
G1 F2700 E178.42528
G1 F1800 X78.4 Y84.639 E181.5951
G0 F12000 X76.8 Y87.269
G1 F1800 X76.8 Y121.714 E184.34465
G0 F300 X76.8 Y121.714 Z0.54
G0 F12000 X77.508 Y123.05
;TIME_ELAPSED:88.760157
;LAYER:-5
;TYPE:SUPPORT
G1 F1800 X77.58 Y123.17 E184.35861
G1 X78.073 Y123.914 E184.44767
G1 X78.178 Y124.061 E184.4657
G1 X78.736 Y124.783 E184.55674
G1 X78.833 Y124.901 E184.57199
G1 X79.436 Y125.572 E184.662
G1 X79.555 Y125.697 E184.67922
G1 X80.205 Y126.322 E184.7692
G1 X80.318 Y126.422 E184.78425
G1 X81.008 Y126.999 E184.874
G1 X81.157 Y127.112 E184.89266
G1 X81.87 Y127.623 E184.98019
G1 X82.021 Y127.723 E184.99826
G1 X82.8 Y128.197 E185.08925
G1 X82.917 Y128.264 E185.1027
G1 X83.106 Y128.361 E185.1239
G1 X77.138 Y122.393 E185.96605
G1 X77.055 Y122.245 E185.98298
G1 X76.984 Y122.106 E185.99855
G1 X76.586 Y121.26 E186.09184
G1 X76.54 Y121.147 E186.10402
G1 X76.211 Y120.288 E186.1958
G1 X76.154 Y120.124 E186.21312
G1 X76.099 Y119.94 E186.23229
G1 X85.557 Y129.398 E187.56691
G1 X85.711 Y129.45 E187.58313
G1 X85.874 Y129.5 E187.60014
G1 X86.769 Y129.734 E187.69245
G1 X86.892 Y129.762 E187.70503
G1 X87.435 Y129.862 E187.76013
G1 X75.629 Y118.055 E189.42615
G1 X75.499 Y117.176 E189.51481
G1 X75.482 Y117.016 E189.53087
G1 X75.441 Y116.453 E189.58719
G1 X89.051 Y130.063 E191.50771
G1 X89.997 Y130.098 E191.60217
G1 X90.5 Y130.098 E191.65236
G1 X75.4 Y114.998 E193.78313
G1 X75.4 Y113.583 E193.92432
G1 X91.914 Y130.098 E196.25469
G1 X93.328 Y130.098 E196.39578
G1 X75.4 Y112.169 E198.92569
G1 X75.4 Y110.755 E199.06678
G1 X94.743 Y130.098 E201.79628
G1 X96.157 Y130.098 E201.93737
G1 X75.4 Y109.341 E204.86641
G1 X75.4 Y107.927 E205.0075
G1 X97.571 Y130.098 E208.13607
G1 X98.985 Y130.098 E208.27716
G1 X75.4 Y106.512 E211.60532
G1 X75.4 Y105.098 E211.74641
G1 X100.399 Y130.098 E215.27411
G1 X101.814 Y130.098 E215.4153
G1 X75.4 Y103.684 E219.1426
G1 X75.4 Y102.27 E219.28369
G1 X103.228 Y130.098 E223.21052
G1 X104.642 Y130.098 E223.35161
G1 X75.4 Y100.856 E227.47798
G1 X75.4 Y99.441 E227.61917
G1 X106.056 Y130.098 E231.94513
G1 X107.471 Y130.098 E232.08632
G1 X75.4 Y98.027 E236.61188
G1 X75.4 Y96.613 E236.75297
G1 X108.885 Y130.098 E241.47807
G1 X110.3 Y130.099 E241.61926
G1 X75.4 Y95.199 E246.54402
G1 X75.4 Y93.784 E246.68521
G1 X111.714 Y130.099 E251.80958
G1 X113.128 Y130.099 E251.95067
G1 X75.442 Y92.413 E257.26857
G1 X75.445 Y92.372 E257.27267
G1 X75.547 Y91.455 E257.36474
G1 X75.572 Y91.28 E257.38238
G1 X75.596 Y91.152 E257.39537
G1 X114.542 Y130.099 E262.89114
G1 X115.957 Y130.099 E263.03233
G1 X75.839 Y89.981 E268.69341
G1 X75.996 Y89.383 E268.75511
G1 X76.047 Y89.211 E268.77301
G1 X76.158 Y88.886 E268.80727
G1 X117.371 Y130.099 E274.62287
G1 X118.785 Y130.099 E274.76396
G1 X76.544 Y87.858 E280.72462
G1 X76.738 Y87.4 E280.77425
G1 X76.82 Y87.225 E280.79354
G1 X76.991 Y86.89 E280.83107
G1 X120.199 Y130.099 E286.92825
G1 X121.613 Y130.099 E287.06934
G1 X77.495 Y85.98 E293.29494
G1 X77.776 Y85.521 E293.34864
G1 X77.876 Y85.37 E293.36671
G1 X78.052 Y85.123 E293.39697
G1 X123.028 Y130.099 E299.74357
G1 X124.442 Y130.099 E299.88466
G1 X78.659 Y84.316 E306.34514
G1 X79.075 Y83.817 E306.40996
G1 X79.176 Y83.703 E306.42516
G1 X79.316 Y83.558 E306.44527
G1 X125.856 Y130.099 E313.01264
G1 X127.27 Y130.099 E313.15373
G1 X80.021 Y82.85 E319.82107
G1 X80.598 Y82.331 E319.89851
G1 X80.714 Y82.235 E319.91353
G1 X80.774 Y82.189 E319.92108
G1 X128.684 Y130.099 E326.6817
G1 X129.94 Y130.099 E326.80702
G1 X130.097 Y130.097 E326.82269
G1 X81.578 Y81.578 E333.66924
G1 X81.583 Y81.573 E333.66995
G1 X82.322 Y81.083 E333.75842
G1 X82.432 Y81.018 E333.77117
G1 X131.436 Y130.022 E340.68616
G1 X131.518 Y130.016 E340.69437
G1 X131.685 Y129.998 E340.71113
G1 X132.591 Y129.865 E340.8025
G1 X132.677 Y129.849 E340.81123
G1 X83.34 Y80.511 E347.77328
G1 X83.391 Y80.484 E347.77904
G1 X84.207 Y80.101 E347.86898
G1 X84.303 Y80.06 E347.8794
G1 X133.826 Y129.583 E354.86763
G1 X134.639 Y129.34 E354.95229
G1 X134.789 Y129.288 E354.96814
G1 X134.901 Y129.244 E354.98014
G1 X85.327 Y79.671 E361.9755
G1 X85.359 Y79.659 E361.97891
G1 X86.209 Y79.405 E362.06743
G1 X86.382 Y79.357 E362.08534
G1 X86.42 Y79.349 E362.08922
G1 X135.912 Y128.841 E369.07307
G1 X136.605 Y128.515 E369.14949
G1 X136.756 Y128.438 E369.1664
G1 X136.863 Y128.378 E369.17864
G1 X87.592 Y79.107 E376.13131
G1 X88.311 Y79 E376.20385
G1 X88.48 Y78.983 E376.22079
G1 X88.855 Y78.955 E376.25832
G1 X137.759 Y127.859 E383.1592
G1 X138.414 Y127.425 E383.2376
G1 X138.573 Y127.313 E383.257
G1 X138.602 Y127.289 E383.26076
G1 X90.214 Y78.9 E390.0889
G1 X91.628 Y78.9 E390.22999
G1 X139.397 Y126.669 E396.97071
G1 X139.402 Y126.666 E396.97129
G1 X140.072 Y126.064 E397.06117
G1 X140.14 Y125.997 E397.07069
G1 X93.042 Y78.9 E403.71666
G1 X94.456 Y78.9 E403.85775
G1 X140.835 Y125.279 E410.40233
G1 X140.923 Y125.181 E410.41547
G1 X141.482 Y124.512 E410.50246
G1 X95.87 Y78.9 E416.9388
G1 X97.285 Y78.9 E417.07999
G1 X142.077 Y123.692 E423.40063
G1 X142.122 Y123.629 E423.40835
G1 X142.223 Y123.477 E423.42656
G1 X142.622 Y122.823 E423.50301
G1 X98.699 Y78.9 E429.70102
G1 X100.113 Y78.9 E429.84211
G1 X143.114 Y121.9 E435.90994
G1 X143.179 Y121.773 E435.92418
G1 X143.26 Y121.599 E435.94333
G1 X143.548 Y120.92 E436.01692
G1 X101.527 Y78.9 E441.94647
G1 X102.942 Y78.9 E442.08766
G1 X143.92 Y119.879 E447.87016
G1 X143.951 Y119.788 E447.87976
G1 X144.003 Y119.616 E447.89769
G1 X144.225 Y118.769 E447.98506
G1 X104.356 Y78.9 E453.611
G1 X105.77 Y78.9 E453.75209
G1 X144.447 Y117.577 E459.20983
G1 X144.451 Y117.544 E459.21315
G1 X144.553 Y116.626 E459.30531
G1 X144.563 Y116.492 E459.31872
G1 X144.57 Y116.286 E459.33929
G1 X107.184 Y78.9 E464.61486
G1 X108.598 Y78.9 E464.75594
G1 X144.599 Y114.9 E469.836
G1 X144.599 Y113.486 E469.97709
G1 X110.013 Y78.9 E474.85755
G1 X111.428 Y78.901 E474.99874
G1 X144.599 Y112.072 E479.67953
G1 X144.599 Y110.657 E479.82072
G1 X112.842 Y78.901 E484.3019
G1 X114.256 Y78.901 E484.44299
G1 X144.599 Y109.243 E488.72465
G1 X144.599 Y107.829 E488.86574
G1 X115.67 Y78.901 E492.94786
G1 X117.084 Y78.901 E493.08895
G1 X144.599 Y106.415 E496.97154
G1 X144.599 Y105.001 E497.11263
G1 X118.499 Y78.901 E500.79562
G1 X119.913 Y78.901 E500.93671
G1 X144.599 Y103.586 E504.4201
G1 X144.599 Y102.172 E504.56119
G1 X121.327 Y78.901 E507.84505
G1 X122.741 Y78.901 E507.98614
G1 X144.599 Y100.758 E511.07047
G1 X144.599 Y99.344 E511.21156
G1 X124.155 Y78.901 E514.09636
G1 X125.57 Y78.901 E514.23755
G1 X144.599 Y97.93 E516.92275
G1 X144.599 Y96.515 E517.06394
G1 X126.984 Y78.901 E519.54953
G1 X128.398 Y78.901 E519.69062
G1 X144.599 Y95.101 E521.97669
G1 X144.599 Y93.687 E522.11778
G1 X129.812 Y78.901 E524.20431
G1 X130.002 Y78.901 E524.22327
G1 X131.002 Y78.937 E524.32312
G1 X131.126 Y78.946 E524.33552
G1 X131.29 Y78.964 E524.35198
G1 X144.533 Y92.207 E526.22071
G1 X144.515 Y91.969 E526.24453
G1 X144.497 Y91.806 E526.26089
G1 X144.364 Y90.908 E526.35147
G1 X144.339 Y90.769 E526.36556
G1 X144.29 Y90.55 E526.38796
G1 X132.948 Y79.207 E527.98851
G1 X133.107 Y79.236 E528.00463
