;FLAVOR:Marlin
;TIME:2504
;Filament used: 2.9599m
;Layer height: 0.2
;MINX:74.336
;MINY:89.888
;MINZ:0.24
;MAXX:145.665
;MAXY:143.164
;MAXZ:14.09
;Generated with Cura_SteamEngine 4.8.0
M140 S50
M105
M190 S50
M104 S200
M105
M109 S200
M82 ;absolute extrusion mode
M201 X500.00 Y500.00 Z100.00 E5000.00 ;Setup machine max acceleration
M203 X500.00 Y500.00 Z10.00 E50.00 ;Setup machine max feedrate
M204 P500.00 R1000.00 T500.00 ;Setup Print/Retract/Travel acceleration
M205 X8.00 Y8.00 Z0.40 E5.00 ;Setup Jerk
M220 S100 ;Reset Feedrate
M221 S100 ;Reset Flowrate

G28 ;Home

G92 E0 ;Reset Extruder
G1 Z2.0 F3000 ;Move Z Axis up
G1 X10.1 Y20 Z0.28 F5000.0 ;Move to start position
G1 X10.1 Y200.0 Z0.28 F1500.0 E15 ;Draw the first line
G1 X10.4 Y200.0 Z0.28 F5000.0 ;Move to side a little
G1 X10.4 Y20 Z0.28 F1500.0 E30 ;Draw the second line
G92 E0 ;Reset Extruder
G1 Z2.0 F3000 ;Move Z Axis up

G92 E0
G92 E0
G1 F2700 E-5
;LAYER_COUNT:65
;LAYER:-6
M107
G0 F12000 X80.598 Y94.333 Z0.24
;TYPE:SUPPORT-INTERFACE
G1 F2700 E0
G1 F1800 X80.714 Y94.237 E0.01202
G1 X81.426 Y93.687 E0.08384
G1 X81.585 Y93.574 E0.09941
G1 X82.323 Y93.084 E0.17012
G1 X82.449 Y93.008 E0.18187
G1 X83.243 Y92.562 E0.25456
G1 X83.393 Y92.484 E0.26806
G1 X84.208 Y92.101 E0.33994
G1 X84.351 Y92.041 E0.35232
G1 X85.21 Y91.712 E0.42574
G1 X85.36 Y91.66 E0.43842
G1 X86.21 Y91.405 E0.50926
G1 X86.383 Y91.358 E0.52357
G1 X87.278 Y91.158 E0.59677
G1 X87.408 Y91.135 E0.60731
G1 X88.313 Y91.001 E0.68034
G1 X88.482 Y90.983 E0.6939
G1 X89.371 Y90.917 E0.76506
G1 X89.555 Y90.908 E0.77977
G1 X90.06 Y90.9 E0.82008
G1 X130.003 Y90.901 E4.00851
G1 X131.004 Y90.937 E4.08846
G1 X131.127 Y90.946 E4.09831
G1 X132.044 Y91.048 E4.17196
G1 X132.219 Y91.073 E4.18607
G1 X133.108 Y91.237 E4.25823
G1 X133.231 Y91.265 E4.2683
G1 X134.125 Y91.499 E4.34207
G1 X134.288 Y91.548 E4.35565
G1 X135.13 Y91.834 E4.42664
G1 X135.296 Y91.898 E4.44084
G1 X136.099 Y92.239 E4.51048
G1 X136.288 Y92.327 E4.52712
G1 X137.082 Y92.735 E4.59838
G1 X137.199 Y92.802 E4.60914
G1 X137.978 Y93.276 E4.68193
G1 X138.129 Y93.376 E4.69639
G1 X138.843 Y93.887 E4.76648
G1 X138.991 Y94 E4.78134
G1 X139.682 Y94.576 E4.85315
G1 X139.795 Y94.677 E4.86525
G1 X140.444 Y95.302 E4.93717
G1 X140.564 Y95.427 E4.951
G1 X141.167 Y96.098 E5.02301
G1 X141.263 Y96.214 E5.03503
G1 X141.822 Y96.938 E5.10805
G1 X141.916 Y97.069 E5.12092
G1 X142.416 Y97.823 E5.19314
G1 X142.492 Y97.949 E5.20488
G1 X142.938 Y98.743 E5.27758
G1 X143.016 Y98.893 E5.29107
G1 X143.399 Y99.708 E5.36296
G1 X143.459 Y99.851 E5.37533
G1 X143.788 Y100.71 E5.44876
G1 X143.84 Y100.86 E5.46143
G1 X144.095 Y101.71 E5.53227
G1 X144.142 Y101.883 E5.54658
G1 X144.34 Y102.769 E5.61905
G1 X144.365 Y102.908 E5.63032
G1 X144.498 Y103.807 E5.70287
G1 X144.516 Y103.969 E5.71588
G1 X144.583 Y104.871 E5.78808
G1 X144.592 Y105.055 E5.80278
G1 X144.6 Y105.556 E5.84278
G1 X144.6 Y127.486 E7.59333
G1 X144.564 Y128.492 E7.67368
G1 X144.554 Y128.627 E7.68449
G1 X144.452 Y129.544 E7.75814
G1 X144.427 Y129.719 E7.77225
G1 X144.265 Y130.597 E7.84352
G1 X144.235 Y130.731 E7.85448
G1 X144.004 Y131.616 E7.92749
G1 X143.952 Y131.788 E7.94183
G1 X143.676 Y132.6 E8.01029
G1 X143.596 Y132.809 E8.02816
G1 X143.261 Y133.599 E8.09665
G1 X143.18 Y133.774 E8.11205
G1 X142.765 Y134.582 E8.18456
G1 X142.698 Y134.699 E8.19532
G1 X142.224 Y135.478 E8.26811
G1 X142.124 Y135.629 E8.28256
G1 X141.613 Y136.343 E8.35265
G1 X141.5 Y136.491 E8.36752
G1 X140.924 Y137.182 E8.43932
G1 X140.823 Y137.295 E8.45142
G1 X140.198 Y137.944 E8.52335
G1 X140.073 Y138.064 E8.53718
G1 X139.403 Y138.666 E8.60908
G1 X139.286 Y138.763 E8.62121
G1 X138.574 Y139.313 E8.69303
G1 X138.415 Y139.426 E8.7086
G1 X137.677 Y139.916 E8.77931
G1 X137.551 Y139.992 E8.79106
G1 X136.757 Y140.438 E8.86375
G1 X136.606 Y140.516 E8.87732
G1 X135.792 Y140.899 E8.94913
G1 X135.649 Y140.959 E8.96151
G1 X134.79 Y141.288 E9.03493
G1 X134.64 Y141.34 E9.04761
G1 X133.79 Y141.595 E9.11844
G1 X133.617 Y141.642 E9.13275
G1 X132.722 Y141.842 E9.20596
G1 X132.592 Y141.865 E9.2165
G1 X131.687 Y141.999 E9.28953
G1 X131.519 Y142.017 E9.30301
G1 X130.629 Y142.083 E9.37425
G1 X130.445 Y142.092 E9.38896
G1 X129.94 Y142.1 E9.42927
G1 X89.997 Y142.099 E12.6177
G1 X88.996 Y142.063 E12.69765
G1 X88.873 Y142.054 E12.7075
G1 X87.956 Y141.952 E12.78115
G1 X87.781 Y141.927 E12.79526
G1 X86.892 Y141.763 E12.86742
G1 X86.769 Y141.735 E12.87749
G1 X85.875 Y141.501 E12.95126
G1 X85.712 Y141.452 E12.96484
G1 X84.87 Y141.166 E13.03583
G1 X84.704 Y141.102 E13.05003
G1 X83.901 Y140.761 E13.11967
G1 X83.712 Y140.673 E13.13631
G1 X82.918 Y140.265 E13.20757
G1 X82.801 Y140.198 E13.21833
G1 X82.022 Y139.724 E13.29112
G1 X81.871 Y139.624 E13.30558
G1 X81.157 Y139.113 E13.37566
G1 X81.009 Y139 E13.39053
G1 X80.318 Y138.424 E13.46234
G1 X80.205 Y138.323 E13.47443
G1 X79.556 Y137.698 E13.54636
G1 X79.436 Y137.573 E13.56019
G1 X78.833 Y136.902 E13.6322
G1 X78.736 Y136.784 E13.64439
G1 X78.178 Y136.062 E13.71723
G1 X78.074 Y135.915 E13.73161
G1 X77.581 Y135.172 E13.80279
G1 X77.508 Y135.051 E13.81407
G1 X77.056 Y134.246 E13.88776
G1 X76.984 Y134.107 E13.90026
G1 X76.587 Y133.261 E13.97485
G1 X76.541 Y133.149 E13.98452
G1 X76.212 Y132.29 E14.05795
G1 X76.155 Y132.125 E14.07188
G1 X75.905 Y131.29 E14.14146
G1 X75.858 Y131.117 E14.15577
G1 X75.657 Y130.216 E14.22946
G1 X75.635 Y130.092 E14.23951
G1 X75.5 Y129.178 E14.31326
G1 X75.483 Y129.018 E14.3261
G1 X75.417 Y128.126 E14.3975
G1 X75.408 Y127.945 E14.41197
G1 X75.4 Y127.444 E14.45197
G1 X75.4 Y105.514 E16.20251
G1 X75.436 Y104.508 E16.28287
G1 X75.446 Y104.373 E16.29367
G1 X75.548 Y103.456 E16.36732
G1 X75.573 Y103.281 E16.38144
G1 X75.735 Y102.403 E16.4527
G1 X75.765 Y102.269 E16.46367
G1 X75.996 Y101.384 E16.53668
G1 X76.048 Y101.212 E16.55102
G1 X76.334 Y100.37 E16.622
G1 X76.398 Y100.204 E16.63621
G1 X76.739 Y99.401 E16.70584
G1 X76.82 Y99.226 E16.72124
G1 X77.235 Y98.418 E16.79375
G1 X77.302 Y98.301 E16.80451
G1 X77.776 Y97.522 E16.8773
G1 X77.876 Y97.371 E16.89175
G1 X78.387 Y96.657 E16.96184
G1 X78.5 Y96.509 E16.97671
G1 X79.076 Y95.818 E17.04851
G1 X79.177 Y95.705 E17.06061
G1 X79.802 Y95.056 E17.13254
G1 X79.927 Y94.936 E17.14637
G1 X80.598 Y94.333 E17.21838
G0 F12000 X80 Y94.87
G1 F1800 X80 Y138.125 E20.67118
G0 F12000 X81.6 Y139.43
G1 F1800 X81.6 Y93.564 E24.3324
G0 F12000 X83.2 Y92.586
G1 F1800 X83.2 Y140.409 E28.14984
G0 F12000 X84.8 Y141.139
G1 F1800 X84.8 Y91.869 E32.08279
G0 F12000 X86.4 Y91.354
G1 F1800 X86.4 Y141.638 E36.09667
G0 F12000 X88 Y141.956
G1 F1800 X88 Y91.047 E40.16045
G0 F12000 X89.6 Y90.907
G1 F1800 X89.6 Y142.084 E44.24562
G0 F12000 X91.2 Y142.099
G1 F1800 X91.2 Y90.901 E48.33246
G0 F12000 X92.8 Y90.901
G1 F1800 X92.8 Y142.099 E52.41931
G0 F12000 X94.4 Y142.099
G1 F1800 X94.4 Y90.901 E56.50616
G0 F12000 X96 Y90.901
G1 F1800 X96 Y142.099 E60.593
G0 F12000 X97.6 Y142.099
G1 F1800 X97.6 Y90.901 E64.67985
G0 F12000 X99.2 Y90.901
G1 F1800 X99.2 Y142.099 E68.76669
G0 F12000 X100.8 Y142.099
G1 F1800 X100.8 Y90.901 E72.85354
G0 F12000 X102.4 Y90.901
G1 F1800 X102.4 Y142.099 E76.94038
G0 F12000 X104 Y142.099
G1 F1800 X104 Y90.901 E81.02723
G0 F12000 X105.6 Y90.901
G1 F1800 X105.6 Y142.099 E85.11408
G0 F12000 X107.2 Y142.099
G1 F1800 X107.2 Y90.901 E89.20092
G0 F12000 X108.8 Y90.901
G1 F1800 X108.8 Y142.099 E93.28777
G0 F12000 X110.4 Y142.099
G1 F1800 X110.4 Y90.901 E97.37461
G0 F12000 X112 Y90.901
G1 F1800 X112 Y142.099 E101.46146
G0 F12000 X113.6 Y142.099
G1 F1800 X113.6 Y90.901 E105.5483
G0 F12000 X115.2 Y90.901
G1 F1800 X115.2 Y142.099 E109.63515
G0 F12000 X116.8 Y142.099
G1 F1800 X116.8 Y90.901 E113.722
G0 F12000 X118.4 Y90.901
G1 F1800 X118.4 Y142.099 E117.80884
G0 F12000 X120 Y142.099
G1 F1800 X120 Y90.901 E121.89569
G0 F12000 X121.6 Y90.901
G1 F1800 X121.6 Y142.099 E125.98253
G0 F12000 X123.2 Y142.099
G1 F1800 X123.2 Y90.901 E130.06938
G0 F12000 X124.8 Y90.901
G1 F1800 X124.8 Y142.099 E134.15622
G0 F12000 X126.4 Y142.099
G1 F1800 X126.4 Y90.901 E138.24307
G0 F12000 X128 Y90.901
G1 F1800 X128 Y142.099 E142.32992
G0 F12000 X129.6 Y142.099
G1 F1800 X129.6 Y90.901 E146.41676
G0 F12000 X131.2 Y90.955
G1 F1800 X131.2 Y142.041 E150.49467
G0 F12000 X132.8 Y141.825
G1 F1800 X132.8 Y91.181 E154.53729
G0 F12000 X134.4 Y91.587
G1 F1800 X134.4 Y141.412 E158.51454
G0 F12000 X136 Y140.802
G1 F1800 X136 Y92.197 E162.3944
G0 F12000 X137.6 Y93.046
G1 F1800 X137.6 Y139.963 E166.13952
G0 F12000 X139.2 Y138.83
G1 F1800 X139.2 Y94.175 E169.70407
G0 F12000 X140.8 Y95.69
G1 F1800 X140.8 Y137.319 E173.02708
G0 F12000 X142.4 Y135.189
G1 F1800 X142.4 Y97.799 E176.01171
G0 F12000 X144 Y101.394
G1 F1800 X144 Y131.63 E178.42528
G1 F2700 E173.42528
G0 F12000 X144.964 Y132.12
G0 X144.231 Y134.038
G0 X143.613 Y135.243
G0 X142.466 Y136.981
G0 X141.608 Y138.014
G0 X140.103 Y139.468
G0 X139.023 Y140.299
G0 X137.257 Y141.378
G0 X136.039 Y141.95
G0 X134.073 Y142.621
G0 X132.758 Y142.917
G0 X130.69 Y143.146
G0 X88.943 Y143.126
G0 X87.617 Y142.979
G0 X85.59 Y142.527
G0 X84.3 Y142.087
G0 X82.42 Y141.205
G0 X81.261 Y140.496
G0 X79.617 Y139.225
G0 X78.843 Y138.478
G0 X77.558 Y137
G0 X78.4 Y136.349
G1 F2700 E178.42528
G1 F1800 X78.4 Y96.639 E181.5951
G0 F12000 X76.8 Y99.269
G1 F1800 X76.8 Y133.714 E184.34465
G0 F300 X76.8 Y133.714 Z0.54
G0 F12000 X78.514 Y136.497
;TIME_ELAPSED:88.855117
;LAYER:-5
;TYPE:SUPPORT
G1 F1800 X81.039 Y139.022 E184.70096
G1 X81.008 Y138.998 E184.70487
G1 X80.317 Y138.423 E184.79457
G1 X80.205 Y138.322 E184.80961
G1 X79.555 Y137.697 E184.89959
G1 X79.435 Y137.572 E184.91688
G1 X78.833 Y136.9 E185.0069
G1 X78.735 Y136.783 E185.02213
G0 F12000 X81.039 Y139.022
G1 F1800 X81.156 Y139.112 E185.03686
G1 X81.87 Y139.623 E185.12447
G1 X82.022 Y139.723 E185.14262
G1 X82.801 Y140.197 E185.23361
G1 X82.918 Y140.264 E185.24706
G1 X83.712 Y140.672 E185.33614
G1 X83.901 Y140.76 E185.35694
G1 X84.406 Y140.975 E185.4117
G1 X76.517 Y133.085 E186.525
G1 X76.211 Y132.289 E186.61009
G1 X76.155 Y132.124 E186.62748
G1 X75.904 Y131.289 E186.71448
G1 X75.857 Y131.116 E186.73236
G1 X75.827 Y130.981 E186.74616
G1 X86.512 Y141.666 E188.25393
G1 X86.769 Y141.733 E188.28043
G1 X86.892 Y141.762 E188.29304
G1 X87.78 Y141.926 E188.38314
G1 X87.956 Y141.95 E188.40087
G1 X88.242 Y141.982 E188.42958
G1 X75.51 Y129.25 E190.22621
G1 X75.499 Y129.177 E190.23357
G1 X75.483 Y129.017 E190.24962
G1 X75.417 Y128.124 E190.33896
G1 X75.407 Y127.944 E190.35695
G1 X75.404 Y127.73 E190.37831
G1 X89.763 Y142.089 E192.40452
G1 X89.997 Y142.098 E192.42788
G1 X91.186 Y142.098 E192.54652
G1 X75.4 Y126.311 E194.77417
G1 X75.4 Y124.897 E194.91526
G1 X92.6 Y142.098 E197.34243
G1 X94.014 Y142.098 E197.48352
G1 X75.4 Y123.483 E200.11023
G1 X75.4 Y122.069 E200.25132
G1 X95.429 Y142.098 E203.07763
G1 X96.843 Y142.098 E203.21872
G1 X75.4 Y120.655 E206.24456
G1 X75.4 Y119.24 E206.38575
G1 X98.257 Y142.098 E209.61119
G1 X99.671 Y142.098 E209.75228
G1 X75.4 Y117.826 E213.17725
G1 X75.4 Y116.412 E213.31834
G1 X101.085 Y142.098 E216.94284
G1 X102.5 Y142.098 E217.08403
G1 X75.4 Y114.998 E220.90813
G1 X75.4 Y113.583 E221.04932
G1 X103.914 Y142.098 E225.07302
G1 X105.328 Y142.098 E225.21411
G1 X75.4 Y112.169 E229.43735
G1 X75.4 Y110.755 E229.57844
G1 X106.742 Y142.098 E234.0012
G1 X108.156 Y142.098 E234.14229
G1 X75.4 Y109.341 E238.76459
G1 X75.4 Y107.927 E238.90568
G1 X109.571 Y142.098 E243.72757
G1 X110.986 Y142.098 E243.86876
G1 X75.4 Y106.512 E248.89033
G1 X75.4 Y105.513 E248.99001
G1 X75.413 Y105.112 E249.03005
G1 X112.4 Y142.098 E254.24924
G1 X113.814 Y142.098 E254.39033
G1 X75.509 Y103.794 E259.79551
G1 X75.547 Y103.454 E259.82964
G1 X75.572 Y103.28 E259.84718
G1 X75.702 Y102.572 E259.91901
G1 X115.228 Y142.098 E265.49656
G1 X116.642 Y142.098 E265.63765
G1 X75.981 Y101.437 E271.37535
G1 X75.995 Y101.383 E271.38092
G1 X76.047 Y101.211 E271.39885
G1 X76.331 Y100.373 E271.48713
G1 X118.057 Y142.098 E277.37505
G1 X119.471 Y142.098 E277.51614
G1 X76.749 Y99.376 E283.54468
G1 X76.82 Y99.225 E283.56133
G1 X77.224 Y98.437 E283.64969
G1 X120.885 Y142.098 E289.81073
G1 X122.299 Y142.098 E289.95181
G1 X77.755 Y97.554 E296.23745
G1 X77.776 Y97.521 E296.24136
G1 X77.875 Y97.37 E296.25937
G1 X78.338 Y96.723 E296.33876
G1 X123.713 Y142.098 E302.74166
G1 X125.128 Y142.098 E302.88285
G1 X78.971 Y95.941 E309.3961
G1 X79.075 Y95.817 E309.41225
G1 X79.176 Y95.704 E309.42737
G1 X79.653 Y95.209 E309.49596
G1 X126.542 Y142.098 E316.11251
G1 X127.956 Y142.098 E316.2536
G1 X80.383 Y94.525 E322.96666
G1 X80.597 Y94.332 E322.99542
G1 X80.714 Y94.236 E323.01052
G1 X81.162 Y93.89 E323.067
G1 X129.37 Y142.098 E329.86967
G1 X129.94 Y142.099 E329.92654
G1 X130.444 Y142.09 E329.97684
G1 X130.628 Y142.082 E329.99522
G1 X130.758 Y142.072 E330.00823
G1 X81.991 Y93.304 E336.88985
G1 X82.322 Y93.083 E336.92956
G1 X82.448 Y93.007 E336.94424
G1 X82.87 Y92.77 E336.99254
G1 X132.045 Y141.945 E343.93166
G1 X132.591 Y141.864 E343.98674
G1 X132.722 Y141.841 E344.00001
G1 X133.24 Y141.725 E344.05297
G1 X83.804 Y92.29 E351.02886
G1 X84.207 Y92.1 E351.07331
G1 X84.35 Y92.039 E351.08883
G1 X84.798 Y91.869 E351.13664
G1 X134.353 Y141.424 E358.12938
G1 X134.64 Y141.339 E358.15925
G1 X134.79 Y141.287 E358.17509
G1 X135.397 Y141.054 E358.23997
G1 X85.854 Y91.511 E365.23102
G1 X86.209 Y91.404 E365.26802
G1 X86.382 Y91.356 E365.28593
G1 X86.981 Y91.223 E365.34715
G1 X136.378 Y140.621 E372.31767
G1 X136.605 Y140.514 E372.34272
G1 X136.757 Y140.437 E372.35972
G1 X137.302 Y140.13 E372.42213
G1 X88.19 Y91.018 E379.35237
G1 X88.313 Y91 E379.36477
G1 X88.481 Y90.982 E379.38163
G1 X89.37 Y90.916 E379.47058
G1 X89.496 Y90.91 E379.48316
G1 X138.172 Y139.586 E386.35187
G1 X138.415 Y139.425 E386.38096
G1 X138.573 Y139.312 E386.40034
G1 X138.99 Y138.99 E386.45291
G1 X90.899 Y90.899 E393.23907
G1 X92.314 Y90.899 E393.38026
G1 X139.758 Y138.344 E400.07519
G1 X140.072 Y138.064 E400.11717
G1 X140.197 Y137.944 E400.13446
G1 X140.48 Y137.651 E400.1751
G1 X93.728 Y90.899 E406.77232
G1 X95.142 Y90.899 E406.91341
G1 X141.151 Y136.908 E413.40577
G1 X141.499 Y136.491 E413.45997
G1 X141.612 Y136.342 E413.47863
G1 X141.774 Y136.117 E413.50629
G1 X96.556 Y90.899 E419.88704
G1 X97.971 Y90.899 E420.02823
G1 X142.346 Y135.275 E426.29009
G1 X142.697 Y134.698 E426.35748
G1 X142.764 Y134.581 E426.37093
G1 X142.867 Y134.382 E426.39329
G1 X99.385 Y90.899 E432.52914
G1 X100.799 Y90.899 E432.67023
G1 X143.331 Y133.431 E438.67196
G1 X143.595 Y132.808 E438.73947
G1 X143.674 Y132.6 E438.76167
G1 X143.735 Y132.422 E438.78045
G1 X102.213 Y90.899 E444.63972
G1 X103.627 Y90.899 E444.78081
G1 X144.073 Y131.345 E450.48818
G1 X144.234 Y130.731 E450.55151
G1 X144.263 Y130.596 E450.56529
G1 X144.338 Y130.196 E450.6059
G1 X105.042 Y90.899 E456.15106
G1 X106.456 Y90.899 E456.29215
G1 X144.517 Y128.96 E461.66297
G1 X144.553 Y128.626 E461.69649
G1 X144.563 Y128.491 E461.70999
G1 X144.594 Y127.624 E461.79656
G1 X107.87 Y90.899 E466.97878
G1 X109.284 Y90.899 E467.11987
G1 X144.599 Y126.215 E472.10327
G1 X144.599 Y124.8 E472.24446
G1 X110.699 Y90.9 E477.02812
G1 X112.113 Y90.9 E477.1692
G1 X144.599 Y123.386 E481.75333
G1 X144.599 Y121.972 E481.89442
G1 X113.528 Y90.9 E486.27894
G1 X114.942 Y90.9 E486.42003
G1 X144.599 Y120.558 E490.60503
G1 X144.599 Y119.143 E490.74622
G1 X116.356 Y90.9 E494.73161
G1 X117.77 Y90.9 E494.8727
G1 X144.599 Y117.729 E498.65856
G1 X144.599 Y116.315 E498.79965
G1 X119.184 Y90.9 E502.38598
G1 X120.599 Y90.9 E502.52717
G1 X144.599 Y114.901 E505.9139
G1 X144.599 Y113.487 E506.05499
G1 X122.013 Y90.9 E509.24219
G1 X123.427 Y90.9 E509.38328
G1 X144.599 Y112.072 E512.37088
G1 X144.599 Y110.658 E512.51197
G1 X124.841 Y90.9 E515.30003
G1 X126.256 Y90.9 E515.44122
G1 X144.599 Y109.244 E518.02969
G1 X144.599 Y107.83 E518.17078
G1 X127.67 Y90.9 E520.55971
G1 X129.084 Y90.9 E520.7008
G1 X144.599 Y106.416 E522.89021
G1 X144.599 Y105.556 E522.97602
G1 X144.591 Y105.055 E523.02601
G1 X144.588 Y104.99 E523.03251
G1 X130.517 Y90.919 E525.01808
G1 X131.002 Y90.936 E525.0665
G1 X131.126 Y90.945 E525.07891
G1 X132.042 Y91.047 E525.17087
G1 X132.063 Y91.051 E525.173
G1 X144.441 Y103.429 E526.91967
G1 X144.364 Y102.908 E526.97222
G1 X144.339 Y102.768 E526.98641
