;FLAVOR:Marlin
;TIME:1082
;Filament used: 1.13021m
;Layer height: 0.2
;MINX:84.335
;MINY:83.023
;MINZ:0.24
;MAXX:135.447
;MAXY:132.165
;MAXZ:6.09
;Generated with Cura_SteamEngine 4.8.0
M140 S50
M105
M190 S50
M104 S200
M105
M109 S200
M82 ;absolute extrusion mode
M201 X500.00 Y500.00 Z100.00 E5000.00 ;Setup machine max acceleration
M203 X500.00 Y500.00 Z10.00 E50.00 ;Setup machine max feedrate
M204 P500.00 R1000.00 T500.00 ;Setup Print/Retract/Travel acceleration
M205 X8.00 Y8.00 Z0.40 E5.00 ;Setup Jerk
M220 S100 ;Reset Feedrate
M221 S100 ;Reset Flowrate

G28 ;Home

G92 E0 ;Reset Extruder
G1 Z2.0 F3000 ;Move Z Axis up
G1 X10.1 Y20 Z0.28 F5000.0 ;Move to start position
G1 X10.1 Y200.0 Z0.28 F1500.0 E15 ;Draw the first line
G1 X10.4 Y200.0 Z0.28 F5000.0 ;Move to side a little
G1 X10.4 Y20 Z0.28 F1500.0 E30 ;Draw the second line
G92 E0 ;Reset Extruder
G1 Z2.0 F3000 ;Move Z Axis up

G92 E0
G92 E0
G1 F2700 E-5
;LAYER_COUNT:25
;LAYER:-6
M107
G0 F12000 X89.802 Y88.056 Z0.24
;TYPE:SUPPORT-INTERFACE
G1 F2700 E0
G1 F1800 X89.927 Y87.936 E0.01383
G1 X90.598 Y87.333 E0.08584
G1 X90.714 Y87.237 E0.09786
G1 X91.426 Y86.687 E0.16968
G1 X91.585 Y86.574 E0.18525
G1 X92.323 Y86.084 E0.25596
G1 X92.449 Y86.008 E0.26771
G1 X93.243 Y85.562 E0.34041
G1 X93.393 Y85.484 E0.3539
G1 X94.208 Y85.101 E0.42578
G1 X94.351 Y85.041 E0.43816
G1 X95.21 Y84.712 E0.51159
G1 X95.36 Y84.66 E0.52426
G1 X96.21 Y84.405 E0.5951
G1 X96.383 Y84.358 E0.60941
G1 X97.278 Y84.158 E0.68261
G1 X97.408 Y84.135 E0.69315
G1 X98.313 Y84.001 E0.76618
G1 X98.482 Y83.983 E0.77975
G1 X99.371 Y83.917 E0.85091
G1 X99.555 Y83.908 E0.86561
G1 X100.06 Y83.9 E0.90593
G1 X120.003 Y83.901 E2.49787
G1 X121.004 Y83.937 E2.57782
G1 X121.127 Y83.946 E2.58767
G1 X122.044 Y84.048 E2.66132
G1 X122.219 Y84.073 E2.67543
G1 X123.108 Y84.237 E2.74759
G1 X123.231 Y84.265 E2.75766
G1 X124.125 Y84.499 E2.83143
G1 X124.288 Y84.548 E2.84501
G1 X125.13 Y84.834 E2.916
G1 X125.296 Y84.898 E2.9302
G1 X126.099 Y85.239 E2.99984
G1 X126.288 Y85.327 E3.01648
G1 X127.082 Y85.735 E3.08774
G1 X127.199 Y85.802 E3.0985
G1 X127.978 Y86.276 E3.17129
G1 X128.129 Y86.376 E3.18575
G1 X128.843 Y86.887 E3.25583
G1 X128.991 Y87 E3.2707
G1 X129.682 Y87.576 E3.34251
G1 X129.795 Y87.677 E3.3546
G1 X130.444 Y88.302 E3.42653
G1 X130.564 Y88.427 E3.44036
G1 X131.167 Y89.098 E3.51237
G1 X131.263 Y89.214 E3.52439
G1 X131.822 Y89.938 E3.5974
G1 X131.916 Y90.069 E3.61028
G1 X132.416 Y90.823 E3.68249
G1 X132.492 Y90.949 E3.69424
G1 X132.938 Y91.743 E3.76693
G1 X133.016 Y91.893 E3.78043
G1 X133.399 Y92.708 E3.85231
G1 X133.459 Y92.851 E3.86469
G1 X133.788 Y93.71 E3.93812
G1 X133.84 Y93.86 E3.95079
G1 X134.095 Y94.71 E4.02163
G1 X134.142 Y94.883 E4.03594
G1 X134.34 Y95.769 E4.10841
G1 X134.365 Y95.908 E4.11968
G1 X134.498 Y96.807 E4.19222
G1 X134.516 Y96.969 E4.20524
G1 X134.583 Y97.871 E4.27744
G1 X134.592 Y98.055 E4.29214
G1 X134.6 Y98.556 E4.33214
G1 X134.6 Y116.486 E5.76339
G1 X134.564 Y117.492 E5.84374
G1 X134.554 Y117.627 E5.85455
G1 X134.452 Y118.544 E5.9282
G1 X134.427 Y118.719 E5.94231
G1 X134.265 Y119.597 E6.01358
G1 X134.235 Y119.731 E6.02454
G1 X134.004 Y120.616 E6.09755
G1 X133.952 Y120.788 E6.1119
G1 X133.676 Y121.6 E6.18035
G1 X133.596 Y121.809 E6.19822
G1 X133.261 Y122.599 E6.26671
G1 X133.18 Y122.774 E6.28211
G1 X132.765 Y123.582 E6.35462
G1 X132.698 Y123.699 E6.36538
G1 X132.224 Y124.478 E6.43817
G1 X132.124 Y124.629 E6.45263
G1 X131.613 Y125.343 E6.52271
G1 X131.5 Y125.491 E6.53758
G1 X130.924 Y126.182 E6.60939
G1 X130.823 Y126.295 E6.62148
G1 X130.198 Y126.944 E6.69341
G1 X130.073 Y127.064 E6.70724
G1 X129.403 Y127.666 E6.77914
G1 X129.286 Y127.763 E6.79127
G1 X128.574 Y128.313 E6.86309
G1 X128.415 Y128.426 E6.87866
G1 X127.677 Y128.916 E6.94937
G1 X127.551 Y128.992 E6.96112
G1 X126.757 Y129.438 E7.03381
G1 X126.606 Y129.516 E7.04738
G1 X125.792 Y129.899 E7.11919
G1 X125.649 Y129.959 E7.13157
G1 X124.79 Y130.288 E7.20499
G1 X124.64 Y130.34 E7.21767
G1 X123.79 Y130.595 E7.2885
G1 X123.617 Y130.642 E7.30281
G1 X122.722 Y130.842 E7.37602
G1 X122.592 Y130.865 E7.38656
G1 X121.687 Y130.999 E7.45959
G1 X121.519 Y131.017 E7.47307
G1 X120.629 Y131.083 E7.54431
G1 X120.445 Y131.092 E7.55902
G1 X119.94 Y131.1 E7.59933
G1 X99.997 Y131.099 E9.19127
G1 X98.996 Y131.063 E9.27123
G1 X98.873 Y131.054 E9.28107
G1 X97.956 Y130.952 E9.35472
G1 X97.781 Y130.927 E9.36883
G1 X96.892 Y130.763 E9.44099
G1 X96.769 Y130.735 E9.45106
G1 X95.875 Y130.501 E9.52483
G1 X95.712 Y130.452 E9.53842
G1 X94.87 Y130.166 E9.6094
G1 X94.704 Y130.102 E9.6236
G1 X93.901 Y129.761 E9.69324
G1 X93.712 Y129.673 E9.70988
G1 X92.918 Y129.265 E9.78114
G1 X92.801 Y129.198 E9.7919
G1 X92.022 Y128.724 E9.86469
G1 X91.871 Y128.624 E9.87915
G1 X91.157 Y128.113 E9.94924
G1 X91.009 Y128 E9.9641
G1 X90.318 Y127.424 E10.03591
G1 X90.205 Y127.323 E10.04801
G1 X89.556 Y126.698 E10.11993
G1 X89.436 Y126.573 E10.13376
G1 X88.833 Y125.902 E10.20578
G1 X88.736 Y125.784 E10.21797
G1 X88.178 Y125.062 E10.29081
G1 X88.074 Y124.915 E10.30518
G1 X87.581 Y124.172 E10.37636
G1 X87.508 Y124.051 E10.38764
G1 X87.056 Y123.246 E10.46134
G1 X86.984 Y123.107 E10.47383
G1 X86.587 Y122.261 E10.54843
G1 X86.541 Y122.149 E10.55809
G1 X86.212 Y121.29 E10.63152
G1 X86.155 Y121.125 E10.64545
G1 X85.905 Y120.29 E10.71503
G1 X85.858 Y120.117 E10.72934
G1 X85.657 Y119.216 E10.80303
G1 X85.635 Y119.092 E10.81308
G1 X85.5 Y118.178 E10.88683
G1 X85.483 Y118.018 E10.89968
G1 X85.417 Y117.126 E10.97108
G1 X85.408 Y116.945 E10.98554
G1 X85.4 Y116.444 E11.02554
G1 X85.4 Y98.514 E12.45679
G1 X85.436 Y97.508 E12.53714
G1 X85.446 Y97.373 E12.54795
G1 X85.548 Y96.456 E12.6216
G1 X85.573 Y96.281 E12.63571
G1 X85.735 Y95.403 E12.70698
G1 X85.765 Y95.269 E12.71794
G1 X85.996 Y94.384 E12.79095
G1 X86.048 Y94.212 E12.8053
G1 X86.334 Y93.37 E12.87628
G1 X86.398 Y93.204 E12.89048
G1 X86.739 Y92.401 E12.96012
G1 X86.82 Y92.226 E12.97551
G1 X87.235 Y91.418 E13.04802
G1 X87.302 Y91.301 E13.05878
G1 X87.776 Y90.522 E13.13157
G1 X87.876 Y90.371 E13.14603
G1 X88.387 Y89.657 E13.21612
G1 X88.5 Y89.509 E13.23098
G1 X89.076 Y88.818 E13.30279
G1 X89.177 Y88.705 E13.31489
G1 X89.802 Y88.056 E13.38681
G0 F12000 X89.6 Y88.265
G1 F1800 X89.6 Y126.74 E16.45805
G0 F12000 X91.2 Y128.143
G1 F1800 X91.2 Y86.861 E19.75336
G0 F12000 X92.8 Y85.81
G1 F1800 X92.8 Y129.197 E23.2167
G0 F12000 X94.4 Y129.972
G1 F1800 X94.4 Y85.022 E26.8048
G0 F12000 X96 Y84.468
G1 F1800 X96 Y130.533 E30.48191
G0 F12000 X97.6 Y130.893
G1 F1800 X97.6 Y84.106 E34.21665
G0 F12000 X99.2 Y83.929
G1 F1800 X99.2 Y131.07 E37.97965
G0 F12000 X100.8 Y131.099
G1 F1800 X100.8 Y83.901 E41.7472
G0 F12000 X102.4 Y83.901
G1 F1800 X102.4 Y131.099 E45.51475
G0 F12000 X104 Y131.099
G1 F1800 X104 Y83.901 E49.28229
G0 F12000 X105.6 Y83.901
G1 F1800 X105.6 Y131.099 E53.04984
G0 F12000 X107.2 Y131.099
G1 F1800 X107.2 Y83.901 E56.81739
G0 F12000 X108.8 Y83.901
G1 F1800 X108.8 Y131.099 E60.58494
G0 F12000 X110.4 Y131.099
G1 F1800 X110.4 Y83.901 E64.35249
G0 F12000 X112 Y83.901
G1 F1800 X112 Y131.099 E68.12004
G0 F12000 X113.6 Y131.099
G1 F1800 X113.6 Y83.901 E71.88758
G0 F12000 X115.2 Y83.901
G1 F1800 X115.2 Y131.099 E75.65513
G0 F12000 X116.8 Y131.099
G1 F1800 X116.8 Y83.901 E79.42268
G0 F12000 X118.4 Y83.901
G1 F1800 X118.4 Y131.099 E83.19023
G0 F12000 X120 Y131.1
G1 F1800 X120 Y83.901 E86.95786
G0 F12000 X121.6 Y83.999
G1 F1800 X121.6 Y131.009 E90.7104
G0 F12000 X123.2 Y130.736
G1 F1800 X123.2 Y84.258 E94.42047
G0 F12000 X124.8 Y84.722
G1 F1800 X124.8 Y130.285 E98.05751
G0 F12000 X126.4 Y129.613
G1 F1800 X126.4 Y85.385 E101.58798
G0 F12000 X128 Y86.291
G1 F1800 X128 Y128.702 E104.97341
G0 F12000 X129.6 Y127.489
G1 F1800 X129.6 Y87.508 E108.16487
G0 F12000 X131.2 Y89.138
G1 F1800 X131.2 Y125.851 E111.09546
G0 F12000 X132.8 Y123.514
G1 F1800 X132.8 Y91.498 E113.65111
G1 F2700 E108.65111
G0 F12000 X133.966 Y91.414
G0 X134.787 Y93.341
G0 X134.896 Y93.703
G0 X135.385 Y95.566
G0 X134.4 Y96.145
G1 F2700 E113.65111
G1 F1800 X134.4 Y118.866 E115.4648
G1 F2700 E110.4648
G0 F12000 X135.447 Y119.059
G0 X134.964 Y121.12
G0 X134.231 Y123.038
G0 X133.613 Y124.243
G0 X132.466 Y125.981
G0 X131.608 Y127.014
G0 X130.103 Y128.468
G0 X129.023 Y129.299
G0 X127.257 Y130.378
G0 X126.039 Y130.95
G0 X124.073 Y131.621
G0 X122.758 Y131.917
G0 X120.69 Y132.146
G0 X98.943 Y132.126
G0 X97.617 Y131.979
G0 X95.59 Y131.527
G0 X94.3 Y131.087
G0 X92.42 Y130.205
G0 X91.261 Y129.496
G0 X89.617 Y128.225
G0 X88.66 Y127.302
G0 X87.905 Y126.395
G0 X87.201 Y125.523
G0 X88 Y124.803
G1 F2700 E115.4648
G1 F1800 X88 Y90.197 E118.2272
G0 F12000 X86.4 Y93.199
G1 F1800 X86.4 Y121.78 E120.50866
G0 F300 X86.4 Y121.78 Z0.54
G0 F12000 X88.073 Y124.913
;TIME_ELAPSED:60.996589
;LAYER:-5
;TYPE:SUPPORT
G1 F1800 X88.178 Y125.061 E120.52677
G1 X88.736 Y125.782 E120.61774
G1 X88.833 Y125.901 E120.63306
G1 X89.436 Y126.572 E120.72307
G1 X89.555 Y126.697 E120.74029
G1 X90.204 Y127.322 E120.8302
G1 X90.318 Y127.422 E120.84533
G1 X91.008 Y127.999 E120.93508
G1 X91.157 Y128.112 E120.95373
G1 X91.81 Y128.58 E121.0339
G1 X87.934 Y124.703 E121.58091
G1 X87.58 Y124.17 E121.64476
G1 X87.507 Y124.049 E121.65886
G1 X87.055 Y123.245 E121.75089
G1 X86.984 Y123.105 E121.76655
G1 X86.586 Y122.26 E121.85975
G1 X86.541 Y122.148 E121.8718
G1 X86.385 Y121.74 E121.91538
G1 X94.772 Y130.127 E123.09888
G1 X94.869 Y130.165 E123.10927
G1 X95.712 Y130.451 E123.19809
G1 X95.875 Y130.5 E123.21508
G1 X96.768 Y130.734 E123.30719
G1 X96.8 Y130.741 E123.31046
G1 X85.767 Y119.708 E124.86733
G1 X85.657 Y119.215 E124.91774
G1 X85.634 Y119.09 E124.93042
G1 X85.5 Y118.177 E125.02249
G1 X85.482 Y118.016 E125.03866
G1 X85.482 Y118.009 E125.03936
G1 X98.482 Y131.009 E126.8738
G1 X98.872 Y131.053 E126.91296
G1 X98.996 Y131.062 E126.92536
G1 X99.984 Y131.097 E127.02401
G1 X85.4 Y116.513 E129.08197
G1 X85.4 Y116.443 E129.08895
G1 X85.4 Y115.098 E129.22316
G1 X101.399 Y131.098 E131.48086
G1 X102.814 Y131.098 E131.62205
G1 X85.4 Y113.684 E134.07935
G1 X85.4 Y112.27 E134.22044
G1 X104.228 Y131.098 E136.87728
G1 X105.642 Y131.098 E137.01837
G1 X85.4 Y110.855 E139.8748
G1 X85.4 Y109.441 E140.01589
G1 X107.056 Y131.098 E143.07186
G1 X108.47 Y131.098 E143.21295
G1 X85.4 Y108.027 E146.46844
G1 X85.4 Y106.613 E146.60953
G1 X109.885 Y131.098 E150.06463
G1 X111.3 Y131.099 E150.20582
G1 X85.4 Y105.199 E153.86059
G1 X85.4 Y103.784 E154.00178
G1 X112.714 Y131.099 E157.85615
G1 X114.128 Y131.099 E157.99724
G1 X85.4 Y102.37 E162.05114
G1 X85.4 Y100.956 E162.19223
G1 X115.542 Y131.099 E166.44566
G1 X116.956 Y131.099 E166.58675
G1 X85.4 Y99.542 E171.03972
G1 X85.4 Y98.512 E171.14249
G1 X85.412 Y98.14 E171.17963
G1 X118.371 Y131.099 E175.8305
G1 X119.785 Y131.099 E175.97159
G1 X85.506 Y96.82 E180.80872
G1 X85.547 Y96.455 E180.84537
G1 X85.573 Y96.28 E180.86303
G1 X85.698 Y95.598 E180.93221
G1 X121.144 Y131.043 E185.93395
G1 X121.518 Y131.016 E185.97137
G1 X121.686 Y130.997 E185.98824
G1 X122.405 Y130.891 E186.06076
G1 X85.974 Y94.46 E191.20156
G1 X85.995 Y94.383 E191.20953
G1 X86.048 Y94.211 E191.22749
G1 X86.324 Y93.395 E191.31344
G1 X123.578 Y130.649 E196.57038
G1 X123.617 Y130.641 E196.57435
G1 X123.79 Y130.594 E196.59224
G1 X124.64 Y130.339 E196.68079
G1 X124.671 Y130.328 E196.68407
G1 X86.74 Y92.396 E202.03661
G1 X86.819 Y92.225 E202.05541
G1 X87.213 Y91.456 E202.14163
G1 X125.696 Y129.938 E207.57192
G1 X125.791 Y129.898 E207.58221
G1 X126.606 Y129.515 E207.67206
G1 X126.659 Y129.487 E207.67804
G1 X87.744 Y90.572 E213.16937
G1 X87.775 Y90.52 E213.17541
G1 X87.875 Y90.37 E213.1934
G1 X88.326 Y89.74 E213.27071
G1 X127.567 Y128.981 E218.80803
G1 X127.676 Y128.915 E218.82075
G1 X128.415 Y128.425 E218.90922
G1 X128.421 Y128.421 E218.90994
G1 X88.958 Y88.958 E224.4786
G1 X89.075 Y88.818 E224.4968
G1 X89.176 Y88.705 E224.51193
G1 X89.638 Y88.224 E224.57847
G1 X129.224 Y127.81 E230.16449
G1 X129.285 Y127.763 E230.17217
G1 X129.402 Y127.666 E230.18733
G1 X129.977 Y127.149 E230.26449
G1 X90.368 Y87.539 E235.85382
G1 X90.597 Y87.333 E235.88455
G1 X90.713 Y87.237 E235.89958
G1 X91.146 Y86.903 E235.95414
G1 X130.682 Y126.439 E241.5331
G1 X130.821 Y126.294 E241.55314
G1 X130.923 Y126.181 E241.56833
G1 X131.34 Y125.683 E241.63314
G1 X91.973 Y86.316 E247.18825
G1 X92.321 Y86.083 E247.23004
G1 X92.448 Y86.008 E247.24475
G1 X92.853 Y85.781 E247.29108
G1 X131.946 Y124.875 E252.80759
G1 X132.122 Y124.628 E252.83786
G1 X132.223 Y124.477 E252.85598
G1 X132.504 Y124.018 E252.90968
G1 X93.784 Y85.299 E258.37342
G1 X94.207 Y85.101 E258.42003
G1 X94.35 Y85.04 E258.43554
G1 X94.777 Y84.878 E258.48111
G1 X133.008 Y123.108 E263.87584
G1 X133.179 Y122.773 E263.91337
G1 X133.26 Y122.598 E263.93262
G1 X133.455 Y122.141 E263.98219
G1 X95.832 Y84.518 E269.2912
G1 X96.209 Y84.405 E269.33047
G1 X96.382 Y84.358 E269.34836
G1 X96.957 Y84.229 E269.40716
G1 X133.841 Y121.113 E274.61189
G1 X133.951 Y120.787 E274.64622
G1 X134.003 Y120.616 E274.66406
G1 X134.16 Y120.017 E274.72584
G1 X98.165 Y84.023 E279.80506
G1 X98.312 Y84 E279.8199
G1 X98.481 Y83.983 E279.83685
G1 X99.37 Y83.917 E279.9258
G1 X99.468 Y83.912 E279.93559
G1 X134.403 Y118.846 E284.86523
G1 X134.426 Y118.718 E284.8782
G1 X134.451 Y118.544 E284.89574
G1 X134.553 Y117.626 E284.98791
G1 X134.556 Y117.586 E284.99191
G1 X100.871 Y83.901 E289.74523
G1 X102.285 Y83.901 E289.88631
G1 X134.599 Y116.214 E294.4461
G1 X134.599 Y114.8 E294.58719
G1 X103.7 Y83.901 E298.94737
G1 X105.114 Y83.901 E299.08846
G1 X134.599 Y113.385 E303.24904
G1 X134.599 Y111.971 E303.39013
G1 X106.528 Y83.901 E307.35118
G1 X107.942 Y83.901 E307.49227
G1 X134.599 Y110.557 E311.25379
G1 X134.599 Y109.143 E311.39488
G1 X109.356 Y83.901 E314.95687
G1 X110.771 Y83.901 E315.09806
G1 X134.599 Y107.729 E318.46045
G1 X134.599 Y106.314 E318.60164
G1 X112.185 Y83.901 E321.76442
G1 X113.599 Y83.901 E321.90551
G1 X134.599 Y104.9 E324.86877
G1 X134.599 Y103.486 E325.00986
G1 X115.013 Y83.901 E327.77359
G1 X116.427 Y83.901 E327.91467
G1 X134.599 Y102.072 E330.47887
G1 X134.599 Y100.658 E330.61996
G1 X117.842 Y83.901 E332.98455
G1 X119.256 Y83.901 E333.12564
G1 X134.599 Y99.243 E335.29063
G1 X134.599 Y98.556 E335.35918
G1 X134.591 Y98.055 E335.40918
G1 X134.582 Y97.87 E335.42766
G1 X134.577 Y97.808 E335.43387
G1 X120.696 Y83.926 E337.3927
G1 X121.003 Y83.937 E337.42335
G1 X121.125 Y83.946 E337.43556
G1 X122.043 Y84.048 E337.52772
G1 X122.218 Y84.072 E337.54534
G1 X122.265 Y84.082 E337.55014
G1 X134.411 Y96.228 E339.26407
G1 X134.364 Y95.907 E339.29644
G1 X134.338 Y95.769 E339.31045
G1 X134.141 Y94.883 E339.40102
G1 X134.094 Y94.709 E339.419
G1 X134.003 Y94.405 E339.45066
G1 X124.088 Y84.49 E340.84978
G1 X124.124 Y84.499 E340.85348
G1 X124.287 Y84.548 E340.87046
G1 X125.128 Y84.833 E340.95907
G1 X125.295 Y84.898 E340.97695
G1 X126.098 Y85.238 E341.06396
G1 X126.287 Y85.327 E341.0848
G1 X126.395 Y85.383 E341.09694
G1 X133.112 Y92.1 E342.04478
G0 F12000 X133.015 Y91.892
G1 F1800 X132.937 Y91.742 E342.06165
G1 X132.491 Y90.948 E342.15252
G1 X132.414 Y90.822 E342.16725
G1 X131.915 Y90.069 E342.25739
G1 X131.82 Y89.937 E342.27362
G1 X131.262 Y89.213 E342.36482
G1 X131.166 Y89.097 E342.37985
G1 X130.563 Y88.427 E342.46979
G1 X130.442 Y88.302 E342.48715
G1 X129.793 Y87.676 E342.57712
G1 X129.681 Y87.575 E342.59217
G1 X128.99 Y86.999 E342.68193
G1 X128.842 Y86.887 E342.70045
G1 X128.127 Y86.375 E342.7882
G1 X127.977 Y86.276 E342.80613
G1 X127.198 Y85.801 E342.89717
G1 X127.081 Y85.735 E342.91057
G1 X126.395 Y85.383 E342.98751
G1 F2700 E337.98751
G0 F300 X126.395 Y85.383 Z0.74
G0 F12000 X126.538 Y84.269
G0 X124.62 Y83.536
G0 X124.251 Y83.44
G0 X122.397 Y83.023
G0 X122.24 Y83.873
;TIME_ELAPSED:139.303844
;LAYER:-4
;TYPE:SUPPORT-INTERFACE
G1 F2700 E342.98751
G1 F2400 X122.066 Y83.848 E342.99336
G1 X121.149 Y83.746 E343.02404
G1 X121.014 Y83.736 E343.02855
G1 X120.01 Y83.7 E343.06196
G1 X100.058 Y83.7 E343.72557
G1 X99.545 Y83.708 E343.74263
G1 X99.361 Y83.717 E343.74876
G1 X98.461 Y83.783 E343.77877
G1 X98.286 Y83.803 E343.78463
G1 X97.386 Y83.936 E343.81489
G1 X97.233 Y83.964 E343.82006
G1 X97.072 Y84 E343.82555
G1 X122.927 Y84 E344.68549
G1 X123.148 Y84.041 E344.69297
G1 X123.288 Y84.072 E344.69774
