;FLAVOR:Marlin
;TIME:2828
;Filament used: 3.00871m
;Layer height: 0.2
;MINX:69.518
;MINY:91.835
;MINZ:0.24
;MAXX:150.665
;MAXY:141.165
;MAXZ:14.09
;Generated with Cura_SteamEngine 4.8.0
M140 S50
M105
M190 S50
M104 S200
M105
M109 S200
M82 ;absolute extrusion mode
M201 X500.00 Y500.00 Z100.00 E5000.00 ;Setup machine max acceleration
M203 X500.00 Y500.00 Z10.00 E50.00 ;Setup machine max feedrate
M204 P500.00 R1000.00 T500.00 ;Setup Print/Retract/Travel acceleration
M205 X8.00 Y8.00 Z0.40 E5.00 ;Setup Jerk
M220 S100 ;Reset Feedrate
M221 S100 ;Reset Flowrate

G28 ;Home

G92 E0 ;Reset Extruder
G1 Z2.0 F3000 ;Move Z Axis up
G1 X10.1 Y20 Z0.28 F5000.0 ;Move to start position
G1 X10.1 Y200.0 Z0.28 F1500.0 E15 ;Draw the first line
G1 X10.4 Y200.0 Z0.28 F5000.0 ;Move to side a little
G1 X10.4 Y20 Z0.28 F1500.0 E30 ;Draw the second line
G92 E0 ;Reset Extruder
G1 Z2.0 F3000 ;Move Z Axis up

G92 E0
G92 E0
G1 F2700 E-5
;LAYER_COUNT:65
;LAYER:-6
M107
G0 F12000 X75.714 Y96.237 Z0.24
;TYPE:SUPPORT-INTERFACE
G1 F2700 E0
G1 F1800 X76.426 Y95.687 E0.07182
G1 X76.585 Y95.574 E0.08739
G1 X77.323 Y95.084 E0.1581
G1 X77.449 Y95.008 E0.16985
G1 X78.243 Y94.562 E0.24254
G1 X78.393 Y94.484 E0.25604
G1 X79.208 Y94.101 E0.32792
G1 X79.351 Y94.041 E0.3403
G1 X80.21 Y93.712 E0.41373
G1 X80.36 Y93.66 E0.4264
G1 X81.21 Y93.405 E0.49724
G1 X81.383 Y93.358 E0.51155
G1 X82.278 Y93.158 E0.58475
G1 X82.408 Y93.135 E0.59529
G1 X83.313 Y93.001 E0.66832
G1 X83.482 Y92.983 E0.68188
G1 X84.371 Y92.917 E0.75304
G1 X84.555 Y92.908 E0.76775
G1 X85.06 Y92.9 E0.80807
G1 X135.003 Y92.901 E4.79473
G1 X136.004 Y92.937 E4.87469
G1 X136.127 Y92.946 E4.88453
G1 X137.044 Y93.048 E4.95818
G1 X137.219 Y93.073 E4.97229
G1 X138.108 Y93.237 E5.04445
G1 X138.231 Y93.265 E5.05452
G1 X139.125 Y93.499 E5.12829
G1 X139.288 Y93.548 E5.14188
G1 X140.13 Y93.834 E5.21286
G1 X140.296 Y93.898 E5.22706
G1 X141.099 Y94.239 E5.2967
G1 X141.288 Y94.327 E5.31334
G1 X142.082 Y94.735 E5.3846
G1 X142.199 Y94.802 E5.39537
G1 X142.978 Y95.276 E5.46815
G1 X143.129 Y95.376 E5.48261
G1 X143.843 Y95.887 E5.5527
G1 X143.991 Y96 E5.56756
G1 X144.682 Y96.576 E5.63937
G1 X144.795 Y96.677 E5.65147
G1 X145.444 Y97.302 E5.72339
G1 X145.564 Y97.427 E5.73722
G1 X146.167 Y98.098 E5.80924
G1 X146.263 Y98.214 E5.82126
G1 X146.822 Y98.938 E5.89427
G1 X146.916 Y99.069 E5.90714
G1 X147.416 Y99.823 E5.97936
G1 X147.492 Y99.949 E5.99111
G1 X147.938 Y100.743 E6.0638
G1 X148.016 Y100.893 E6.0773
G1 X148.399 Y101.708 E6.14918
G1 X148.459 Y101.851 E6.16156
G1 X148.788 Y102.71 E6.23498
G1 X148.84 Y102.86 E6.24766
G1 X149.095 Y103.71 E6.3185
G1 X149.142 Y103.883 E6.33281
G1 X149.34 Y104.769 E6.40527
G1 X149.365 Y104.908 E6.41655
G1 X149.498 Y105.807 E6.48909
G1 X149.516 Y105.969 E6.5021
G1 X149.583 Y106.871 E6.5743
G1 X149.592 Y107.055 E6.58901
G1 X149.6 Y107.556 E6.629
G1 X149.6 Y125.486 E8.06025
G1 X149.564 Y126.492 E8.14061
G1 X149.554 Y126.627 E8.15141
G1 X149.452 Y127.544 E8.22507
G1 X149.427 Y127.719 E8.23918
G1 X149.265 Y128.597 E8.31045
G1 X149.235 Y128.731 E8.32141
G1 X149.004 Y129.616 E8.39442
G1 X148.952 Y129.788 E8.40876
G1 X148.676 Y130.6 E8.47722
G1 X148.596 Y130.809 E8.49508
G1 X148.261 Y131.599 E8.56358
G1 X148.18 Y131.774 E8.57897
G1 X147.765 Y132.582 E8.65148
G1 X147.698 Y132.699 E8.66224
G1 X147.224 Y133.478 E8.73503
G1 X147.124 Y133.629 E8.74949
G1 X146.613 Y134.343 E8.81958
G1 X146.5 Y134.491 E8.83444
G1 X145.924 Y135.182 E8.90625
G1 X145.823 Y135.295 E8.91835
G1 X145.198 Y135.944 E8.99027
G1 X145.073 Y136.064 E9.0041
G1 X144.403 Y136.666 E9.076
G1 X144.286 Y136.763 E9.08814
G1 X143.574 Y137.313 E9.15995
G1 X143.415 Y137.426 E9.17552
G1 X142.677 Y137.916 E9.24624
G1 X142.551 Y137.992 E9.25798
G1 X141.757 Y138.438 E9.33068
G1 X141.606 Y138.516 E9.34424
G1 X140.792 Y138.899 E9.41605
G1 X140.649 Y138.959 E9.42843
G1 X139.79 Y139.288 E9.50186
G1 X139.64 Y139.34 E9.51453
G1 X138.79 Y139.595 E9.58537
G1 X138.617 Y139.642 E9.59968
G1 X137.722 Y139.842 E9.67289
G1 X137.592 Y139.865 E9.68342
G1 X136.687 Y139.999 E9.75645
G1 X136.519 Y140.017 E9.76994
G1 X135.629 Y140.083 E9.84118
G1 X135.445 Y140.092 E9.85588
G1 X134.94 Y140.1 E9.8962
G1 X84.997 Y140.099 E13.88287
G1 X83.996 Y140.063 E13.96282
G1 X83.873 Y140.054 E13.97267
G1 X82.956 Y139.952 E14.04632
G1 X82.781 Y139.927 E14.06043
G1 X81.892 Y139.763 E14.13259
G1 X81.769 Y139.735 E14.14266
G1 X80.875 Y139.501 E14.21643
G1 X80.712 Y139.452 E14.23001
G1 X79.87 Y139.166 E14.301
G1 X79.704 Y139.102 E14.3152
G1 X78.901 Y138.761 E14.38484
G1 X78.712 Y138.673 E14.40148
G1 X77.918 Y138.265 E14.47274
G1 X77.801 Y138.198 E14.4835
G1 X77.022 Y137.724 E14.55629
G1 X76.871 Y137.624 E14.57075
G1 X76.157 Y137.113 E14.64083
G1 X76.009 Y137 E14.6557
G1 X75.318 Y136.424 E14.72751
G1 X75.205 Y136.323 E14.7396
G1 X74.556 Y135.698 E14.81153
G1 X74.436 Y135.573 E14.82536
G1 X73.833 Y134.902 E14.89737
G1 X73.736 Y134.784 E14.90956
G1 X73.178 Y134.062 E14.9824
G1 X73.074 Y133.915 E14.99678
G1 X72.581 Y133.172 E15.06796
G1 X72.508 Y133.051 E15.07924
G1 X72.056 Y132.246 E15.15293
G1 X71.984 Y132.107 E15.16543
G1 X71.587 Y131.261 E15.24002
G1 X71.541 Y131.149 E15.24969
G1 X71.212 Y130.29 E15.32312
G1 X71.155 Y130.125 E15.33705
G1 X70.905 Y129.29 E15.40663
G1 X70.858 Y129.117 E15.42094
G1 X70.657 Y128.216 E15.49463
G1 X70.635 Y128.092 E15.50468
G1 X70.5 Y127.178 E15.57843
G1 X70.483 Y127.018 E15.59127
G1 X70.417 Y126.126 E15.66267
G1 X70.408 Y125.945 E15.67714
G1 X70.4 Y125.444 E15.71714
G1 X70.4 Y107.514 E17.14839
G1 X70.436 Y106.508 E17.22874
G1 X70.446 Y106.373 E17.23955
G1 X70.548 Y105.456 E17.3132
G1 X70.573 Y105.281 E17.32731
G1 X70.735 Y104.403 E17.39858
G1 X70.765 Y104.269 E17.40954
G1 X70.996 Y103.384 E17.48255
G1 X71.048 Y103.212 E17.49689
G1 X71.334 Y102.37 E17.56788
G1 X71.398 Y102.204 E17.58208
G1 X71.739 Y101.401 E17.65172
G1 X71.82 Y101.226 E17.66711
G1 X72.235 Y100.418 E17.73962
G1 X72.302 Y100.301 E17.75038
G1 X72.776 Y99.522 E17.82317
G1 X72.876 Y99.371 E17.83763
G1 X73.387 Y98.657 E17.90771
G1 X73.5 Y98.509 E17.92258
G1 X74.076 Y97.818 E17.99439
G1 X74.177 Y97.705 E18.00649
G1 X74.802 Y97.056 E18.07841
G1 X74.927 Y96.936 E18.09224
G1 X75.598 Y96.333 E18.16425
G1 X75.714 Y96.237 E18.17627
G0 F12000 X75.2 Y96.69
G1 F1800 X75.2 Y136.318 E21.33955
G0 F12000 X76.8 Y137.573
G1 F1800 X76.8 Y95.431 E24.70351
G0 F12000 X78.4 Y94.48
G1 F1800 X78.4 Y138.512 E28.21833
G0 F12000 X80 Y139.21
G1 F1800 X80 Y93.792 E31.84379
G0 F12000 X81.6 Y93.309
G1 F1800 X81.6 Y139.69 E35.54612
G0 F12000 X83.2 Y139.979
G1 F1800 X83.2 Y93.017 E39.29483
G0 F12000 X84.8 Y92.904
G1 F1800 X84.8 Y140.091 E43.0615
G0 F12000 X86.4 Y140.099
G1 F1800 X86.4 Y92.901 E46.82905
G0 F12000 X88 Y92.901
G1 F1800 X88 Y140.099 E50.5966
G0 F12000 X89.6 Y140.099
G1 F1800 X89.6 Y92.901 E54.36415
G0 F12000 X91.2 Y92.901
G1 F1800 X91.2 Y140.099 E58.1317
G0 F12000 X92.8 Y140.099
G1 F1800 X92.8 Y92.901 E61.89925
G0 F12000 X94.4 Y92.901
G1 F1800 X94.4 Y140.099 E65.6668
G0 F12000 X96 Y140.099
G1 F1800 X96 Y92.901 E69.43434
G0 F12000 X97.6 Y92.901
G1 F1800 X97.6 Y140.099 E73.20189
G0 F12000 X99.2 Y140.099
G1 F1800 X99.2 Y92.901 E76.96944
G0 F12000 X100.8 Y92.901
G1 F1800 X100.8 Y140.099 E80.73699
G0 F12000 X102.4 Y140.099
G1 F1800 X102.4 Y92.901 E84.50454
G0 F12000 X104 Y92.901
G1 F1800 X104 Y140.099 E88.27209
G0 F12000 X105.6 Y140.099
G1 F1800 X105.6 Y92.901 E92.03963
G0 F12000 X107.2 Y92.901
G1 F1800 X107.2 Y140.099 E95.80718
G0 F12000 X108.8 Y140.099
G1 F1800 X108.8 Y92.901 E99.57473
G0 F12000 X110.4 Y92.901
G1 F1800 X110.4 Y140.099 E103.34228
G0 F12000 X112 Y140.099
G1 F1800 X112 Y92.901 E107.10983
G0 F12000 X113.6 Y92.901
G1 F1800 X113.6 Y140.099 E110.87738
G0 F12000 X115.2 Y140.099
G1 F1800 X115.2 Y92.901 E114.64493
G0 F12000 X116.8 Y92.901
G1 F1800 X116.8 Y140.099 E118.41247
G0 F12000 X118.4 Y140.099
G1 F1800 X118.4 Y92.901 E122.18002
G0 F12000 X120 Y92.901
G1 F1800 X120 Y140.099 E125.94757
G0 F12000 X121.6 Y140.099
G1 F1800 X121.6 Y92.901 E129.71512
G0 F12000 X123.2 Y92.901
G1 F1800 X123.2 Y140.099 E133.48267
G0 F12000 X124.8 Y140.099
G1 F1800 X124.8 Y92.901 E137.25022
G0 F12000 X126.4 Y92.901
G1 F1800 X126.4 Y140.099 E141.01776
G0 F12000 X128 Y140.099
G1 F1800 X128 Y92.901 E144.78531
G0 F12000 X129.6 Y92.901
G1 F1800 X129.6 Y140.099 E148.55286
G0 F12000 X131.2 Y140.099
G1 F1800 X131.2 Y92.901 E152.32041
G0 F12000 X132.8 Y92.901
G1 F1800 X132.8 Y140.099 E156.08796
G0 F12000 X134.4 Y140.099
G1 F1800 X134.4 Y92.901 E159.85551
G0 F12000 X136 Y92.937
G1 F1800 X136 Y140.056 E163.61675
G0 F12000 X137.6 Y139.864
G1 F1800 X137.6 Y93.144 E167.34614
G0 F12000 X139.2 Y93.522
G1 F1800 X139.2 Y139.472 E171.01407
G0 F12000 X140.8 Y138.896
G1 F1800 X140.8 Y94.113 E174.58884
G0 F12000 X142.4 Y94.925
G1 F1800 X142.4 Y138.077 E178.03342
G0 F12000 X144 Y136.984
G1 F1800 X144 Y96.008 E181.3043
G0 F12000 X145.6 Y97.468
G1 F1800 X145.6 Y135.527 E184.34234
G0 F12000 X147.2 Y133.515
G1 F1800 X147.2 Y99.498 E187.05772
G0 F12000 X148.8 Y102.745
G1 F1800 X148.8 Y130.236 E189.25217
G1 F2700 E184.25217
G0 F12000 X149.808 Y130.577
G0 X149.132 Y132.249
G0 X148.126 Y134.043
G0 X147.338 Y135.148
G0 X145.945 Y136.703
G0 X144.944 Y137.599
G0 X143.24 Y138.819
G0 X142.086 Y139.466
G0 X140.159 Y140.287
G0 X138.878 Y140.673
G0 X136.82 Y141.055
G0 X134.947 Y141.165
G0 X83.943 Y141.126
G0 X82.617 Y140.979
G0 X80.59 Y140.527
G0 X79.3 Y140.087
G0 X77.42 Y139.205
G0 X76.261 Y138.496
G0 X74.617 Y137.225
G0 X74.076 Y136.703
G0 X72.901 Y135.444
G0 X73.6 Y134.608
G1 F2700 E189.25217
G1 F1800 X73.6 Y98.389 E192.14333
G0 F12000 X72 Y100.875
G1 F1800 X72 Y132.137 E194.6388
G0 F300 X72 Y132.137 Z0.54
G0 F12000 X73.015 Y133.826
;TIME_ELAPSED:93.950583
;LAYER:-5
;TYPE:SUPPORT
G1 F1800 X76.662 Y137.473 E195.15343
G1 X76.156 Y137.112 E195.21545
G1 X76.009 Y136.999 E195.23395
G1 X75.318 Y136.423 E195.32371
G1 X75.205 Y136.321 E195.3389
G1 X74.556 Y135.697 E195.42873
G1 X74.435 Y135.572 E195.44609
G1 X73.832 Y134.901 E195.53611
G1 X73.735 Y134.783 E195.55135
G1 X73.177 Y134.061 E195.6424
G1 X73.073 Y133.914 E195.66037
G1 F2700 E190.66037
G0 F12000 X72.327 Y134.701
G0 X73.66 Y136.302
G0 X74.201 Y136.824
G0 X75.519 Y137.966
G0 X76.662 Y137.473
G1 F2700 E195.66037
G1 F1800 X76.87 Y137.622 E195.6859
G1 X77.022 Y137.723 E195.70411
G1 X77.8 Y138.197 E195.79501
G1 X77.918 Y138.264 E195.80855
G1 X78.712 Y138.672 E195.89762
G1 X78.901 Y138.76 E195.91842
G1 X79.704 Y139.101 E196.00547
G1 X71.41 Y130.806 E197.17592
G1 X71.212 Y130.289 E197.23116
G1 X71.154 Y130.124 E197.24861
G1 X70.905 Y129.289 E197.33555
G1 X70.857 Y129.116 E197.35346
G1 X70.778 Y128.761 E197.38975
G1 X81.745 Y139.727 E198.93724
G1 X81.768 Y139.734 E198.93964
G1 X81.892 Y139.761 E198.95231
G1 X82.78 Y139.926 E199.04243
G1 X82.955 Y139.951 E199.06007
G1 X83.435 Y140.004 E199.10825
G1 X70.486 Y127.055 E200.9355
G1 X70.482 Y127.017 E200.93931
G1 X70.416 Y126.125 E201.02856
G1 X70.408 Y125.944 E201.04663
G1 X70.401 Y125.556 E201.08535
G1 X84.941 Y140.095 E203.13703
G1 X84.997 Y140.097 E203.14263
G1 X86.357 Y140.097 E203.27833
G1 X70.4 Y124.14 E205.53003
G1 X70.4 Y122.726 E205.67112
G1 X87.771 Y140.097 E208.12236
G1 X89.185 Y140.097 E208.26345
G1 X70.4 Y121.311 E210.91428
G1 X70.4 Y119.897 E211.05537
G1 X90.6 Y140.097 E213.90581
G1 X92.014 Y140.097 E214.0469
G1 X70.4 Y118.483 E217.09687
G1 X70.4 Y117.069 E217.23796
G1 X93.428 Y140.097 E220.48746
G1 X94.842 Y140.097 E220.62855
G1 X70.4 Y115.655 E224.07758
G1 X70.4 Y114.24 E224.21877
G1 X96.257 Y140.097 E227.86747
G1 X97.671 Y140.097 E228.00856
G1 X70.4 Y112.826 E231.85679
G1 X70.4 Y111.412 E231.99788
G1 X99.085 Y140.097 E236.04565
G1 X100.499 Y140.097 E236.18673
G1 X70.4 Y109.998 E240.43403
G1 X70.4 Y108.584 E240.57512
G1 X101.913 Y140.097 E245.02194
G1 X103.328 Y140.097 E245.16313
G1 X70.411 Y107.181 E249.80801
G1 X70.436 Y106.507 E249.8753
G1 X70.445 Y106.372 E249.8888
G1 X70.502 Y105.858 E249.94041
G1 X104.742 Y140.097 E254.77197
G1 X106.156 Y140.097 E254.91306
G1 X70.692 Y104.633 E259.91741
G1 X70.735 Y104.402 E259.94086
G1 X70.765 Y104.267 E259.95466
G1 X70.966 Y103.493 E260.03445
G1 X107.57 Y140.097 E265.19967
G1 X108.984 Y140.097 E265.34076
G1 X71.314 Y102.427 E270.6564
G1 X71.334 Y102.369 E270.66252
G1 X71.397 Y102.203 E270.68024
G1 X71.727 Y101.425 E270.76456
G1 X110.399 Y140.098 E276.22167
G1 X111.814 Y140.098 E276.36286
G1 X72.2 Y100.484 E281.95282
G1 X72.235 Y100.417 E281.96037
G1 X72.301 Y100.3 E281.97377
G1 X72.728 Y99.598 E282.05576
G1 X113.228 Y140.098 E287.77074
G1 X114.642 Y140.098 E287.91183
G1 X73.308 Y98.764 E293.74451
G1 X73.387 Y98.656 E293.75786
G1 X73.499 Y98.508 E293.77638
G1 X73.939 Y97.98 E293.84496
G1 X116.056 Y140.098 E299.78819
G1 X117.47 Y140.098 E299.92928
G1 X74.618 Y97.245 E305.97623
G1 X74.801 Y97.054 E306.00262
G1 X74.927 Y96.935 E306.01992
G1 X75.345 Y96.558 E306.07608
G1 X118.885 Y140.098 E312.22005
G1 X120.299 Y140.098 E312.36114
G1 X76.122 Y95.921 E318.59499
G1 X76.426 Y95.686 E318.63333
G1 X76.584 Y95.573 E318.65271
G1 X76.948 Y95.332 E318.69627
G1 X121.713 Y140.098 E325.01317
G1 X123.127 Y140.098 E325.15426
G1 X77.825 Y94.796 E331.54686
G1 X78.242 Y94.561 E331.59462
G1 X78.392 Y94.483 E331.61149
G1 X78.756 Y94.312 E331.65162
G1 X124.542 Y140.098 E338.11252
G1 X125.956 Y140.098 E338.2536
G1 X79.746 Y93.888 E344.77434
G1 X80.209 Y93.711 E344.82379
G1 X80.359 Y93.659 E344.83964
G1 X80.799 Y93.527 E344.88547
G1 X127.37 Y140.098 E351.45714
G1 X128.784 Y140.098 E351.59823
G1 X81.923 Y93.236 E358.2109
G1 X82.277 Y93.157 E358.24709
G1 X82.407 Y93.134 E358.26026
G1 X83.128 Y93.027 E358.33299
G1 X130.198 Y140.098 E364.97515
G1 X131.613 Y140.098 E365.11633
G1 X84.428 Y92.913 E371.77465
G1 X84.555 Y92.907 E371.78733
G1 X85.059 Y92.898 E371.83763
G1 X85.828 Y92.899 E371.91436
G1 X133.027 Y140.098 E378.57465
G1 X134.441 Y140.098 E378.71574
G1 X87.242 Y92.899 E385.37603
G1 X88.657 Y92.899 E385.51722
G1 X135.824 Y140.067 E392.17306
G1 X136.518 Y140.016 E392.2425
G1 X136.687 Y139.997 E392.25947
G1 X137.107 Y139.935 E392.30183
G1 X90.071 Y92.899 E398.93912
G1 X91.485 Y92.899 E399.08021
G1 X138.298 Y139.712 E405.68603
G1 X138.616 Y139.64 E405.71856
G1 X138.789 Y139.594 E405.73642
G1 X139.408 Y139.408 E405.80091
G1 X92.899 Y92.899 E412.36384
G1 X94.313 Y92.899 E412.50492
G1 X140.449 Y139.034 E419.01514
G1 X140.648 Y138.958 E419.0364
G1 X140.791 Y138.899 E419.05183
G1 X141.427 Y138.599 E419.122
G1 X95.728 Y92.899 E425.57069
G1 X97.142 Y92.899 E425.71178
G1 X142.347 Y138.105 E432.09077
G1 X142.549 Y137.991 E432.11391
G1 X142.676 Y137.916 E432.12863
G1 X143.214 Y137.557 E432.19316
G1 X98.556 Y92.899 E438.49489
G1 X99.97 Y92.899 E438.63598
G1 X144.03 Y136.959 E444.85332
G1 X144.285 Y136.762 E444.88547
G1 X144.401 Y136.666 E444.9005
G1 X144.796 Y136.311 E444.95349
G1 X101.384 Y92.899 E451.07939
G1 X102.799 Y92.9 E451.22058
G1 X145.514 Y135.615 E457.24813
G1 X145.822 Y135.294 E457.29252
G1 X145.922 Y135.181 E457.30757
G1 X146.183 Y134.87 E457.34808
G1 X104.214 Y92.9 E463.27043
G1 X105.628 Y92.9 E463.41152
G1 X146.803 Y134.075 E469.22176
G1 X147.123 Y133.629 E469.27653
G1 X147.223 Y133.478 E469.2946
G1 X147.373 Y133.231 E469.32344
G1 X107.042 Y92.9 E475.01458
G1 X108.456 Y92.9 E475.15567
G1 X147.892 Y132.335 E480.72044
G1 X148.179 Y131.774 E480.78332
G1 X148.259 Y131.598 E480.80261
G1 X148.352 Y131.381 E480.82617
G1 X109.87 Y92.9 E486.25632
G1 X111.285 Y92.9 E486.39751
G1 X148.754 Y130.369 E491.68479
G1 X148.95 Y129.788 E491.74597
G1 X149.003 Y129.616 E491.76393
G1 X149.089 Y129.29 E491.79757
G1 X112.699 Y92.9 E496.9326
G1 X114.113 Y92.9 E497.07369
G1 X149.349 Y128.136 E502.04587
G1 X149.425 Y127.719 E502.08816
G1 X149.451 Y127.543 E502.10591
G1 X149.523 Y126.895 E502.17097
G1 X115.527 Y92.9 E506.9681
G1 X116.942 Y92.9 E507.10929
G1 X149.597 Y125.556 E511.71733
G1 X149.599 Y125.485 E511.72442
G1 X149.599 Y124.143 E511.85833
G1 X118.356 Y92.901 E516.26698
G1 X119.771 Y92.901 E516.40817
G1 X149.599 Y122.729 E520.61722
G1 X149.599 Y121.315 E520.75831
G1 X121.185 Y92.901 E524.76783
G1 X122.599 Y92.901 E524.90892
G1 X149.599 Y119.901 E528.71891
G1 X149.599 Y118.487 E528.86
G1 X124.013 Y92.901 E532.47047
G1 X125.428 Y92.901 E532.61165
