;FLAVOR:Marlin
;TIME:2017
;Filament used: 2.27037m
;Layer height: 0.2
;MINX:74.336
;MINY:81.888
;MINZ:0.24
;MAXX:145.665
;MAXY:138.165
;MAXZ:6.09
;Generated with Cura_SteamEngine 4.8.0
M140 S50
M105
M190 S50
M104 S200
M105
M109 S200
M82 ;absolute extrusion mode
M201 X500.00 Y500.00 Z100.00 E5000.00 ;Setup machine max acceleration
M203 X500.00 Y500.00 Z10.00 E50.00 ;Setup machine max feedrate
M204 P500.00 R1000.00 T500.00 ;Setup Print/Retract/Travel acceleration
M205 X8.00 Y8.00 Z0.40 E5.00 ;Setup Jerk
M220 S100 ;Reset Feedrate
M221 S100 ;Reset Flowrate

G28 ;Home

G92 E0 ;Reset Extruder
G1 Z2.0 F3000 ;Move Z Axis up
G1 X10.1 Y20 Z0.28 F5000.0 ;Move to start position
G1 X10.1 Y200.0 Z0.28 F1500.0 E15 ;Draw the first line
G1 X10.4 Y200.0 Z0.28 F5000.0 ;Move to side a little
G1 X10.4 Y20 Z0.28 F1500.0 E30 ;Draw the second line
G92 E0 ;Reset Extruder
G1 Z2.0 F3000 ;Move Z Axis up

G92 E0
G92 E0
G1 F2700 E-5
;LAYER_COUNT:25
;LAYER:-6
M107
G0 F12000 X79.927 Y86.936 Z0.24
;TYPE:SUPPORT-INTERFACE
G1 F2700 E0
G1 F1800 X80.598 Y86.333 E0.07201
G1 X80.714 Y86.237 E0.08403
G1 X81.426 Y85.687 E0.15585
G1 X81.585 Y85.574 E0.17142
G1 X82.323 Y85.084 E0.24213
G1 X82.449 Y85.008 E0.25388
G1 X83.243 Y84.562 E0.32657
G1 X83.393 Y84.484 E0.34007
G1 X84.208 Y84.101 E0.41195
G1 X84.351 Y84.041 E0.42433
G1 X85.21 Y83.712 E0.49776
G1 X85.36 Y83.66 E0.51043
G1 X86.21 Y83.405 E0.58127
G1 X86.383 Y83.358 E0.59558
G1 X87.278 Y83.158 E0.66878
G1 X87.408 Y83.135 E0.67932
G1 X88.313 Y83.001 E0.75235
G1 X88.482 Y82.983 E0.76592
G1 X89.371 Y82.917 E0.83708
G1 X89.555 Y82.908 E0.85178
G1 X90.06 Y82.9 E0.8921
G1 X130.003 Y82.901 E4.08052
G1 X131.004 Y82.937 E4.16048
G1 X131.127 Y82.946 E4.17032
G1 X132.044 Y83.048 E4.24397
G1 X132.219 Y83.073 E4.25808
G1 X133.108 Y83.237 E4.33024
G1 X133.231 Y83.265 E4.34031
G1 X134.125 Y83.499 E4.41408
G1 X134.288 Y83.548 E4.42767
G1 X135.13 Y83.834 E4.49865
G1 X135.296 Y83.898 E4.51285
G1 X136.099 Y84.239 E4.58249
G1 X136.288 Y84.327 E4.59913
G1 X137.082 Y84.735 E4.67039
G1 X137.199 Y84.802 E4.68115
G1 X137.978 Y85.276 E4.75394
G1 X138.129 Y85.376 E4.7684
G1 X138.843 Y85.887 E4.83849
G1 X138.991 Y86 E4.85335
G1 X139.682 Y86.576 E4.92516
G1 X139.795 Y86.677 E4.93726
G1 X140.444 Y87.302 E5.00918
G1 X140.564 Y87.427 E5.02301
G1 X141.167 Y88.098 E5.09503
G1 X141.263 Y88.214 E5.10704
G1 X141.822 Y88.938 E5.18006
G1 X141.916 Y89.069 E5.19293
G1 X142.416 Y89.823 E5.26515
G1 X142.492 Y89.949 E5.27689
G1 X142.938 Y90.743 E5.34959
G1 X143.016 Y90.893 E5.36309
G1 X143.399 Y91.708 E5.43497
G1 X143.459 Y91.851 E5.44735
G1 X143.788 Y92.71 E5.52077
G1 X143.84 Y92.86 E5.53345
G1 X144.095 Y93.71 E5.60428
G1 X144.142 Y93.883 E5.61859
G1 X144.34 Y94.769 E5.69106
G1 X144.365 Y94.908 E5.70234
G1 X144.498 Y95.807 E5.77488
G1 X144.516 Y95.969 E5.78789
G1 X144.583 Y96.871 E5.86009
G1 X144.592 Y97.055 E5.8748
G1 X144.6 Y97.556 E5.91479
G1 X144.6 Y122.486 E7.90481
G1 X144.564 Y123.492 E7.98517
G1 X144.554 Y123.627 E7.99597
G1 X144.452 Y124.544 E8.06962
G1 X144.427 Y124.719 E8.08374
G1 X144.265 Y125.597 E8.155
G1 X144.235 Y125.731 E8.16597
G1 X144.004 Y126.616 E8.23898
G1 X143.952 Y126.788 E8.25332
G1 X143.676 Y127.6 E8.32178
G1 X143.596 Y127.809 E8.33964
G1 X143.261 Y128.599 E8.40814
G1 X143.18 Y128.774 E8.42353
G1 X142.765 Y129.582 E8.49604
G1 X142.698 Y129.699 E8.5068
G1 X142.224 Y130.478 E8.57959
G1 X142.124 Y130.629 E8.59405
G1 X141.613 Y131.343 E8.66414
G1 X141.5 Y131.491 E8.679
G1 X140.924 Y132.182 E8.75081
G1 X140.823 Y132.295 E8.76291
G1 X140.198 Y132.944 E8.83483
G1 X140.073 Y133.064 E8.84866
G1 X139.403 Y133.666 E8.92056
G1 X139.286 Y133.763 E8.93269
G1 X138.574 Y134.313 E9.00451
G1 X138.415 Y134.426 E9.02008
G1 X137.677 Y134.916 E9.0908
G1 X137.551 Y134.992 E9.10254
G1 X136.757 Y135.438 E9.17524
G1 X136.606 Y135.516 E9.1888
G1 X135.792 Y135.899 E9.26061
G1 X135.649 Y135.959 E9.27299
G1 X134.79 Y136.288 E9.34642
G1 X134.64 Y136.34 E9.35909
G1 X133.79 Y136.595 E9.42993
G1 X133.617 Y136.642 E9.44424
G1 X132.722 Y136.842 E9.51744
G1 X132.592 Y136.865 E9.52798
G1 X131.687 Y136.999 E9.60101
G1 X131.519 Y137.017 E9.6145
G1 X130.629 Y137.083 E9.68574
G1 X130.445 Y137.092 E9.70044
G1 X129.94 Y137.1 E9.74076
G1 X89.997 Y137.099 E12.92918
G1 X88.996 Y137.063 E13.00914
G1 X88.873 Y137.054 E13.01898
G1 X87.956 Y136.952 E13.09263
G1 X87.781 Y136.927 E13.10674
G1 X86.892 Y136.763 E13.1789
G1 X86.769 Y136.735 E13.18897
G1 X85.875 Y136.501 E13.26274
G1 X85.712 Y136.452 E13.27633
G1 X84.87 Y136.166 E13.34731
G1 X84.704 Y136.102 E13.36151
G1 X83.901 Y135.761 E13.43115
G1 X83.712 Y135.673 E13.44779
G1 X82.918 Y135.265 E13.51905
G1 X82.801 Y135.198 E13.52981
G1 X82.022 Y134.724 E13.6026
G1 X81.871 Y134.624 E13.61706
G1 X81.157 Y134.113 E13.68715
G1 X81.009 Y134 E13.70201
G1 X80.318 Y133.424 E13.77382
G1 X80.205 Y133.323 E13.78592
G1 X79.556 Y132.698 E13.85784
G1 X79.436 Y132.573 E13.87167
G1 X78.833 Y131.902 E13.94369
G1 X78.736 Y131.784 E13.95588
G1 X78.178 Y131.062 E14.02872
G1 X78.074 Y130.915 E14.04309
G1 X77.581 Y130.172 E14.11427
G1 X77.508 Y130.051 E14.12555
G1 X77.056 Y129.246 E14.19925
G1 X76.984 Y129.107 E14.21174
G1 X76.587 Y128.261 E14.28634
G1 X76.541 Y128.149 E14.29601
G1 X76.212 Y127.29 E14.36943
G1 X76.155 Y127.125 E14.38337
G1 X75.905 Y126.29 E14.45294
G1 X75.858 Y126.117 E14.46725
G1 X75.657 Y125.216 E14.54094
G1 X75.635 Y125.092 E14.551
G1 X75.5 Y124.178 E14.62475
G1 X75.483 Y124.018 E14.63759
G1 X75.417 Y123.126 E14.70899
G1 X75.408 Y122.945 E14.72345
G1 X75.4 Y122.444 E14.76345
G1 X75.4 Y97.514 E16.75347
G1 X75.436 Y96.508 E16.83383
G1 X75.446 Y96.373 E16.84463
G1 X75.548 Y95.456 E16.91828
G1 X75.573 Y95.281 E16.93239
G1 X75.735 Y94.403 E17.00366
G1 X75.765 Y94.269 E17.01462
G1 X75.996 Y93.384 E17.08763
G1 X76.048 Y93.212 E17.10198
G1 X76.334 Y92.37 E17.17296
G1 X76.398 Y92.204 E17.18716
G1 X76.739 Y91.401 E17.2568
G1 X76.82 Y91.226 E17.2722
G1 X77.235 Y90.418 E17.3447
G1 X77.302 Y90.301 E17.35547
G1 X77.776 Y89.522 E17.42826
G1 X77.876 Y89.371 E17.44271
G1 X78.387 Y88.657 E17.5128
G1 X78.5 Y88.509 E17.52766
G1 X79.076 Y87.818 E17.59947
G1 X79.177 Y87.705 E17.61157
G1 X79.802 Y87.056 E17.68349
G1 X79.927 Y86.936 E17.69733
G0 F12000 X80 Y86.87
G1 F1800 X80 Y133.125 E21.3896
G0 F12000 X81.6 Y134.43
G1 F1800 X81.6 Y85.564 E25.2903
G0 F12000 X83.2 Y84.586
G1 F1800 X83.2 Y135.409 E29.34721
G0 F12000 X84.8 Y136.139
G1 F1800 X84.8 Y83.869 E33.51962
G0 F12000 X86.4 Y83.354
G1 F1800 X86.4 Y136.638 E37.77298
G0 F12000 X88 Y136.956
G1 F1800 X88 Y83.047 E42.07623
G0 F12000 X89.6 Y82.907
G1 F1800 X89.6 Y137.084 E46.40088
G0 F12000 X91.2 Y137.099
G1 F1800 X91.2 Y82.901 E50.72719
G0 F12000 X92.8 Y82.901
G1 F1800 X92.8 Y137.099 E55.05351
G0 F12000 X94.4 Y137.099
G1 F1800 X94.4 Y82.901 E59.37983
G0 F12000 X96 Y82.901
G1 F1800 X96 Y137.099 E63.70615
G0 F12000 X97.6 Y137.099
G1 F1800 X97.6 Y82.901 E68.03247
G0 F12000 X99.2 Y82.901
G1 F1800 X99.2 Y137.099 E72.35879
G0 F12000 X100.8 Y137.099
G1 F1800 X100.8 Y82.901 E76.68511
G0 F12000 X102.4 Y82.901
G1 F1800 X102.4 Y137.099 E81.01143
G0 F12000 X104 Y137.099
G1 F1800 X104 Y82.901 E85.33774
G0 F12000 X105.6 Y82.901
G1 F1800 X105.6 Y137.099 E89.66406
G0 F12000 X107.2 Y137.099
G1 F1800 X107.2 Y82.901 E93.99038
G0 F12000 X108.8 Y82.901
G1 F1800 X108.8 Y137.099 E98.3167
G0 F12000 X110.4 Y137.099
G1 F1800 X110.4 Y82.901 E102.64302
G0 F12000 X112 Y82.901
G1 F1800 X112 Y137.099 E106.96934
G0 F12000 X113.6 Y137.099
G1 F1800 X113.6 Y82.901 E111.29566
G0 F12000 X115.2 Y82.901
G1 F1800 X115.2 Y137.099 E115.62197
G0 F12000 X116.8 Y137.099
G1 F1800 X116.8 Y82.901 E119.94829
G0 F12000 X118.4 Y82.901
G1 F1800 X118.4 Y137.099 E124.27461
G0 F12000 X120 Y137.099
G1 F1800 X120 Y82.901 E128.60093
G0 F12000 X121.6 Y82.901
G1 F1800 X121.6 Y137.099 E132.92725
G0 F12000 X123.2 Y137.099
G1 F1800 X123.2 Y82.901 E137.25357
G0 F12000 X124.8 Y82.901
G1 F1800 X124.8 Y137.099 E141.57989
G0 F12000 X126.4 Y137.099
G1 F1800 X126.4 Y82.901 E145.90621
G0 F12000 X128 Y82.901
G1 F1800 X128 Y137.099 E150.23252
G0 F12000 X129.6 Y137.099
G1 F1800 X129.6 Y82.901 E154.55884
G0 F12000 X131.2 Y82.955
G1 F1800 X131.2 Y137.041 E158.87622
G0 F12000 X132.8 Y136.825
G1 F1800 X132.8 Y83.181 E163.15832
G0 F12000 X134.4 Y83.587
G1 F1800 X134.4 Y136.412 E167.37504
G0 F12000 X136 Y135.802
G1 F1800 X136 Y84.197 E171.49437
G0 F12000 X137.6 Y85.046
G1 F1800 X137.6 Y134.963 E175.47896
G0 F12000 X139.2 Y133.83
G1 F1800 X139.2 Y86.175 E179.28299
G0 F12000 X140.8 Y87.69
G1 F1800 X140.8 Y132.319 E182.84547
G0 F12000 X142.4 Y130.189
G1 F1800 X142.4 Y89.799 E186.06958
G0 F12000 X144 Y93.394
G1 F1800 X144 Y126.63 E188.72262
G1 F2700 E183.72262
G0 F12000 X144.964 Y127.12
G0 X144.231 Y129.038
G0 X143.613 Y130.243
G0 X142.466 Y131.981
G0 X141.608 Y133.014
G0 X140.103 Y134.468
G0 X139.023 Y135.299
G0 X137.257 Y136.378
G0 X136.039 Y136.95
G0 X134.073 Y137.621
G0 X132.758 Y137.917
G0 X130.69 Y138.146
G0 X88.943 Y138.126
G0 X87.617 Y137.979
G0 X85.59 Y137.527
G0 X84.3 Y137.087
G0 X82.42 Y136.205
G0 X81.261 Y135.496
G0 X79.617 Y134.225
G0 X78.843 Y133.478
G0 X77.558 Y132
G0 X78.4 Y131.349
G1 F2700 E188.72262
G1 F1800 X78.4 Y88.639 E192.13191
G0 F12000 X76.8 Y91.269
G1 F1800 X76.8 Y128.714 E195.12093
G0 F300 X76.8 Y128.714 Z0.54
G0 F12000 X77.23 Y129.556
;TIME_ELAPSED:93.228341
;LAYER:-5
;TYPE:SUPPORT
G1 F1800 X82.958 Y135.284 E195.92922
G1 X82.918 Y135.263 E195.93373
G1 X82.8 Y135.197 E195.94722
G1 X82.022 Y134.722 E196.03817
G1 X81.87 Y134.623 E196.05627
G1 X81.156 Y134.111 E196.14394
G1 X81.008 Y133.999 E196.16246
G1 X80.318 Y133.423 E196.25214
G1 X80.205 Y133.322 E196.26726
G1 X79.555 Y132.697 E196.35724
G1 X79.436 Y132.572 E196.37446
G1 X78.833 Y131.901 E196.46448
G1 X78.736 Y131.783 E196.47972
G1 X78.178 Y131.061 E196.57077
G1 X78.073 Y130.914 E196.58879
G1 X77.58 Y130.171 E196.67776
G1 X77.508 Y130.05 E196.69181
G1 F2700 E191.69181
G0 F12000 X76.681 Y130.74
G0 X77.901 Y132.444
G0 X78.797 Y133.445
G0 X80.352 Y134.838
G0 X80.664 Y135.061
G0 X82.257 Y136.113
G0 X82.958 Y135.284
G1 F2700 E196.69181
G1 F1800 X83.712 Y135.671 E196.77638
G1 X83.901 Y135.76 E196.79722
G1 X84.704 Y136.101 E196.88427
G1 X84.87 Y136.165 E196.90202
G1 X85.45 Y136.362 E196.96314
G1 X76.129 Y127.041 E198.27844
G1 X75.905 Y126.289 E198.35673
G1 X75.857 Y126.116 E198.37465
G1 X75.656 Y125.215 E198.46676
G1 X75.643 Y125.14 E198.47435
G1 X87.348 Y136.846 E200.12612
G1 X87.78 Y136.926 E200.16996
G1 X87.955 Y136.951 E200.1876
G1 X88.872 Y137.053 E200.27966
G1 X88.977 Y137.06 E200.29016
G1 X75.446 Y123.53 E202.19946
G1 X75.417 Y123.125 E202.23998
G1 X75.407 Y122.943 E202.25817
G1 X75.399 Y122.443 E202.30806
G1 X75.399 Y122.068 E202.34548
G1 X90.429 Y137.098 E204.46638
G1 X91.843 Y137.098 E204.60747
G1 X75.399 Y120.654 E206.92789
G1 X75.399 Y119.24 E207.06898
G1 X93.258 Y137.098 E209.58901
G1 X94.672 Y137.098 E209.7301
G1 X75.399 Y117.825 E212.44973
G1 X75.399 Y116.411 E212.59082
G1 X96.086 Y137.098 E215.50997
G1 X97.5 Y137.098 E215.65106
G1 X75.399 Y114.997 E218.76975
G1 X75.399 Y113.583 E218.91084
G1 X98.915 Y137.098 E222.22913
G1 X100.329 Y137.098 E222.37022
G1 X75.399 Y112.169 E225.88805
G1 X75.399 Y110.754 E226.02924
G1 X101.743 Y137.098 E229.74666
G1 X103.157 Y137.098 E229.88775
G1 X75.399 Y109.34 E233.8047
G1 X75.399 Y107.926 E233.94579
G1 X104.571 Y137.098 E238.06228
G1 X105.986 Y137.098 E238.20346
G1 X75.399 Y106.512 E242.51955
G1 X75.399 Y105.097 E242.66074
G1 X107.4 Y137.098 E247.17643
G1 X108.814 Y137.098 E247.31752
G1 X75.399 Y103.683 E252.03273
G1 X75.399 Y102.269 E252.17382
G1 X110.228 Y137.098 E257.08857
G1 X111.642 Y137.098 E257.22966
G1 X75.399 Y100.855 E262.34394
G1 X75.399 Y99.441 E262.48503
G1 X113.057 Y137.098 E267.79891
G1 X114.471 Y137.098 E267.94
G1 X75.399 Y98.026 E273.45348
G1 X75.4 Y97.512 E273.50477
G1 X75.43 Y96.643 E273.59153
G1 X115.885 Y137.098 E279.30016
G1 X117.299 Y137.098 E279.44125
G1 X75.561 Y95.36 E285.33094
G1 X75.573 Y95.28 E285.33901
G1 X75.734 Y94.402 E285.42808
G1 X75.765 Y94.268 E285.4418
G1 X75.789 Y94.173 E285.45158
G1 X118.714 Y137.098 E291.50876
G1 X120.128 Y137.098 E291.64985
G1 X76.096 Y93.066 E297.86324
G1 X76.333 Y92.369 E297.9367
G1 X76.397 Y92.203 E297.95445
G1 X76.471 Y92.027 E297.9735
G1 X121.542 Y137.098 E304.3335
G1 X122.956 Y137.098 E304.47459
G1 X76.909 Y91.051 E310.97232
G1 X77.235 Y90.417 E311.04346
G1 X77.302 Y90.3 E311.05691
G1 X77.404 Y90.132 E311.07652
G1 X124.37 Y137.098 E317.70393
G1 X125.785 Y137.098 E317.84512
G1 X77.95 Y89.264 E324.59508
G1 X78.387 Y88.655 E324.66988
G1 X78.5 Y88.508 E324.68838
G1 X78.548 Y88.448 E324.69604
G1 X127.199 Y137.098 E331.56115
G1 X128.613 Y137.098 E331.70224
G1 X79.197 Y87.682 E338.67538
G1 X79.801 Y87.055 E338.76224
G1 X79.895 Y86.966 E338.77516
G1 X130.026 Y137.097 E345.84919
G1 X130.444 Y137.091 E345.8909
G1 X130.628 Y137.081 E345.90929
G1 X131.369 Y137.026 E345.98343
G1 X80.641 Y86.298 E353.14169
G1 X80.714 Y86.236 E353.15125
G1 X81.426 Y85.685 E353.24108
G1 X81.436 Y85.679 E353.24225
G1 X132.616 Y136.859 E360.4643
G1 X132.721 Y136.841 E360.47493
G1 X133.617 Y136.64 E360.56655
G1 X133.771 Y136.599 E360.58245
G1 X82.282 Y85.11 E367.84811
G1 X82.322 Y85.083 E367.85292
G1 X82.448 Y85.006 E367.86766
G1 X83.181 Y84.596 E367.95146
G1 X134.85 Y136.264 E375.24244
G1 X135.648 Y135.958 E375.32772
G1 X135.792 Y135.898 E375.34329
G1 X135.864 Y135.864 E375.35123
G1 X84.135 Y84.135 E382.65075
G1 X84.207 Y84.101 E382.6587
G1 X84.35 Y84.041 E382.67417
G1 X85.149 Y83.734 E382.75958
G1 X136.817 Y135.403 E390.05056
G1 X137.55 Y134.992 E390.13442
G1 X137.676 Y134.915 E390.14915
G1 X137.716 Y134.888 E390.15396
G1 X86.228 Y83.399 E397.41955
G1 X86.382 Y83.358 E397.43545
G1 X87.277 Y83.157 E397.52698
G1 X87.382 Y83.14 E397.53759
G1 X138.562 Y134.319 E404.75957
G1 X138.573 Y134.313 E404.76082
G1 X139.285 Y133.762 E404.85065
G1 X139.358 Y133.701 E404.86015
G1 X88.629 Y82.972 E412.01856
G1 X89.37 Y82.917 E412.0927
G1 X89.554 Y82.907 E412.11108
G1 X89.972 Y82.901 E412.1528
G1 X140.104 Y133.032 E419.22689
G1 X140.197 Y132.943 E419.23974
G1 X140.801 Y132.316 E419.32661
G1 X91.385 Y82.9 E426.29974
G1 X92.799 Y82.9 E426.44083
G1 X141.45 Y131.55 E433.30594
G1 X141.499 Y131.49 E433.31367
G1 X141.612 Y131.343 E433.33217
G1 X142.048 Y130.734 E433.4069
G1 X94.214 Y82.9 E440.1568
G1 X95.628 Y82.9 E440.29788
G1 X142.595 Y129.867 E446.92544
G1 X142.696 Y129.698 E446.94508
G1 X142.764 Y129.582 E446.9585
G1 X143.09 Y128.947 E447.02972
G1 X97.042 Y82.9 E453.52752
G1 X98.456 Y82.9 E453.66861
G1 X143.527 Y127.97 E460.02854
G1 X143.595 Y127.808 E460.04607
G1 X143.675 Y127.6 E460.06831
G1 X143.903 Y126.932 E460.13874
G1 X99.871 Y82.9 E466.35213
G1 X101.285 Y82.9 E466.49322
G1 X144.21 Y125.825 E472.5504
G1 X144.234 Y125.73 E472.56018
G1 X144.264 Y125.597 E472.57378
G1 X144.425 Y124.718 E472.66295
G1 X144.437 Y124.638 E472.67102
G1 X102.699 Y82.9 E478.5607
G1 X104.113 Y82.9 E478.70179
G1 X144.568 Y123.355 E484.41043
G1 X144.599 Y122.486 E484.49719
G1 X144.599 Y121.972 E484.54848
G1 X105.527 Y82.9 E490.06196
G1 X106.942 Y82.9 E490.20315
G1 X144.599 Y120.558 E495.51703
G1 X144.599 Y119.143 E495.65822
G1 X108.356 Y82.9 E500.7725
G1 X109.77 Y82.9 E500.91359
G1 X144.599 Y117.729 E505.82834
G1 X144.599 Y116.315 E505.96943
G1 X111.184 Y82.9 E510.68464
G1 X112.598 Y82.9 E510.82573
G1 X144.599 Y114.901 E515.34142
G1 X144.599 Y113.487 E515.48251
G1 X114.013 Y82.9 E519.7986
G1 X115.427 Y82.9 E519.93969
G1 X144.599 Y112.072 E524.05617
G1 X144.599 Y110.658 E524.19726
G1 X116.841 Y82.9 E528.11421
G1 X118.255 Y82.9 E528.2553
G1 X144.599 Y109.244 E531.97273
G1 X144.599 Y107.83 E532.11381
G1 X119.67 Y82.9 E535.63164
G1 X121.084 Y82.9 E535.77273
G1 X144.599 Y106.416 E539.09102
G1 X144.599 Y105.001 E539.23221
G1 X122.498 Y82.9 E542.3509
G1 X123.912 Y82.9 E542.49199
G1 X144.599 Y103.587 E545.41114
G1 X144.599 Y102.173 E545.55223
G1 X125.326 Y82.9 E548.27186
G1 X126.741 Y82.9 E548.41305
G1 X144.599 Y100.759 E550.93308
G1 X144.599 Y99.344 E551.07427
G1 X128.155 Y82.9 E553.39469
G1 X129.569 Y82.9 E553.53578
G1 X144.599 Y97.93 E555.65668
G1 X144.599 Y97.555 E555.6941
G1 X144.591 Y97.055 E555.74399
G1 X144.582 Y96.87 E555.76247
