;FLAVOR:Marlin
;TIME:1281
;Filament used: 1.39143m
;Layer height: 0.2
;MINX:84.335
;MINY:81.835
;MINZ:0.24
;MAXX:135.447
;MAXY:138.165
;MAXZ:6.09
;Generated with Cura_SteamEngine 4.8.0
M140 S50
M105
M190 S50
M104 S200
M105
M109 S200
M82 ;absolute extrusion mode
M201 X500.00 Y500.00 Z100.00 E5000.00 ;Setup machine max acceleration
M203 X500.00 Y500.00 Z10.00 E50.00 ;Setup machine max feedrate
M204 P500.00 R1000.00 T500.00 ;Setup Print/Retract/Travel acceleration
M205 X8.00 Y8.00 Z0.40 E5.00 ;Setup Jerk
M220 S100 ;Reset Feedrate
M221 S100 ;Reset Flowrate

G28 ;Home

G92 E0 ;Reset Extruder
G1 Z2.0 F3000 ;Move Z Axis up
G1 X10.1 Y20 Z0.28 F5000.0 ;Move to start position
G1 X10.1 Y200.0 Z0.28 F1500.0 E15 ;Draw the first line
G1 X10.4 Y200.0 Z0.28 F5000.0 ;Move to side a little
G1 X10.4 Y20 Z0.28 F1500.0 E30 ;Draw the second line
G92 E0 ;Reset Extruder
G1 Z2.0 F3000 ;Move Z Axis up

G92 E0
G92 E0
G1 F2700 E-5
;LAYER_COUNT:25
;LAYER:-6
M107
G0 F12000 X89.802 Y87.056 Z0.24
;TYPE:SUPPORT-INTERFACE
G1 F2700 E0
G1 F1800 X89.927 Y86.936 E0.01383
G1 X90.598 Y86.333 E0.08584
G1 X90.714 Y86.237 E0.09786
G1 X91.426 Y85.687 E0.16968
G1 X91.585 Y85.574 E0.18525
G1 X92.323 Y85.084 E0.25596
G1 X92.449 Y85.008 E0.26771
G1 X93.243 Y84.562 E0.34041
G1 X93.393 Y84.484 E0.3539
G1 X94.208 Y84.101 E0.42578
G1 X94.351 Y84.041 E0.43816
G1 X95.21 Y83.712 E0.51159
G1 X95.36 Y83.66 E0.52426
G1 X96.21 Y83.405 E0.5951
G1 X96.383 Y83.358 E0.60941
G1 X97.278 Y83.158 E0.68261
G1 X97.408 Y83.135 E0.69315
G1 X98.313 Y83.001 E0.76618
G1 X98.482 Y82.983 E0.77975
G1 X99.371 Y82.917 E0.85091
G1 X99.555 Y82.908 E0.86561
G1 X100.06 Y82.9 E0.90593
G1 X120.003 Y82.901 E2.49787
G1 X121.004 Y82.937 E2.57782
G1 X121.127 Y82.946 E2.58767
G1 X122.044 Y83.048 E2.66132
G1 X122.219 Y83.073 E2.67543
G1 X123.108 Y83.237 E2.74759
G1 X123.231 Y83.265 E2.75766
G1 X124.125 Y83.499 E2.83143
G1 X124.288 Y83.548 E2.84501
G1 X125.13 Y83.834 E2.916
G1 X125.296 Y83.898 E2.9302
G1 X126.099 Y84.239 E2.99984
G1 X126.288 Y84.327 E3.01648
G1 X127.082 Y84.735 E3.08774
G1 X127.199 Y84.802 E3.0985
G1 X127.978 Y85.276 E3.17129
G1 X128.129 Y85.376 E3.18575
G1 X128.843 Y85.887 E3.25583
G1 X128.991 Y86 E3.2707
G1 X129.682 Y86.576 E3.34251
G1 X129.795 Y86.677 E3.3546
G1 X130.444 Y87.302 E3.42653
G1 X130.564 Y87.427 E3.44036
G1 X131.167 Y88.098 E3.51237
G1 X131.263 Y88.214 E3.52439
G1 X131.822 Y88.938 E3.5974
G1 X131.916 Y89.069 E3.61028
G1 X132.416 Y89.823 E3.68249
G1 X132.492 Y89.949 E3.69424
G1 X132.938 Y90.743 E3.76693
G1 X133.016 Y90.893 E3.78043
G1 X133.399 Y91.708 E3.85231
G1 X133.459 Y91.851 E3.86469
G1 X133.788 Y92.71 E3.93812
G1 X133.84 Y92.86 E3.95079
G1 X134.095 Y93.71 E4.02163
G1 X134.142 Y93.883 E4.03594
G1 X134.34 Y94.769 E4.10841
G1 X134.365 Y94.908 E4.11968
G1 X134.498 Y95.807 E4.19222
G1 X134.516 Y95.969 E4.20524
G1 X134.583 Y96.871 E4.27744
G1 X134.592 Y97.055 E4.29214
G1 X134.6 Y97.556 E4.33214
G1 X134.6 Y122.486 E6.32216
G1 X134.564 Y123.492 E6.40251
G1 X134.554 Y123.627 E6.41332
G1 X134.452 Y124.544 E6.48697
G1 X134.427 Y124.719 E6.50108
G1 X134.265 Y125.597 E6.57235
G1 X134.235 Y125.731 E6.58331
G1 X134.004 Y126.616 E6.65632
G1 X133.952 Y126.788 E6.67067
G1 X133.676 Y127.6 E6.73912
G1 X133.596 Y127.809 E6.75699
G1 X133.261 Y128.599 E6.82549
G1 X133.18 Y128.774 E6.84088
G1 X132.765 Y129.582 E6.91339
G1 X132.698 Y129.699 E6.92415
G1 X132.224 Y130.478 E6.99694
G1 X132.124 Y130.629 E7.0114
G1 X131.613 Y131.343 E7.08148
G1 X131.5 Y131.491 E7.09635
G1 X130.924 Y132.182 E7.16816
G1 X130.823 Y132.295 E7.18025
G1 X130.198 Y132.944 E7.25218
G1 X130.073 Y133.064 E7.26601
G1 X129.403 Y133.666 E7.33791
G1 X129.286 Y133.763 E7.35004
G1 X128.574 Y134.313 E7.42186
G1 X128.415 Y134.426 E7.43743
G1 X127.677 Y134.916 E7.50814
G1 X127.551 Y134.992 E7.51989
G1 X126.757 Y135.438 E7.59258
G1 X126.606 Y135.516 E7.60615
G1 X125.792 Y135.899 E7.67796
G1 X125.649 Y135.959 E7.69034
G1 X124.79 Y136.288 E7.76376
G1 X124.64 Y136.34 E7.77644
G1 X123.79 Y136.595 E7.84727
G1 X123.617 Y136.642 E7.86158
G1 X122.722 Y136.842 E7.93479
G1 X122.592 Y136.865 E7.94533
G1 X121.687 Y136.999 E8.01836
G1 X121.519 Y137.017 E8.03184
G1 X120.629 Y137.083 E8.10308
G1 X120.445 Y137.092 E8.11779
G1 X119.94 Y137.1 E8.1581
G1 X99.997 Y137.099 E9.75004
G1 X98.996 Y137.063 E9.83
G1 X98.873 Y137.054 E9.83984
G1 X97.956 Y136.952 E9.91349
G1 X97.781 Y136.927 E9.9276
G1 X96.892 Y136.763 E9.99976
G1 X96.769 Y136.735 E10.00983
G1 X95.875 Y136.501 E10.0836
G1 X95.712 Y136.452 E10.09719
G1 X94.87 Y136.166 E10.16817
G1 X94.704 Y136.102 E10.18237
G1 X93.901 Y135.761 E10.25201
G1 X93.712 Y135.673 E10.26865
G1 X92.918 Y135.265 E10.33991
G1 X92.801 Y135.198 E10.35067
G1 X92.022 Y134.724 E10.42346
G1 X91.871 Y134.624 E10.43792
G1 X91.157 Y134.113 E10.50801
G1 X91.009 Y134 E10.52287
G1 X90.318 Y133.424 E10.59468
G1 X90.205 Y133.323 E10.60678
G1 X89.556 Y132.698 E10.6787
G1 X89.436 Y132.573 E10.69253
G1 X88.833 Y131.902 E10.76455
G1 X88.736 Y131.784 E10.77674
G1 X88.178 Y131.062 E10.84958
G1 X88.074 Y130.915 E10.86395
G1 X87.581 Y130.172 E10.93513
G1 X87.508 Y130.051 E10.94641
G1 X87.056 Y129.246 E11.02011
G1 X86.984 Y129.107 E11.0326
G1 X86.587 Y128.261 E11.1072
G1 X86.541 Y128.149 E11.11686
G1 X86.212 Y127.29 E11.19029
G1 X86.155 Y127.125 E11.20422
G1 X85.905 Y126.29 E11.2738
G1 X85.858 Y126.117 E11.28811
G1 X85.657 Y125.216 E11.3618
G1 X85.635 Y125.092 E11.37185
G1 X85.5 Y124.178 E11.44561
G1 X85.483 Y124.018 E11.45845
G1 X85.417 Y123.126 E11.52985
G1 X85.408 Y122.945 E11.54431
G1 X85.4 Y122.444 E11.58431
G1 X85.4 Y97.514 E13.57433
G1 X85.436 Y96.508 E13.65469
G1 X85.446 Y96.373 E13.66549
G1 X85.548 Y95.456 E13.73914
G1 X85.573 Y95.281 E13.75325
G1 X85.735 Y94.403 E13.82452
G1 X85.765 Y94.269 E13.83548
G1 X85.996 Y93.384 E13.90849
G1 X86.048 Y93.212 E13.92284
G1 X86.334 Y92.37 E13.99382
G1 X86.398 Y92.204 E14.00802
G1 X86.739 Y91.401 E14.07766
G1 X86.82 Y91.226 E14.09305
G1 X87.235 Y90.418 E14.16556
G1 X87.302 Y90.301 E14.17632
G1 X87.776 Y89.522 E14.24911
G1 X87.876 Y89.371 E14.26357
G1 X88.387 Y88.657 E14.33366
G1 X88.5 Y88.509 E14.34852
G1 X89.076 Y87.818 E14.42033
G1 X89.177 Y87.705 E14.43243
G1 X89.802 Y87.056 E14.50435
G0 F12000 X89.6 Y87.265
G1 F1800 X89.6 Y132.74 E18.13436
G0 F12000 X91.2 Y134.143
G1 F1800 X91.2 Y85.861 E21.98844
G0 F12000 X92.8 Y84.81
G1 F1800 X92.8 Y135.197 E26.01055
G0 F12000 X94.4 Y135.972
G1 F1800 X94.4 Y84.022 E30.15742
G0 F12000 X96 Y83.468
G1 F1800 X96 Y136.533 E34.3933
G0 F12000 X97.6 Y136.893
G1 F1800 X97.6 Y83.106 E38.68681
G0 F12000 X99.2 Y82.929
G1 F1800 X99.2 Y137.07 E43.00858
G0 F12000 X100.8 Y137.099
G1 F1800 X100.8 Y82.901 E47.3349
G0 F12000 X102.4 Y82.901
G1 F1800 X102.4 Y137.099 E51.66122
G0 F12000 X104 Y137.099
G1 F1800 X104 Y82.901 E55.98754
G0 F12000 X105.6 Y82.901
G1 F1800 X105.6 Y137.099 E60.31386
G0 F12000 X107.2 Y137.099
G1 F1800 X107.2 Y82.901 E64.64017
G0 F12000 X108.8 Y82.901
G1 F1800 X108.8 Y137.099 E68.96649
G0 F12000 X110.4 Y137.099
G1 F1800 X110.4 Y82.901 E73.29281
G0 F12000 X112 Y82.901
G1 F1800 X112 Y137.099 E77.61913
G0 F12000 X113.6 Y137.099
G1 F1800 X113.6 Y82.901 E81.94545
G0 F12000 X115.2 Y82.901
G1 F1800 X115.2 Y137.099 E86.27177
G0 F12000 X116.8 Y137.099
G1 F1800 X116.8 Y82.901 E90.59809
G0 F12000 X118.4 Y82.901
G1 F1800 X118.4 Y137.099 E94.92441
G0 F12000 X120 Y137.1
G1 F1800 X120 Y82.901 E99.2508
G0 F12000 X121.6 Y82.999
G1 F1800 X121.6 Y137.009 E103.56212
G0 F12000 X123.2 Y136.736
G1 F1800 X123.2 Y83.258 E107.83096
G0 F12000 X124.8 Y83.722
G1 F1800 X124.8 Y136.285 E112.02677
G0 F12000 X126.4 Y135.613
G1 F1800 X126.4 Y84.385 E116.11601
G0 F12000 X128 Y85.291
G1 F1800 X128 Y134.702 E120.06021
G0 F12000 X129.6 Y133.489
G1 F1800 X129.6 Y86.508 E123.81043
G0 F12000 X131.2 Y88.138
G1 F1800 X131.2 Y131.851 E127.29979
G0 F12000 X132.8 Y129.514
G1 F1800 X132.8 Y90.498 E130.41422
G1 F2700 E125.41422
G0 F12000 X133.966 Y90.414
G0 X134.787 Y92.341
G0 X134.896 Y92.703
G0 X135.385 Y94.566
G0 X134.4 Y95.145
G1 F2700 E130.41422
G1 F1800 X134.4 Y124.866 E132.78668
G1 F2700 E127.78668
G0 F12000 X135.447 Y125.059
G0 X134.964 Y127.12
G0 X134.231 Y129.038
G0 X133.613 Y130.243
G0 X132.466 Y131.981
G0 X131.608 Y133.014
G0 X130.103 Y134.468
G0 X129.023 Y135.299
G0 X127.257 Y136.378
G0 X126.039 Y136.95
G0 X124.073 Y137.621
G0 X122.758 Y137.917
G0 X120.69 Y138.146
G0 X98.943 Y138.126
G0 X97.617 Y137.979
G0 X95.59 Y137.527
G0 X94.3 Y137.087
G0 X92.42 Y136.205
G0 X91.261 Y135.496
G0 X89.617 Y134.225
G0 X88.66 Y133.302
G0 X87.905 Y132.395
G0 X87.201 Y131.523
G0 X88 Y130.803
G1 F2700 E132.78668
G1 F1800 X88 Y89.197 E136.10785
G0 F12000 X86.4 Y92.199
G1 F1800 X86.4 Y127.78 E138.94808
G0 F300 X86.4 Y127.78 Z0.54
G0 F12000 X87.507 Y130.05
;TIME_ELAPSED:68.669654
;LAYER:-5
;TYPE:SUPPORT
G1 F1800 X87.58 Y130.171 E138.96218
G1 X88.073 Y130.914 E139.05115
G1 X88.178 Y131.061 E139.06918
G1 X88.736 Y131.783 E139.16023
G1 X88.833 Y131.901 E139.17547
G1 X89.436 Y132.572 E139.26548
G1 X89.555 Y132.697 E139.2827
G1 X90.204 Y133.322 E139.37261
G1 X90.318 Y133.423 E139.3878
G1 X91.008 Y133.999 E139.47749
G1 X91.156 Y134.111 E139.49601
G1 X91.871 Y134.623 E139.58376
G1 X92.022 Y134.722 E139.60177
G1 X92.724 Y135.15 E139.68381
G1 X87.359 Y129.785 E140.44087
G1 X87.056 Y129.244 E140.50274
G1 X86.984 Y129.106 E140.51827
G1 X86.587 Y128.259 E140.61161
G1 X86.54 Y128.148 E140.62364
G1 X86.211 Y127.289 E140.71542
G1 X86.176 Y127.188 E140.72609
G1 X95.298 Y136.31 E142.0133
G1 X95.711 Y136.451 E142.05684
G1 X95.875 Y136.499 E142.07389
G1 X96.768 Y136.734 E142.16603
G1 X96.892 Y136.762 E142.17872
G1 X97.225 Y136.823 E142.2125
G1 X85.668 Y125.266 E143.84331
G1 X85.656 Y125.215 E143.84854
G1 X85.634 Y125.091 E143.86111
G1 X85.499 Y124.177 E143.9533
G1 X85.482 Y124.017 E143.96935
G1 X85.454 Y123.638 E144.00727
G1 X98.869 Y137.052 E145.9002
G0 F12000 X98.872 Y137.053
G1 F1800 X98.995 Y137.062 E145.91251
G1 X99.996 Y137.098 E146.01245
G1 X100.329 Y137.098 E146.04568
G1 X85.399 Y122.168 E148.15246
G1 X85.399 Y120.754 E148.29355
G1 X101.743 Y137.098 E150.59987
G1 X103.157 Y137.098 E150.74096
G1 X85.399 Y119.34 E153.2468
G1 X85.399 Y117.926 E153.38789
G1 X104.571 Y137.098 E156.09327
G1 X105.986 Y137.098 E156.23446
G1 X85.399 Y116.512 E159.13944
G1 X85.399 Y115.097 E159.28062
G1 X107.4 Y137.098 E162.3852
G1 X108.814 Y137.098 E162.52629
G1 X85.399 Y113.683 E165.8304
G1 X85.399 Y112.269 E165.97149
G1 X110.228 Y137.098 E169.47513
G1 X111.642 Y137.098 E169.61622
G1 X85.399 Y110.855 E173.31939
G1 X85.399 Y109.441 E173.46048
G1 X113.057 Y137.098 E177.36325
G1 X114.471 Y137.098 E177.50434
G1 X85.399 Y108.026 E181.60672
G1 X85.399 Y106.612 E181.74781
G1 X115.885 Y137.098 E186.04971
G1 X117.299 Y137.098 E186.1908
G1 X85.399 Y105.198 E190.69223
G1 X85.399 Y103.784 E190.83332
G1 X118.714 Y137.098 E195.53436
G1 X119.94 Y137.098 E195.65669
G1 X120.125 Y137.095 E195.67515
G1 X85.399 Y102.369 E200.57537
G1 X85.399 Y100.955 E200.71646
G1 X121.463 Y137.019 E205.80548
G1 X121.519 Y137.016 E205.81107
G1 X121.686 Y136.998 E205.82783
G1 X122.591 Y136.864 E205.91912
G1 X122.702 Y136.844 E205.93037
G1 X85.399 Y99.541 E211.19423
G1 X85.399 Y98.127 E211.33532
G1 X123.848 Y136.576 E216.76089
G1 X124.639 Y136.339 E216.84328
G1 X124.79 Y136.287 E216.85921
G1 X124.922 Y136.236 E216.87333
G1 X85.426 Y96.74 E222.44665
G1 X85.435 Y96.507 E222.46991
G1 X85.446 Y96.372 E222.48343
G1 X85.547 Y95.455 E222.57548
G1 X85.548 Y95.448 E222.57618
G1 X125.932 Y135.831 E228.27473
G1 X126.606 Y135.515 E228.34901
G1 X126.756 Y135.437 E228.36588
G1 X126.881 Y135.366 E228.38022
G1 X85.768 Y94.253 E234.18171
G1 X85.995 Y93.383 E234.27143
G1 X86.047 Y93.21 E234.28945
G1 X86.07 Y93.141 E234.29671
G1 X127.777 Y134.848 E240.18202
G1 X128.414 Y134.425 E240.25831
G1 X128.573 Y134.312 E240.27778
G1 X128.619 Y134.276 E240.28361
G1 X86.441 Y92.098 E246.23538
G1 X86.739 Y91.4 E246.31111
G1 X86.819 Y91.225 E246.33031
G1 X86.875 Y91.117 E246.34244
G1 X129.412 Y133.655 E252.34495
G1 X130.072 Y133.062 E252.43348
G1 X130.155 Y132.983 E252.44491
G1 X87.365 Y90.194 E258.48297
G1 X87.775 Y89.521 E258.5616
G1 X87.875 Y89.37 E258.57968
G1 X87.908 Y89.323 E258.58541
G1 X130.85 Y132.264 E264.64492
G1 X130.924 Y132.181 E264.65601
G1 X131.495 Y131.495 E264.74507
G1 X88.503 Y88.503 E270.8117
G1 X89.074 Y87.817 E270.90076
G1 X89.149 Y87.734 E270.91193
G1 X132.09 Y130.676 E276.97143
G1 X132.123 Y130.628 E276.97725
G1 X132.223 Y130.478 E276.99524
G1 X132.633 Y129.805 E277.07387
G1 X89.844 Y87.015 E283.11193
G1 X89.926 Y86.936 E283.12329
G1 X90.586 Y86.344 E283.21176
G1 X133.124 Y128.881 E289.21426
G1 X133.179 Y128.774 E289.22626
G1 X133.259 Y128.598 E289.24555
G1 X133.557 Y127.9 E289.32128
G1 X91.379 Y85.722 E295.27305
G1 X91.425 Y85.686 E295.27888
G1 X91.584 Y85.574 E295.29828
G1 X92.222 Y85.151 E295.37467
G1 X133.928 Y126.857 E301.25983
G1 X133.951 Y126.788 E301.26709
G1 X134.003 Y126.615 E301.28511
G1 X134.23 Y125.745 E301.37483
G1 X93.118 Y84.632 E307.17625
G1 X93.242 Y84.562 E307.19046
G1 X93.392 Y84.484 E307.20733
G1 X94.067 Y84.167 E307.28174
G1 X134.45 Y124.551 E312.98028
G1 X134.451 Y124.543 E312.98109
G1 X134.553 Y123.627 E313.07305
G1 X134.563 Y123.491 E313.08666
G1 X134.572 Y123.258 E313.10992
G1 X95.076 Y83.763 E318.68317
G1 X95.209 Y83.711 E318.69742
G1 X95.359 Y83.659 E318.71326
G1 X96.15 Y83.422 E318.79565
G1 X134.599 Y121.871 E324.22122
G1 X134.599 Y120.457 E324.36231
G1 X97.297 Y83.155 E329.62602
G1 X97.407 Y83.135 E329.63718
G1 X98.312 Y83 E329.72848
G1 X98.481 Y82.983 E329.74543
G1 X98.536 Y82.979 E329.75093
G1 X134.599 Y119.043 E334.83988
G1 X134.599 Y117.629 E334.98097
G1 X99.873 Y82.903 E339.88118
G1 X100.059 Y82.9 E339.89974
G1 X101.285 Y82.9 E340.02207
G1 X134.599 Y116.215 E344.72311
G1 X134.599 Y114.8 E344.8643
G1 X102.699 Y82.9 E349.36573
G1 X104.113 Y82.9 E349.50682
G1 X134.599 Y113.386 E353.80873
G1 X134.599 Y111.972 E353.94982
G1 X105.527 Y82.9 E358.05219
G1 X106.942 Y82.9 E358.19338
G1 X134.599 Y110.558 E362.09615
G1 X134.599 Y109.144 E362.23724
G1 X108.356 Y82.9 E365.94048
G1 X109.77 Y82.9 E366.08157
G1 X134.599 Y107.729 E369.58521
G1 X134.599 Y106.315 E369.7263
G1 X111.184 Y82.9 E373.03041
G1 X112.598 Y82.9 E373.1715
G1 X134.599 Y104.901 E376.27608
G1 X134.599 Y103.487 E376.41717
G1 X114.013 Y82.9 E379.32215
G1 X115.427 Y82.9 E379.46324
G1 X134.599 Y102.072 E382.16861
G1 X134.599 Y100.658 E382.3097
G1 X116.841 Y82.9 E384.81555
G1 X118.255 Y82.9 E384.95664
G1 X134.599 Y99.244 E387.26295
G1 X134.599 Y97.83 E387.40404
G1 X119.67 Y82.9 E389.51075
G1 X120.002 Y82.9 E389.54388
G1 X121.003 Y82.937 E389.64383
G1 X121.126 Y82.945 E389.65613
G0 F12000 X121.13 Y82.946
G1 F1800 X134.544 Y96.36 E391.54899
G1 X134.515 Y95.969 E391.58811
G1 X134.497 Y95.807 E391.60437
G1 X134.364 Y94.907 E391.69515
G1 X134.338 Y94.769 E391.70916
G1 X134.331 Y94.733 E391.71282
G1 X122.773 Y83.175 E393.34378
G1 X123.107 Y83.236 E393.37766
G1 X123.23 Y83.264 E393.39025
G1 X124.124 Y83.499 E393.48248
G1 X124.287 Y83.548 E393.49946
G1 X124.701 Y83.688 E393.54307
G1 X133.822 Y92.81 E394.83021
G1 X133.787 Y92.71 E394.84079
G1 X133.458 Y91.851 E394.93257
G1 X133.397 Y91.708 E394.94808
G1 X133.015 Y90.892 E395.03798
G1 X132.937 Y90.743 E395.05476
G1 X132.64 Y90.214 E395.1153
G1 X127.274 Y84.848 E395.8725
G1 X127.977 Y85.276 E395.95462
G1 X128.127 Y85.376 E395.97261
G1 X128.842 Y85.887 E396.0603
G1 X128.99 Y85.999 E396.07882
G1 X129.681 Y86.576 E396.16864
G1 X129.794 Y86.676 E396.1837
G1 X130.443 Y87.301 E396.2736
G1 X130.563 Y87.426 E396.29089
G1 X131.166 Y88.097 E396.38091
G1 X131.262 Y88.213 E396.39593
G1 X131.82 Y88.937 E396.48714
G1 X131.915 Y89.068 E396.50329
G1 X132.414 Y89.823 E396.59359
G1 X132.491 Y89.948 E396.60824
G0 F300 X132.491 Y89.948 Z0.74
G0 F12000 X134.031 Y92.8
;TIME_ELAPSED:158.741752
;LAYER:-4
;TYPE:SUPPORT-INTERFACE
G1 F2400 X85.977 Y92.8 E398.20652
G1 X86.114 Y92.4 E398.22058
G1 X133.884 Y92.4 E399.80942
G1 X133.731 Y92 E399.82366
G1 X86.268 Y92 E401.40229
G1 X86.437 Y91.6 E401.41673
G1 X133.57 Y91.6 E402.98438
G1 X133.382 Y91.2 E402.99908
G1 X86.612 Y91.2 E404.55466
G1 X86.642 Y91.135 E404.55704
G1 X86.815 Y90.8 E404.56958
G1 X133.194 Y90.8 E406.11215
