;FLAVOR:Marlin
;TIME:743
;Filament used: 0.434709m
;Layer height: 0.2
;MINX:97.835
;MINY:98.7
;MINZ:0.2
;MAXX:122.165
;MAXY:122.165
;MAXZ:6
;Generated with Cura_SteamEngine 4.12.0
M140 S50
M105
M190 S50
M104 S200
M105
M109 S200
M82 ;absolute extrusion mode
M201 X500.00 Y500.00 Z100.00 E5000.00 ;Setup machine max acceleration
M203 X500.00 Y500.00 Z10.00 E50.00 ;Setup machine max feedrate
M204 P500.00 R1000.00 T500.00 ;Setup Print/Retract/Travel acceleration
M205 X8.00 Y8.00 Z0.40 E5.00 ;Setup Jerk
M220 S100 ;Reset Feedrate
M221 S100 ;Reset Flowrate

G28 ;Home

G92 E0 ;Reset Extruder
G1 Z2.0 F3000 ;Move Z Axis up
G1 X10.1 Y20 Z0.28 F5000.0 ;Move to start position
G1 X10.1 Y200.0 Z0.28 F1500.0 E15 ;Draw the first line
G1 X10.4 Y200.0 Z0.28 F5000.0 ;Move to side a little
G1 X10.4 Y20 Z0.28 F1500.0 E30 ;Draw the second line
G92 E0 ;Reset Extruder
G1 Z2.0 F3000 ;Move Z Axis up

G92 E0
G92 E0
G1 F2700 E-5
;LAYER_COUNT:30
;LAYER:0
M107
;MESH:ir_lens_mount.obj
G0 F6000 X117.605 Y104.3 Z0.2
;TYPE:WALL-INNER
G1 F2700 E0
G1 F1200 X118.019 Y104.228 E0.01398
G1 X118.412 Y104.055 E0.02826
G1 X118.738 Y103.81 E0.04182
G1 X119.006 Y103.49 E0.0557
G1 X119.194 Y103.117 E0.0696
G1 X119.291 Y102.709 E0.08355
G1 X119.291 Y102.291 E0.09745
G1 X119.194 Y101.882 E0.11143
G1 X119.006 Y101.508 E0.12535
G1 X118.737 Y101.189 E0.13923
G1 X118.402 Y100.939 E0.15313
G1 X118.017 Y100.772 E0.16709
G1 X117.604 Y100.7 E0.18103
G1 X117.187 Y100.724 E0.19493
G1 X116.786 Y100.844 E0.20885
G1 X116.421 Y101.054 E0.22285
G1 X116.112 Y101.351 E0.23711
G1 X115.889 Y101.69 E0.25061
G1 X115.745 Y102.084 E0.26456
G1 X115.697 Y102.5 E0.27849
G1 X115.745 Y102.916 E0.29241
G1 X115.894 Y103.321 E0.30677
G1 X116.127 Y103.667 E0.32064
G1 X116.422 Y103.947 E0.33417
G1 X116.787 Y104.157 E0.34817
G1 X117.199 Y104.277 E0.36245
G1 X117.605 Y104.3 E0.37597
G0 F6000 X117.582 Y103.898
;TYPE:WALL-OUTER
G1 F1200 X117.902 Y103.842 E0.38678
G1 X118.209 Y103.707 E0.39793
G1 X118.461 Y103.518 E0.40841
G1 X118.67 Y103.269 E0.41922
G1 X118.816 Y102.979 E0.43002
G1 X118.891 Y102.662 E0.44085
G1 X118.891 Y102.338 E0.45163
G1 X118.816 Y102.02 E0.4625
G1 X118.67 Y101.73 E0.4733
G1 X118.461 Y101.482 E0.48408
G1 X118.2 Y101.287 E0.49492
G1 X117.902 Y101.158 E0.50572
G1 X117.581 Y101.102 E0.51656
G1 X117.257 Y101.121 E0.52735
G1 X116.945 Y101.214 E0.53818
G1 X116.663 Y101.376 E0.549
G1 X116.422 Y101.608 E0.56012
G1 X116.249 Y101.871 E0.57059
G1 X116.137 Y102.177 E0.58143
G1 X116.1 Y102.5 E0.59225
G1 X116.137 Y102.823 E0.60306
G1 X116.253 Y103.138 E0.61422
G1 X116.434 Y103.407 E0.62501
G1 X116.663 Y103.624 E0.6355
G1 X116.945 Y103.786 E0.64632
G1 X117.267 Y103.88 E0.65747
G1 X117.582 Y103.898 E0.66797
G0 F6000 X117.607 Y104.337
G0 X116.725 Y104.347
G0 X117.812 Y106.808
G0 X118.162 Y107.853
G0 X118.372 Y108.939
G0 X118.437 Y110.044
G0 X118.36 Y111.142
G0 X118.139 Y112.226
G0 X117.78 Y113.267
G0 X117.288 Y114.254
G0 X116.67 Y115.169
G0 X115.939 Y115.996
G0 X115.108 Y116.718
G0 X114.184 Y117.328
G0 X113.196 Y117.811
G0 X112.348 Y118.094
G0 X110.042 Y118.599
;TYPE:WALL-INNER
G1 F1200 X111.078 Y118.532 E0.7025
G1 X111.17 Y118.52 E0.70558
G1 X112.185 Y118.317 E0.74001
G1 X112.274 Y118.292 E0.74309
G1 X113.255 Y117.961 E0.77752
G1 X113.339 Y117.923 E0.78059
G1 X114.261 Y117.47 E0.81475
G1 X114.341 Y117.424 E0.81782
G1 X115.202 Y116.848 E0.85228
G1 X115.275 Y116.791 E0.85536
G1 X116.048 Y116.113 E0.88956
G1 X116.113 Y116.049 E0.89259
G1 X116.795 Y115.271 E0.927
G1 X116.851 Y115.197 E0.93009
G1 X117.424 Y114.34 E0.96438
G1 X117.47 Y114.26 E0.96745
G1 X117.926 Y113.333 E1.00181
G1 X117.961 Y113.249 E1.00483
G1 X118.292 Y112.274 E1.03908
G1 X118.317 Y112.185 E1.04215
G1 X118.519 Y111.169 E1.07661
G1 X118.531 Y111.078 E1.07966
G1 X118.598 Y110.051 E1.11389
G1 X118.599 Y109.959 E1.11695
G1 X118.532 Y108.923 E1.15148
G1 X118.52 Y108.832 E1.15453
G1 X118.318 Y107.816 E1.18899
G1 X118.293 Y107.727 E1.19206
G1 X117.962 Y106.752 E1.22631
G1 X117.927 Y106.668 E1.22934
G1 X117.471 Y105.741 E1.2637
G1 X117.425 Y105.661 E1.26677
G1 X116.852 Y104.804 E1.30105
G1 X116.796 Y104.73 E1.30414
G1 X116.509 Y104.402 E1.31864
G1 X116.114 Y103.952 E1.33603
G1 X116.049 Y103.888 E1.3362
G1 X115.681 Y103.565 E1.34848
G1 X115.276 Y103.21 E1.36639
G1 X115.203 Y103.153 E1.36947
G1 X114.342 Y102.577 E1.40393
G1 X114.262 Y102.531 E1.407
G1 X113.34 Y102.078 E1.44116
G1 X113.256 Y102.04 E1.44423
G1 X112.277 Y101.709 E1.4786
G1 X112.189 Y101.684 E1.48164
G1 X111.171 Y101.481 E1.51617
G1 X111.079 Y101.469 E1.51926
G1 X110.052 Y101.402 E1.55349
G1 X109.96 Y101.401 E1.55655
G1 X108.931 Y101.467 E1.59084
G1 X108.841 Y101.477 E1.59385
G1 X107.824 Y101.681 E1.62835
G1 X107.737 Y101.703 E1.63134
G1 X106.759 Y102.034 E1.66568
G1 X106.676 Y102.068 E1.66866
G1 X105.753 Y102.523 E1.70289
G1 X105.674 Y102.567 E1.7059
G1 X104.814 Y103.141 E1.74029
G1 X104.742 Y103.195 E1.74328
G1 X103.967 Y103.874 E1.77755
G1 X103.902 Y103.936 E1.78054
G1 X103.17 Y104.772 E1.81749
G1 X102.547 Y105.707 E1.85486
G1 X102.052 Y106.715 E1.89221
G1 X101.691 Y107.777 E1.92952
G1 X101.472 Y108.88 E1.96692
G1 X101.399 Y110 E2.00425
G1 X101.47 Y111.119 E2.04155
G1 X101.69 Y112.222 E2.07896
G1 X102.051 Y113.285 E2.11629
G1 X102.546 Y114.292 E2.15362
G1 X103.169 Y115.227 E2.19098
G1 X103.901 Y116.063 E2.22794
G1 X103.966 Y116.125 E2.23093
G1 X104.741 Y116.804 E2.2652
G1 X104.813 Y116.858 E2.26819
G1 X105.677 Y117.435 E2.30275
G1 X105.757 Y117.477 E2.30575
G1 X106.675 Y117.931 E2.33982
G1 X106.758 Y117.965 E2.3428
G1 X107.736 Y118.296 E2.37714
G1 X107.823 Y118.318 E2.38013
G1 X108.84 Y118.522 E2.41463
G1 X108.93 Y118.532 E2.41764
G1 X109.95 Y118.598 E2.45163
G1 X110.042 Y118.599 E2.45469
G0 F6000 X110.032 Y118.199
;TYPE:WALL-OUTER
G1 F1200 X111.038 Y118.134 E2.48822
G1 X111.104 Y118.125 E2.49044
G1 X112.092 Y117.928 E2.52395
G1 X112.156 Y117.91 E2.52616
G1 X113.109 Y117.588 E2.55962
G1 X113.169 Y117.561 E2.5618
G1 X114.072 Y117.117 E2.59527
G1 X114.129 Y117.084 E2.59746
G1 X114.967 Y116.524 E2.63098
G1 X115.019 Y116.483 E2.63319
G1 X115.775 Y115.821 E2.66661
G1 X115.821 Y115.775 E2.66877
G1 X116.485 Y115.018 E2.70226
G1 X116.525 Y114.965 E2.70447
G1 X117.084 Y114.128 E2.73795
G1 X117.117 Y114.071 E2.74014
G1 X117.562 Y113.168 E2.77362
G1 X117.587 Y113.108 E2.77578
G1 X117.91 Y112.156 E2.80922
G1 X117.928 Y112.092 E2.81143
G1 X118.124 Y111.103 E2.84497
G1 X118.133 Y111.038 E2.84715
G1 X118.198 Y110.035 E2.88058
G1 X118.199 Y109.969 E2.88277
G1 X118.134 Y108.963 E2.9163
G1 X118.125 Y108.898 E2.91849
G1 X117.929 Y107.909 E2.95202
G1 X117.911 Y107.845 E2.95423
G1 X117.588 Y106.893 E2.98767
G1 X117.563 Y106.833 E2.98983
G1 X117.118 Y105.93 E3.02331
G1 X117.085 Y105.873 E3.0255
G1 X116.526 Y105.036 E3.05898
G1 X116.486 Y104.983 E3.06119
G1 X115.822 Y104.226 E3.09468
G1 X115.776 Y104.18 E3.09684
G1 X115.02 Y103.518 E3.13027
G1 X114.968 Y103.477 E3.13247
G1 X114.13 Y102.917 E3.16599
G1 X114.073 Y102.884 E3.16818
G1 X113.17 Y102.44 E3.20165
G1 X113.11 Y102.413 E3.20384
G1 X112.158 Y102.091 E3.23726
G1 X112.095 Y102.073 E3.23944
G1 X111.105 Y101.876 E3.27302
G1 X111.039 Y101.867 E3.27523
G1 X110.036 Y101.802 E3.30866
G1 X109.97 Y101.801 E3.31086
G1 X108.966 Y101.866 E3.34432
G1 X108.902 Y101.873 E3.34646
G1 X107.913 Y102.071 E3.38001
G1 X107.851 Y102.087 E3.38214
G1 X106.899 Y102.409 E3.41556
G1 X106.84 Y102.433 E3.41768
G1 X105.938 Y102.878 E3.45114
G1 X105.882 Y102.909 E3.45326
G1 X105.045 Y103.468 E3.48674
G1 X104.994 Y103.506 E3.48886
G1 X104.237 Y104.169 E3.52233
G1 X104.191 Y104.213 E3.52444
G1 X103.488 Y105.016 E3.55994
G1 X102.894 Y105.907 E3.59556
G1 X102.422 Y106.868 E3.63117
G1 X102.078 Y107.881 E3.66675
G1 X101.869 Y108.932 E3.70239
G1 X101.8 Y110 E3.73799
G1 X101.868 Y111.067 E3.77355
G1 X102.077 Y112.118 E3.80919
G1 X102.421 Y113.132 E3.8448
G1 X102.893 Y114.092 E3.88038
G1 X103.487 Y114.983 E3.916
G1 X104.19 Y115.786 E3.95149
G1 X104.236 Y115.83 E3.95361
G1 X104.993 Y116.493 E3.98708
G1 X105.044 Y116.531 E3.9892
G1 X105.882 Y117.091 E4.02272
G1 X105.939 Y117.121 E4.02486
G1 X106.839 Y117.566 E4.05825
G1 X106.898 Y117.59 E4.06037
G1 X107.85 Y117.912 E4.0938
G1 X107.912 Y117.928 E4.09593
G1 X108.901 Y118.126 E4.12948
G1 X108.965 Y118.133 E4.13162
G1 X109.966 Y118.198 E4.16498
G1 X110.032 Y118.199 E4.16718
G0 F6000 X110.042 Y118.638
G1 F2700 E-0.83282
G0 F6000 X106.691 Y118.144
G0 X104.375 Y119.184
G0 X103.019 Y120.228
;TYPE:WALL-INNER
G1 F2700 E4.16718
G1 F1200 X103.412 Y120.055 E4.18146
G1 X103.738 Y119.81 E4.19502
G1 X104.006 Y119.49 E4.2089
G1 X104.194 Y119.117 E4.2228
G1 X104.291 Y118.709 E4.23674
G1 X104.291 Y118.291 E4.25065
G1 X104.194 Y117.882 E4.26463
G1 X104.006 Y117.508 E4.27855
G1 X103.737 Y117.189 E4.29243
G1 X103.402 Y116.939 E4.30633
G1 X103.017 Y116.772 E4.32029
G1 X102.604 Y116.7 E4.33423
G1 X102.187 Y116.724 E4.34813
G1 X101.786 Y116.844 E4.36205
G1 X101.421 Y117.054 E4.37605
G1 X101.112 Y117.351 E4.39031
G1 X100.889 Y117.69 E4.4038
G1 X100.745 Y118.084 E4.41776
G1 X100.697 Y118.5 E4.43168
G1 X100.745 Y118.916 E4.44561
G1 X100.894 Y119.321 E4.45997
G1 X101.127 Y119.667 E4.47384
G1 X101.422 Y119.947 E4.48737
G1 X101.787 Y120.157 E4.50137
G1 X102.199 Y120.277 E4.51565
G1 X102.605 Y120.3 E4.52917
G1 X103.019 Y120.228 E4.54315
G0 F6000 X102.902 Y119.842
;TYPE:WALL-OUTER
G1 F1200 X103.209 Y119.707 E4.5543
G1 X103.461 Y119.518 E4.56478
G1 X103.67 Y119.269 E4.57559
G1 X103.816 Y118.979 E4.58639
G1 X103.891 Y118.662 E4.59722
G1 X103.891 Y118.338 E4.608
G1 X103.816 Y118.02 E4.61887
G1 X103.67 Y117.73 E4.62967
G1 X103.461 Y117.482 E4.64045
G1 X103.2 Y117.287 E4.65129
G1 X102.902 Y117.158 E4.66209
G1 X102.581 Y117.102 E4.67293
G1 X102.257 Y117.121 E4.68372
G1 X101.945 Y117.214 E4.69455
G1 X101.663 Y117.376 E4.70537
G1 X101.422 Y117.608 E4.71649
G1 X101.249 Y117.871 E4.72696
G1 X101.137 Y118.177 E4.7378
G1 X101.1 Y118.5 E4.74862
G1 X101.137 Y118.823 E4.75943
G1 X101.253 Y119.138 E4.77059
G1 X101.434 Y119.407 E4.78138
G1 X101.663 Y119.624 E4.79187
G1 X101.945 Y119.786 E4.80269
G1 X102.267 Y119.88 E4.81384
G1 X102.582 Y119.898 E4.82434
G1 X102.902 Y119.842 E4.83514
G0 F6000 X103.029 Y120.263
G1 F2700 E-0.16486
G0 F6000 X103.87 Y119.949
G0 X103.87 Y120.69
G0 X120.9 Y120.9
;TYPE:WALL-INNER
G1 F2700 E4.83514
G1 F1200 X99.1 Y120.9 E5.56021
G1 X99.1 Y99.1 E6.28529
G1 X120.9 Y99.1 E7.01036
G1 X120.9 Y120.9 E7.73543
G0 F6000 X121.3 Y121.3
;TYPE:WALL-OUTER
G1 F1200 X98.7 Y121.3 E8.48711
G1 X98.7 Y98.7 E9.23879
G1 X121.3 Y98.7 E9.99046
G1 X121.3 Y121.3 E10.74214
G0 F6000 X121.03 Y121.03
G0 X120.79 Y120.51
G0 X120.51 Y120.51
;TYPE:SKIN
G1 F1200 X103.346 Y120.51 E11.31302
G1 X103.611 Y120.394 E11.32264
G1 X104.009 Y120.095 E11.3392
G1 X104.334 Y119.706 E11.35606
G1 X104.563 Y119.252 E11.37297
G1 X104.681 Y118.754 E11.38999
G1 X104.681 Y118.246 E11.40689
G1 X104.563 Y117.748 E11.42391
G1 X104.334 Y117.292 E11.44088
G1 X104.006 Y116.903 E11.45781
G1 X103.599 Y116.599 E11.4747
G1 X103.13 Y116.396 E11.4917
G1 X102.627 Y116.308 E11.50868
G1 X102.119 Y116.338 E11.52561
G1 X101.63 Y116.483 E11.54257
G1 X101.185 Y116.74 E11.55967
G1 X100.81 Y117.1 E11.57696
G1 X100.538 Y117.514 E11.59343
G1 X100.363 Y117.994 E11.61042
G1 X100.305 Y118.5 E11.62736
G1 X100.363 Y119.007 E11.64434
G1 X100.545 Y119.5 E11.66182
G1 X100.827 Y119.921 E11.67867
G1 X101.188 Y120.261 E11.69516
G1 X101.619 Y120.51 E11.71172
G1 X99.49 Y120.51 E11.78253
G1 X99.49 Y99.49 E12.48166
G1 X120.51 Y99.49 E13.18079
G1 X120.51 Y120.51 E13.87991
G1 F2700 E8.87991
G0 F6000 X120.79 Y120.51
G0 X120.69 Y116.124
G0 X122.165 Y116.124
G0 X115.82 Y114.464
G0 X116.943 Y115.392
G0 X116.194 Y116.124
G1 F2700 E13.87991
G0 F6000 X116.397 Y116.316
G1 F1200 X117.097 Y115.517 E13.91524
G1 X117.169 Y115.424 E13.91916
G1 X117.755 Y114.546 E13.95427
G1 X117.815 Y114.443 E13.95823
G1 X118.281 Y113.495 E13.99336
G1 X118.326 Y113.387 E13.99726
G1 X118.664 Y112.39 E14.03227
G1 X118.697 Y112.277 E14.03618
G1 X118.904 Y111.233 E14.07158
G1 X118.919 Y111.117 E14.07547
G1 X118.988 Y110.066 E14.11051
G1 X118.989 Y109.949 E14.1144
G1 X118.92 Y108.884 E14.14989
G1 X118.905 Y108.768 E14.15378
G1 X118.698 Y107.724 E14.18918
G1 X118.665 Y107.611 E14.1931
G1 X118.327 Y106.614 E14.22811
G1 X118.282 Y106.506 E14.23201
G1 X117.816 Y105.558 E14.26714
G1 X117.756 Y105.455 E14.2711
G1 X117.231 Y104.669 E14.30254
G1 X117.628 Y104.692 E14.31577
G1 X118.132 Y104.604 E14.33278
G1 X118.611 Y104.394 E14.35018
G1 X119.009 Y104.095 E14.36674
G1 X119.334 Y103.706 E14.3836
G1 X119.563 Y103.252 E14.40051
G1 X119.681 Y102.754 E14.41753
G1 X119.681 Y102.246 E14.43443
G1 X119.563 Y101.748 E14.45145
G1 X119.334 Y101.292 E14.46842
G1 X119.006 Y100.903 E14.48534
G1 X118.599 Y100.599 E14.50224
G1 X118.13 Y100.396 E14.51924
G1 X117.627 Y100.308 E14.53622
G1 X117.119 Y100.338 E14.55315
G1 X116.63 Y100.483 E14.57011
G1 X116.185 Y100.74 E14.5872
G1 X115.81 Y101.1 E14.60449
G1 X115.538 Y101.514 E14.62097
G1 X115.363 Y101.994 E14.63796
G1 X115.305 Y102.5 E14.6549
G1 X115.336 Y102.774 E14.66407
G1 X114.548 Y102.246 E14.69562
G1 X114.445 Y102.186 E14.69959
G1 X113.506 Y101.725 E14.73438
G1 X113.398 Y101.677 E14.73831
G1 X112.393 Y101.337 E14.7736
G1 X112.281 Y101.304 E14.77748
G1 X111.235 Y101.096 E14.81295
G1 X111.117 Y101.081 E14.81691
G1 X110.067 Y101.012 E14.85191
G1 X109.95 Y101.011 E14.8558
G1 X108.898 Y101.079 E14.89086
G1 X108.781 Y101.091 E14.89477
G1 X107.738 Y101.301 E14.93016
G1 X107.626 Y101.329 E14.934
G1 X106.622 Y101.669 E14.96925
G1 X106.516 Y101.713 E14.97307
G1 X105.572 Y102.178 E15.00807
G1 X105.471 Y102.234 E15.01191
G1 X104.588 Y102.823 E15.04722
G1 X104.496 Y102.893 E15.05106
G1 X103.704 Y103.585 E15.08604
G1 X103.62 Y103.665 E15.0899
G1 X102.86 Y104.534 E15.1283
G1 X102.208 Y105.512 E15.16739
G1 X101.691 Y106.565 E15.20641
G1 X101.313 Y107.676 E15.24544
G1 X101.084 Y108.829 E15.28454
G1 X101.009 Y110 E15.32357
G1 X101.082 Y111.17 E15.36256
G1 X101.312 Y112.323 E15.40166
G1 X101.69 Y113.435 E15.44072
G1 X102.207 Y114.487 E15.47971
G1 X102.859 Y115.465 E15.5188
G1 X103.619 Y116.334 E15.5572
G1 X103.703 Y116.414 E15.56106
G1 X104.495 Y117.106 E15.59604
G1 X104.587 Y117.176 E15.59989
G1 X105.478 Y117.77 E15.6355
G1 X105.58 Y117.824 E15.63934
G1 X106.515 Y118.286 E15.67403
G1 X106.621 Y118.33 E15.67785
G1 X107.625 Y118.67 E15.7131
G1 X107.737 Y118.698 E15.71694
G1 X108.78 Y118.908 E15.75233
G1 X108.896 Y118.92 E15.75621
G1 X109.935 Y118.988 E15.79084
G1 X110.052 Y118.989 E15.79473
G1 X111.116 Y118.92 E15.83019
G1 X111.234 Y118.905 E15.83415
G1 X112.277 Y118.697 E15.86952
G1 X112.39 Y118.664 E15.87344
G1 X113.397 Y118.324 E15.90879
G1 X113.505 Y118.276 E15.91272
G1 X114.444 Y117.815 E15.94751
G1 X114.547 Y117.755 E15.95148
G1 X115.43 Y117.164 E15.98682
G1 X115.524 Y117.092 E15.99075
G1 X116.313 Y116.399 E16.02568
G1 X116.397 Y116.316 E16.02961
G1 F2700 E11.02961
G0 F6000 X116.194 Y116.124
G0 X117.328 Y114.183
G0 X117.811 Y113.193
G0 X118.161 Y112.148
G0 X118.371 Y111.062
G0 X118.438 Y109.963
G0 X118.122 Y106.692
G0 X116.725 Y104.347
G0 X118.642 Y103.976
G0 X119.482 Y102.268
G0 X120.69 Y102.268
G0 X120.79 Y99.984
G1 F2700 E16.02961
G0 F6000 X120.349 Y99.984
G1 F1200 X120.014 Y99.649 E16.04537
G0 F6000 X119.448 Y99.649
G1 F1200 X120.349 Y100.55 E16.08775
G0 F6000 X120.349 Y101.116
G1 F1200 X118.883 Y99.649 E16.15673
G0 F6000 X118.317 Y99.649
G1 F1200 X120.349 Y101.681 E16.25231
G0 F6000 X120.349 Y102.247
G1 F1200 X119.631 Y101.529 E16.28608
G0 F6000 X119.84 Y102.304
G1 F1200 X120.349 Y102.813 E16.31002
G0 F6000 X119.821 Y102.85
G1 F1200 X120.349 Y103.379 E16.33488
G0 F6000 X120.349 Y103.944
G1 F1200 X119.711 Y103.306 E16.36489
G0 F6000 X119.522 Y103.683
G1 F1200 X120.349 Y104.51 E16.40379
G0 F6000 X120.349 Y105.076
G1 F1200 X119.285 Y104.011 E16.45386
G0 F6000 X119.006 Y104.298
G1 F1200 X120.349 Y105.641 E16.51703
G0 F6000 X120.349 Y106.207
G1 F1200 X118.68 Y104.537 E16.59556
G0 F6000 X118.286 Y104.71
G1 F1200 X120.349 Y106.773 E16.69259
G0 F6000 X120.349 Y107.338
G1 F1200 X117.83 Y104.819 E16.81108
G0 F6000 X117.983 Y105.538
G1 F1200 X120.349 Y107.904 E16.92237
G0 F6000 X120.349 Y108.47
G1 F1200 X118.494 Y106.615 E17.00962
G0 F6000 X118.785 Y107.471
