;FLAVOR:Marlin
;TIME:4139
;Filament used: 3.01742m
;Layer height: 0.2
;MINX:80.329
;MINY:51.525
;MINZ:0.2
;MAXX:138.806
;MAXY:122.565
;MAXZ:9.6
;Generated with Cura_SteamEngine 4.12.1
M140 S55
M105
M190 S55
M104 S205
M105
M109 S205
M82 ;absolute extrusion mode
M201 X500.00 Y500.00 Z100.00 E5000.00 ;Setup machine max acceleration
M203 X500.00 Y500.00 Z10.00 E50.00 ;Setup machine max feedrate
M204 P500.00 R1000.00 T500.00 ;Setup Print/Retract/Travel acceleration
M205 X8.00 Y8.00 Z0.40 E5.00 ;Setup Jerk
M220 S100 ;Reset Feedrate
M221 S100 ;Reset Flowrate

G28 ;Home

G92 E0 ;Reset Extruder
G1 Z2.0 F3000 ;Move Z Axis up
G1 X10.1 Y20 Z0.28 F5000.0 ;Move to start position
G1 X10.1 Y200.0 Z0.28 F1500.0 E15 ;Draw the first line
G1 X10.4 Y200.0 Z0.28 F5000.0 ;Move to side a little
G1 X10.4 Y20 Z0.28 F1500.0 E30 ;Draw the second line
G92 E0 ;Reset Extruder
G1 Z2.0 F3000 ;Move Z Axis up

G92 E0
G92 E0
G1 F2700 E-5
;LAYER_COUNT:48
;LAYER:0
M107
;MESH:turret_base.obj
G0 F6000 X86.26 Y71.888 Z0.2
;TYPE:WALL-INNER
G1 F2700 E0
G1 F600 X86.751 Y71.767 E0.01682
G1 X87.203 Y71.532 E0.03376
G1 X87.582 Y71.195 E0.05063
G1 X87.87 Y70.777 E0.06751
G1 X88.05 Y70.302 E0.08441
G1 X88.11 Y69.799 E0.10126
G1 X88.05 Y69.296 E0.11811
G1 X87.87 Y68.82 E0.13503
G1 X87.582 Y68.404 E0.15186
G1 X87.203 Y68.067 E0.16873
G1 X86.752 Y67.832 E0.18564
G1 X86.26 Y67.71 E0.2025
G1 X85.753 Y67.71 E0.21937
G1 X85.261 Y67.832 E0.23623
G1 X84.81 Y68.067 E0.25314
G1 X84.431 Y68.404 E0.27001
G1 X84.143 Y68.82 E0.28684
G1 X83.963 Y69.296 E0.30376
G1 X83.902 Y69.799 E0.32062
G1 X83.963 Y70.302 E0.33747
G1 X84.143 Y70.777 E0.35436
G1 X84.431 Y71.195 E0.37125
G1 X84.81 Y71.532 E0.38811
G1 X85.262 Y71.767 E0.40506
G1 X85.753 Y71.888 E0.42188
G1 X86.26 Y71.888 E0.43874
G0 F6000 X86.211 Y71.488
;TYPE:WALL-OUTER
G1 F600 X86.609 Y71.39 E0.45237
G1 X86.974 Y71.2 E0.46606
G1 X87.28 Y70.928 E0.47968
G1 X87.513 Y70.59 E0.49333
G1 X87.659 Y70.206 E0.50699
G1 X87.707 Y69.799 E0.52063
G1 X87.659 Y69.392 E0.53426
G1 X87.513 Y69.008 E0.54792
G1 X87.28 Y68.671 E0.56155
G1 X86.974 Y68.399 E0.57516
G1 X86.609 Y68.209 E0.58885
G1 X86.211 Y68.11 E0.60249
G1 X85.802 Y68.11 E0.61609
G1 X85.404 Y68.209 E0.62974
G1 X85.039 Y68.399 E0.64342
G1 X84.733 Y68.671 E0.65704
G1 X84.5 Y69.008 E0.67067
G1 X84.354 Y69.392 E0.68433
G1 X84.305 Y69.799 E0.69796
G1 X84.354 Y70.206 E0.7116
G1 X84.5 Y70.59 E0.72526
G1 X84.733 Y70.928 E0.73892
G1 X85.039 Y71.2 E0.75253
G1 X85.404 Y71.39 E0.76622
G1 X85.802 Y71.488 E0.77985
G1 X86.211 Y71.488 E0.79346
G0 F6000 X86.264 Y71.924
G1 F2700 E-4.20654
G0 F6000 X88.04 Y70.866
G0 X86.743 Y70.185
G0 X133.27 Y70.185
G0 X131.973 Y70.866
G0 X133.753 Y71.888
;TYPE:WALL-INNER
G1 F2700 E0.79346
G1 F600 X134.26 Y71.888 E0.81032
G1 X134.751 Y71.767 E0.82714
G1 X135.203 Y71.532 E0.84408
G1 X135.582 Y71.195 E0.86095
G1 X135.87 Y70.777 E0.87783
G1 X136.05 Y70.302 E0.89473
G1 X136.11 Y69.799 E0.91158
G1 X136.05 Y69.296 E0.92843
G1 X135.87 Y68.82 E0.94535
G1 X135.582 Y68.404 E0.96218
G1 X135.203 Y68.067 E0.97905
G1 X134.752 Y67.832 E0.99596
G1 X134.26 Y67.71 E1.01282
G1 X133.753 Y67.71 E1.02969
G1 X133.261 Y67.832 E1.04655
G1 X132.81 Y68.067 E1.06346
G1 X132.431 Y68.404 E1.08033
G1 X132.143 Y68.82 E1.09716
G1 X131.963 Y69.296 E1.11408
G1 X131.902 Y69.799 E1.13093
G1 X131.963 Y70.302 E1.14779
G1 X132.143 Y70.777 E1.16468
G1 X132.431 Y71.195 E1.18157
G1 X132.81 Y71.532 E1.19843
G1 X133.262 Y71.767 E1.21538
G1 X133.753 Y71.888 E1.2322
G0 F6000 X133.802 Y71.488
;TYPE:WALL-OUTER
G1 F600 X134.211 Y71.488 E1.2458
G1 X134.609 Y71.39 E1.25943
G1 X134.974 Y71.2 E1.27312
G1 X135.28 Y70.928 E1.28674
G1 X135.513 Y70.59 E1.30039
G1 X135.659 Y70.206 E1.31405
G1 X135.707 Y69.799 E1.32769
G1 X135.659 Y69.392 E1.34132
G1 X135.513 Y69.008 E1.35498
G1 X135.28 Y68.671 E1.36861
G1 X134.974 Y68.399 E1.38222
G1 X134.609 Y68.209 E1.39591
G1 X134.211 Y68.11 E1.40955
G1 X133.802 Y68.11 E1.42315
G1 X133.404 Y68.209 E1.4368
G1 X133.039 Y68.399 E1.45048
G1 X132.733 Y68.671 E1.4641
G1 X132.5 Y69.008 E1.47773
G1 X132.354 Y69.392 E1.49139
G1 X132.305 Y69.799 E1.50502
G1 X132.354 Y70.206 E1.51866
G1 X132.5 Y70.59 E1.53232
G1 X132.733 Y70.928 E1.54598
G1 X133.039 Y71.2 E1.55959
G1 X133.404 Y71.39 E1.57328
G1 X133.802 Y71.488 E1.58691
G0 F6000 X133.749 Y71.924
G1 F2700 E-3.41309
G0 F6000 X133.906 Y70.624
G0 X133.907 Y111.974
G0 X133.753 Y110.52
G0 X132.553 Y111.511
G0 X132.287 Y111.896
G0 X132.12 Y112.335
G0 X132.064 Y112.799
G0 X132.12 Y113.263
G0 X132.287 Y113.702
G0 X132.553 Y114.087
G0 X132.751 Y114.262
G0 X133.753 Y114.888
;TYPE:WALL-INNER
G1 F2700 E1.58691
G1 F600 X134.26 Y114.888 E1.60378
G1 X134.751 Y114.767 E1.6206
G1 X135.203 Y114.532 E1.63754
G1 X135.582 Y114.195 E1.65441
G1 X135.87 Y113.777 E1.67129
G1 X136.05 Y113.302 E1.68819
G1 X136.11 Y112.799 E1.70503
G1 X136.05 Y112.296 E1.72188
G1 X135.87 Y111.82 E1.73881
G1 X135.582 Y111.404 E1.75564
G1 X135.203 Y111.067 E1.7725
G1 X134.752 Y110.832 E1.78942
G1 X134.26 Y110.71 E1.80628
G1 X133.753 Y110.71 E1.82314
G1 X133.261 Y110.832 E1.84
G1 X132.81 Y111.067 E1.85692
G1 X132.431 Y111.404 E1.87378
G1 X132.143 Y111.82 E1.89061
G1 X131.963 Y112.296 E1.90754
G1 X131.902 Y112.799 E1.92439
G1 X131.963 Y113.302 E1.94124
G1 X132.143 Y113.777 E1.95814
G1 X132.431 Y114.195 E1.97502
G1 X132.81 Y114.532 E1.99189
G1 X133.262 Y114.767 E2.00883
G1 X133.753 Y114.888 E2.02565
G0 F6000 X133.802 Y114.488
;TYPE:WALL-OUTER
G1 F600 X134.211 Y114.488 E2.03926
G1 X134.609 Y114.39 E2.05289
G1 X134.974 Y114.2 E2.06658
G1 X135.28 Y113.928 E2.08019
G1 X135.513 Y113.59 E2.09385
G1 X135.659 Y113.206 E2.10751
G1 X135.707 Y112.799 E2.12114
G1 X135.659 Y112.392 E2.13477
G1 X135.513 Y112.008 E2.14844
G1 X135.28 Y111.671 E2.16206
G1 X134.974 Y111.399 E2.17568
G1 X134.609 Y111.209 E2.18937
G1 X134.211 Y111.11 E2.20301
G1 X133.802 Y111.11 E2.21661
G1 X133.404 Y111.209 E2.23025
G1 X133.039 Y111.399 E2.24394
G1 X132.733 Y111.671 E2.25756
G1 X132.5 Y112.008 E2.27118
G1 X132.354 Y112.392 E2.28485
G1 X132.305 Y112.799 E2.29848
G1 X132.354 Y113.206 E2.31212
G1 X132.5 Y113.59 E2.32578
G1 X132.733 Y113.928 E2.33943
G1 X133.039 Y114.2 E2.35305
G1 X133.404 Y114.39 E2.36674
G1 X133.802 Y114.488 E2.38037
G0 F6000 X133.749 Y114.924
G1 F2700 E-2.61963
G0 F6000 X132.903 Y114.398
G0 X132.62 Y114.147
G0 X131.71 Y112.799
G0 X133.175 Y112.799
G0 X110.775 Y100.092
G0 X110.926 Y101.547
G0 X109.107 Y101.356
;TYPE:WALL-INNER
G1 F2700 E2.38037
G1 F600 X110.906 Y101.356 E2.4402
G1 X112.665 Y100.981 E2.50002
G1 X114.308 Y100.25 E2.55983
G1 X115.763 Y99.193 E2.61965
G1 X116.967 Y97.856 E2.67949
G1 X117.866 Y96.299 E2.73929
G1 X118.422 Y94.589 E2.7991
G1 X118.609 Y92.799 E2.85896
G1 X118.422 Y91.011 E2.91875
G1 X117.866 Y89.299 E2.97862
G1 X116.967 Y87.743 E3.03839
G1 X115.763 Y86.406 E3.09823
G1 X114.308 Y85.349 E3.15805
G1 X112.665 Y84.618 E3.21786
G1 X110.906 Y84.243 E3.27768
G1 X109.107 Y84.243 E3.33751
G1 X107.348 Y84.617 E3.39732
G1 X105.704 Y85.349 E3.45718
G1 X104.249 Y86.406 E3.51699
G1 X103.046 Y87.743 E3.57681
G1 X102.147 Y89.299 E3.63658
G1 X101.591 Y91.01 E3.69642
G1 X101.403 Y92.799 E3.75625
G1 X101.591 Y94.589 E3.81611
G1 X102.147 Y96.299 E3.87592
G1 X103.046 Y97.856 E3.93572
G1 X104.249 Y99.193 E3.99554
G1 X105.704 Y100.25 E4.05535
G1 X107.348 Y100.982 E4.11521
G1 X109.107 Y101.356 E4.17502
G0 F6000 X109.149 Y100.956
;TYPE:WALL-OUTER
G1 F600 X110.864 Y100.956 E4.23206
G1 X112.541 Y100.599 E4.28909
G1 X114.107 Y99.902 E4.3461
G1 X115.494 Y98.894 E4.40313
G1 X116.642 Y97.62 E4.46017
G1 X117.499 Y96.135 E4.51719
G1 X118.029 Y94.505 E4.5742
G1 X118.207 Y92.799 E4.63125
G1 X118.029 Y91.094 E4.68827
G1 X117.499 Y89.463 E4.74531
G1 X116.642 Y87.979 E4.8023
G1 X115.494 Y86.705 E4.85934
G1 X114.107 Y85.697 E4.91637
G1 X112.541 Y85 E4.97338
G1 X110.864 Y84.643 E5.03041
G1 X109.149 Y84.643 E5.08745
G1 X107.472 Y85 E5.14448
G1 X105.905 Y85.697 E5.20152
G1 X104.518 Y86.705 E5.25855
G1 X103.371 Y87.979 E5.31556
G1 X102.514 Y89.463 E5.37256
G1 X101.984 Y91.094 E5.4296
G1 X101.805 Y92.799 E5.48662
G1 X101.984 Y94.505 E5.54367
G1 X102.514 Y96.135 E5.60068
G1 X103.371 Y97.62 E5.65771
G1 X104.518 Y98.894 E5.71472
G1 X105.905 Y99.902 E5.77175
G1 X107.472 Y100.599 E5.82879
G1 X109.149 Y100.956 E5.88582
G0 F6000 X109.103 Y101.393
G1 F2700 E0.88582
G0 F6000 X107.289 Y101.164
G0 X107.741 Y99.773
G0 X86.836 Y112.799
G0 X88.301 Y112.799
G0 X87.46 Y114.087
G0 X87.262 Y114.262
G0 X86.26 Y114.888
;TYPE:WALL-INNER
G1 F2700 E5.88582
G1 F600 X86.751 Y114.767 E5.90264
G1 X87.203 Y114.532 E5.91958
G1 X87.582 Y114.195 E5.93645
G1 X87.87 Y113.777 E5.95334
G1 X88.05 Y113.302 E5.97023
G1 X88.11 Y112.799 E5.98708
G1 X88.05 Y112.296 E6.00393
G1 X87.87 Y111.82 E6.02085
G1 X87.582 Y111.404 E6.03768
G1 X87.203 Y111.067 E6.05455
G1 X86.752 Y110.832 E6.07146
G1 X86.26 Y110.71 E6.08832
G1 X85.753 Y110.71 E6.10519
G1 X85.261 Y110.832 E6.12205
G1 X84.81 Y111.067 E6.13896
G1 X84.431 Y111.404 E6.15583
G1 X84.143 Y111.82 E6.17266
G1 X83.963 Y112.296 E6.18958
G1 X83.902 Y112.799 E6.20644
G1 X83.963 Y113.302 E6.22329
G1 X84.143 Y113.777 E6.24018
G1 X84.431 Y114.195 E6.25707
G1 X84.81 Y114.532 E6.27393
G1 X85.262 Y114.767 E6.29088
G1 X85.753 Y114.888 E6.3077
G1 X86.26 Y114.888 E6.32456
G0 F6000 X86.211 Y114.488
;TYPE:WALL-OUTER
G1 F600 X86.609 Y114.39 E6.33819
G1 X86.974 Y114.2 E6.35188
G1 X87.28 Y113.928 E6.3655
G1 X87.513 Y113.59 E6.37915
G1 X87.659 Y113.206 E6.39282
G1 X87.707 Y112.799 E6.40645
G1 X87.659 Y112.392 E6.42008
G1 X87.513 Y112.008 E6.43374
G1 X87.28 Y111.671 E6.44737
G1 X86.974 Y111.399 E6.46098
G1 X86.609 Y111.209 E6.47467
G1 X86.211 Y111.11 E6.48831
G1 X85.802 Y111.11 E6.50191
G1 X85.404 Y111.209 E6.51556
G1 X85.039 Y111.399 E6.52924
G1 X84.733 Y111.671 E6.54286
G1 X84.5 Y112.008 E6.55649
G1 X84.354 Y112.392 E6.57015
G1 X84.305 Y112.799 E6.58378
G1 X84.354 Y113.206 E6.59742
G1 X84.5 Y113.59 E6.61108
G1 X84.733 Y113.928 E6.62474
G1 X85.039 Y114.2 E6.63835
G1 X85.404 Y114.39 E6.65204
G1 X85.802 Y114.488 E6.66567
G1 X86.211 Y114.488 E6.67928
G0 F6000 X86.264 Y114.924
G1 F2700 E1.67928
G0 F6000 X87.727 Y114.322
G0 X86.629 Y113.351
G0 X95.333 Y122.56
G0 X95.44 Y121.09
G0 X124.54 Y121.3
;TYPE:WALL-INNER
G1 F2700 E6.67928
G1 F600 X95.439 Y121.3 E7.64718
G1 X93.384 Y121.148 E7.71572
G1 X91.394 Y120.702 E7.78355
G1 X89.483 Y119.965 E7.85167
G1 X87.703 Y118.957 E7.91971
G1 X86.095 Y117.703 E7.98753
G1 X84.677 Y116.214 E8.05592
G1 X83.508 Y114.555 E8.12342
G1 X82.586 Y112.726 E8.19154
G1 X81.941 Y110.778 E8.25979
G1 X81.594 Y108.779 E8.32727
G1 X81.594 Y69.98 E9.61773
G1 X83.06 Y67.21 E9.72197
G1 X84.847 Y64.541 E9.8288
G1 X86.924 Y62.041 E9.93691
G1 X89.237 Y59.778 E10.04453
G1 X91.767 Y57.768 E10.15201
G1 X94.502 Y56.022 E10.25993
G1 X97.386 Y54.574 E10.36726
G1 X100.418 Y53.425 E10.47511
G1 X103.541 Y52.599 E10.58255
G1 X106.745 Y52.095 E10.69042
G1 X109.975 Y51.925 E10.798
G1 X113.203 Y52.088 E10.9055
G1 X116.407 Y52.584 E11.01334
G1 X119.539 Y53.406 E11.12104
G1 X122.558 Y54.541 E11.22831
G1 X125.461 Y55.991 E11.33624
G1 X128.191 Y57.725 E11.44381
G1 X130.734 Y59.736 E11.55164
G1 X133.046 Y61.99 E11.65903
G1 X135.122 Y64.475 E11.76673
G1 X136.928 Y67.161 E11.87438
G1 X138.394 Y69.916 E11.97818
G1 X138.394 Y108.718 E13.26874
G1 X138.053 Y110.729 E13.33658
G1 X137.417 Y112.675 E13.40468
G1 X136.499 Y114.511 E13.47295
G1 X135.32 Y116.194 E13.54129
G1 X133.911 Y117.681 E13.60943
G1 X132.303 Y118.941 E13.67737
G1 X130.513 Y119.958 E13.74585
G1 X128.6 Y120.697 E13.81406
G1 X126.602 Y121.147 E13.88218
G1 X124.54 Y121.3 E13.95095
G0 F6000 X124.557 Y121.7
;TYPE:WALL-OUTER
G1 F600 X95.424 Y121.7 E14.91991
G1 X93.328 Y121.545 E14.98982
G1 X91.276 Y121.085 E15.05976
G1 X89.311 Y120.327 E15.12981
G1 X87.482 Y119.291 E15.19973
G1 X85.822 Y117.997 E15.26973
G1 X84.369 Y116.471 E15.33981
G1 X83.164 Y114.761 E15.40939
G1 X82.214 Y112.876 E15.4796
G1 X81.553 Y110.879 E15.54956
G1 X81.194 Y108.812 E15.61934
G1 X81.194 Y69.88 E16.91422
G1 X82.714 Y67.008 E17.0223
G1 X84.529 Y64.297 E17.13081
G1 X86.628 Y61.771 E17.24005
G1 X88.97 Y59.479 E17.34904
G1 X91.533 Y57.443 E17.45791
G1 X94.301 Y55.676 E17.56713
G1 X97.231 Y54.205 E17.67617
G1 X100.297 Y53.043 E17.78523
G1 X103.455 Y52.208 E17.89387
G1 X106.701 Y51.697 E18.00316
G1 X109.974 Y51.525 E18.11218
G1 X113.245 Y51.69 E18.22111
G1 X116.494 Y52.193 E18.33046
G1 X119.656 Y53.023 E18.43919
G1 X122.723 Y54.176 E18.54817
G1 X125.656 Y55.641 E18.65721
G1 X128.424 Y57.399 E18.76627
G1 X130.994 Y59.432 E18.87526
G1 X133.341 Y61.719 E18.98426
G1 X135.443 Y64.236 E19.09333
G1 X137.271 Y66.955 E19.2023
G1 X138.794 Y69.816 E19.3101
G1 X138.794 Y108.75 E20.60505
G1 X138.442 Y110.825 E20.67505
G1 X137.787 Y112.831 E20.74524
G1 X136.844 Y114.715 E20.81531
G1 X135.632 Y116.446 E20.88559
G1 X134.178 Y117.98 E20.95589
G1 X132.526 Y119.275 E21.02571
G1 X130.688 Y120.319 E21.09601
G1 X128.717 Y121.081 E21.1663
G1 X126.659 Y121.544 E21.23646
G1 X124.557 Y121.7 E21.30656
G0 F6000 X124.541 Y121.261
G0 X124.537 Y120.91
;TYPE:SKIN
G1 F600 X95.441 Y120.91 E22.2743
G1 X93.445 Y120.762 E22.34087
G1 X91.51 Y120.329 E22.40682
G1 X89.651 Y119.612 E22.47309
G1 X87.923 Y118.633 E22.53914
G1 X86.357 Y117.413 E22.60517
G1 X84.973 Y115.958 E22.67196
G1 X83.85 Y114.365 E22.73679
G1 X82.945 Y112.57 E22.80365
G1 X82.319 Y110.68 E22.86987
G1 X81.984 Y108.747 E22.93512
G1 X81.984 Y70.078 E24.22125
G1 X83.4 Y67.403 E24.32192
G1 X85.162 Y64.771 E24.42727
G1 X87.208 Y62.309 E24.53374
G1 X89.497 Y60.07 E24.64024
G1 X91.993 Y58.087 E24.74626
G1 X94.694 Y56.363 E24.85284
G1 X97.545 Y54.931 E24.95895
G1 X100.539 Y53.796 E25.06545
G1 X103.615 Y52.983 E25.17127
G1 X106.788 Y52.483 E25.27811
G1 X109.976 Y52.317 E25.38429
G1 X113.162 Y52.477 E25.49039
G1 X116.336 Y52.969 E25.59721
G1 X119.42 Y53.777 E25.70325
G1 X122.401 Y54.898 E25.80918
G1 X125.27 Y56.332 E25.91586
G1 X127.962 Y58.041 E26.02191
G1 X130.474 Y60.028 E26.12844
G1 X132.766 Y62.262 E26.23489
G1 X134.804 Y64.701 E26.34061
G1 X136.592 Y67.362 E26.44724
G1 X138.004 Y70.015 E26.54719
G1 X138.004 Y108.689 E27.8335
G1 X137.675 Y110.63 E27.89897
G1 X137.055 Y112.528 E27.96539
G1 X136.165 Y114.307 E28.03155
G1 X135.016 Y115.947 E28.09815
G1 X133.643 Y117.395 E28.16452
G1 X132.088 Y118.615 E28.23025
G1 X130.345 Y119.605 E28.29693
G1 X128.484 Y120.324 E28.36328
G1 X126.541 Y120.761 E28.42952
G1 X124.537 Y120.91 E28.49636
G1 F2700 E23.49636
G0 F6000 X124.54 Y121.189
G0 X126.568 Y120.939
G0 X126.892 Y122.378
G0 X133.384 Y113.351
G0 X132.375 Y114.4
G1 F2700 E28.49636
G0 F6000 X132.137 Y114.455
G1 F600 X132.587 Y114.856 E28.51641
G1 X133.123 Y115.134 E28.53649
G1 X133.706 Y115.278 E28.55646
G1 X134.307 Y115.278 E28.57645
G1 X134.89 Y115.134 E28.59642
G1 X135.426 Y114.856 E28.61651
G1 X135.876 Y114.455 E28.63655
G1 X136.217 Y113.96 E28.65655
G1 X136.432 Y113.396 E28.67662
G1 X136.502 Y112.799 E28.69661
G1 X136.432 Y112.202 E28.71661
G1 X136.217 Y111.637 E28.73671
G1 X135.876 Y111.143 E28.75668
G1 X135.426 Y110.743 E28.7767
G1 X134.891 Y110.465 E28.79676
G1 X134.307 Y110.32 E28.81677
G1 X133.706 Y110.32 E28.83676
G1 X133.122 Y110.465 E28.85677
G1 X132.587 Y110.743 E28.87683
G1 X132.137 Y111.143 E28.89685
G1 X131.796 Y111.637 E28.91682
G1 X131.581 Y112.202 E28.93692
G1 X131.51 Y112.799 E28.95692
G1 X131.581 Y113.396 E28.97692
G1 X131.796 Y113.96 E28.99699
G1 X132.137 Y114.455 E29.01698
G1 F2700 E24.01698
G0 F6000 X132.347 Y114.269
G0 X131.71 Y112.799
G0 X133.175 Y112.799
G0 X114.915 Y98.247
G0 X115.891 Y99.336
G0 X114.366 Y100.345
G1 F2700 E29.01698
G0 F6000 X114.504 Y100.589
G1 F600 X116.026 Y99.484 E29.07954
G1 X117.285 Y98.086 E29.14211
G1 X118.225 Y96.459 E29.20461
G1 X118.806 Y94.671 E29.26714
G1 X119.001 Y92.799 E29.32974
G1 X118.806 Y90.929 E29.39227
G1 X118.225 Y89.139 E29.45487
G1 X117.285 Y87.513 E29.51733
G1 X116.026 Y86.115 E29.57991
G1 X114.504 Y85.01 E29.64247
G1 X112.786 Y84.245 E29.70502
G1 X110.947 Y83.853 E29.76755
G1 X109.066 Y83.853 E29.83012
G1 X107.227 Y84.244 E29.89265
G1 X105.507 Y85.01 E29.95527
G1 X103.986 Y86.115 E30.0178
G1 X102.728 Y87.513 E30.08036
G1 X101.788 Y89.139 E30.14282
G1 X101.207 Y90.928 E30.20538
G1 X101.011 Y92.799 E30.26795
G1 X101.207 Y94.671 E30.33056
