;FLAVOR:Marlin
;TIME:4528
;Filament used: 4.54767m
;Layer height: 0.2
;MINX:73.836
;MINY:77.835
;MINZ:0.24
;MAXX:146.164
;MAXY:142.164
;MAXZ:9.69
;Generated with Cura_SteamEngine 4.12.0
M140 S50
M105
M190 S50
M104 S200
M105
M109 S200
M82 ;absolute extrusion mode
M201 X500.00 Y500.00 Z100.00 E5000.00 ;Setup machine max acceleration
M203 X500.00 Y500.00 Z10.00 E50.00 ;Setup machine max feedrate
M204 P500.00 R1000.00 T500.00 ;Setup Print/Retract/Travel acceleration
M205 X8.00 Y8.00 Z0.40 E5.00 ;Setup Jerk
M220 S100 ;Reset Feedrate
M221 S100 ;Reset Flowrate

G28 ;Home

G92 E0 ;Reset Extruder
G1 Z2.0 F3000 ;Move Z Axis up
G1 X10.1 Y20 Z0.28 F5000.0 ;Move to start position
G1 X10.1 Y200.0 Z0.28 F1500.0 E15 ;Draw the first line
G1 X10.4 Y200.0 Z0.28 F5000.0 ;Move to side a little
G1 X10.4 Y20 Z0.28 F1500.0 E30 ;Draw the second line
G92 E0 ;Reset Extruder
G1 Z2.0 F3000 ;Move Z Axis up

G92 E0
G92 E0
G1 F2700 E-5
;LAYER_COUNT:43
;LAYER:-6
M107
G0 F12000 X76.279 Y80.227 Z0.24
;TYPE:SUPPORT-INTERFACE
G1 F2700 E0
G1 F1800 X76.481 Y80.04 E0.02197
G1 X76.711 Y79.852 E0.04569
G1 X76.939 Y79.688 E0.0681
G1 X77.198 Y79.526 E0.09249
G1 X77.437 Y79.398 E0.11413
G1 X77.712 Y79.271 E0.13831
G1 X77.973 Y79.169 E0.16068
G1 X78.276 Y79.074 E0.18603
G1 X78.497 Y79.02 E0.20419
G1 X78.853 Y78.96 E0.23301
G1 X79.407 Y78.91 E0.27741
G1 X79.629 Y78.9 E0.29515
G1 X140.424 Y78.9 E5.14807
G1 X140.55 Y78.904 E5.15813
G1 X140.927 Y78.928 E5.18829
G1 X141.225 Y78.965 E5.21226
G1 X141.509 Y79.02 E5.23535
G1 X141.8 Y79.096 E5.25935
G1 X142.058 Y79.18 E5.28101
G1 X142.337 Y79.291 E5.30498
G1 X142.595 Y79.413 E5.32776
G1 X142.853 Y79.556 E5.35131
G1 X143.092 Y79.708 E5.37392
G1 X143.339 Y79.89 E5.39841
G1 X143.54 Y80.059 E5.41937
G1 X143.773 Y80.279 E5.44495
G1 X143.96 Y80.481 E5.46693
G1 X144.148 Y80.711 E5.49064
G1 X144.312 Y80.939 E5.51306
G1 X144.474 Y81.198 E5.53744
G1 X144.602 Y81.437 E5.55909
G1 X144.729 Y81.712 E5.58326
G1 X144.831 Y81.973 E5.60563
G1 X144.926 Y82.276 E5.63098
G1 X144.98 Y82.497 E5.64914
G1 X145.04 Y82.853 E5.67796
G1 X145.09 Y83.407 E5.72236
G1 X145.1 Y83.629 E5.7401
G1 X145.1 Y136.424 E9.95443
G1 X145.096 Y136.55 E9.96449
G1 X145.072 Y136.927 E9.99464
G1 X145.035 Y137.225 E10.01861
G1 X144.98 Y137.509 E10.04171
G1 X144.904 Y137.8 E10.06571
G1 X144.82 Y138.058 E10.08737
G1 X144.709 Y138.337 E10.11134
G1 X144.587 Y138.595 E10.13412
G1 X144.444 Y138.853 E10.15767
G1 X144.292 Y139.092 E10.18028
G1 X144.119 Y139.327 E10.20357
G1 X143.938 Y139.544 E10.22613
G1 X143.724 Y139.77 E10.25097
G1 X143.519 Y139.96 E10.27328
G1 X143.289 Y140.148 E10.297
G1 X143.061 Y140.312 E10.31942
G1 X142.802 Y140.474 E10.3438
G1 X142.563 Y140.602 E10.36544
G1 X142.288 Y140.729 E10.38962
G1 X142.027 Y140.831 E10.41199
G1 X141.724 Y140.926 E10.43734
G1 X141.503 Y140.98 E10.4555
G1 X141.147 Y141.04 E10.48432
G1 X140.593 Y141.09 E10.52872
G1 X140.371 Y141.1 E10.54646
G1 X79.576 Y141.1 E15.39938
G1 X79.45 Y141.096 E15.40944
G1 X79.073 Y141.072 E15.4396
G1 X78.775 Y141.035 E15.46357
G1 X78.491 Y140.98 E15.48666
G1 X78.2 Y140.904 E15.51067
G1 X77.94 Y140.819 E15.5325
G1 X77.663 Y140.709 E15.55629
G1 X77.404 Y140.586 E15.57918
G1 X77.147 Y140.444 E15.60262
G1 X76.908 Y140.292 E15.62523
G1 X76.661 Y140.11 E15.64972
G1 X76.46 Y139.941 E15.67068
G1 X76.227 Y139.721 E15.69626
G1 X76.04 Y139.519 E15.71823
G1 X75.848 Y139.284 E15.74246
G1 X75.688 Y139.061 E15.76437
G1 X75.526 Y138.802 E15.78875
G1 X75.398 Y138.563 E15.81039
G1 X75.271 Y138.288 E15.83457
G1 X75.169 Y138.027 E15.85694
G1 X75.074 Y137.724 E15.88229
G1 X75.018 Y137.495 E15.90111
G1 X74.96 Y137.147 E15.92927
G1 X74.91 Y136.593 E15.97367
G1 X74.9 Y136.371 E15.99141
G1 X74.9 Y83.576 E20.20574
G1 X74.904 Y83.45 E20.2158
G1 X74.928 Y83.073 E20.24595
G1 X74.965 Y82.775 E20.26992
G1 X75.02 Y82.491 E20.29302
G1 X75.096 Y82.2 E20.31702
G1 X75.18 Y81.942 E20.33868
G1 X75.291 Y81.663 E20.36265
G1 X75.413 Y81.405 E20.38543
G1 X75.559 Y81.142 E20.40944
G1 X75.708 Y80.908 E20.43159
G1 X75.89 Y80.661 E20.45608
G1 X76.059 Y80.46 E20.47704
G1 X76.279 Y80.227 E20.50262
G0 F12000 X76.8 Y79.787
G1 F1800 X76.8 Y140.212 E25.32601
G0 F12000 X78.4 Y140.956
G1 F1800 X78.4 Y79.043 E30.26817
G0 F12000 X80 Y78.9
G1 F1800 X80 Y141.1 E35.23324
G0 F12000 X81.6 Y141.1
G1 F1800 X81.6 Y78.9 E40.19832
G0 F12000 X83.2 Y78.9
G1 F1800 X83.2 Y141.1 E45.16339
G0 F12000 X84.8 Y141.1
G1 F1800 X84.8 Y78.9 E50.12846
G0 F12000 X86.4 Y78.9
G1 F1800 X86.4 Y141.1 E55.09353
G0 F12000 X88 Y141.1
G1 F1800 X88 Y78.9 E60.05861
G0 F12000 X89.6 Y78.9
G1 F1800 X89.6 Y141.1 E65.02368
G0 F12000 X91.2 Y141.1
G1 F1800 X91.2 Y78.9 E69.98875
G0 F12000 X92.8 Y78.9
G1 F1800 X92.8 Y141.1 E74.95383
G0 F12000 X94.4 Y141.1
G1 F1800 X94.4 Y78.9 E79.9189
G0 F12000 X96 Y78.9
G1 F1800 X96 Y141.1 E84.88397
G0 F12000 X97.6 Y141.1
G1 F1800 X97.6 Y78.9 E89.84905
G0 F12000 X99.2 Y78.9
G1 F1800 X99.2 Y141.1 E94.81412
G0 F12000 X100.8 Y141.1
G1 F1800 X100.8 Y78.9 E99.77919
G0 F12000 X102.4 Y78.9
G1 F1800 X102.4 Y141.1 E104.74426
G0 F12000 X104 Y141.1
G1 F1800 X104 Y78.9 E109.70934
G0 F12000 X105.6 Y78.9
G1 F1800 X105.6 Y141.1 E114.67441
G0 F12000 X107.2 Y141.1
G1 F1800 X107.2 Y78.9 E119.63948
G0 F12000 X108.8 Y78.9
G1 F1800 X108.8 Y141.1 E124.60456
G0 F12000 X110.4 Y141.1
G1 F1800 X110.4 Y78.9 E129.56963
G0 F12000 X112 Y78.9
G1 F1800 X112 Y141.1 E134.5347
G0 F12000 X113.6 Y141.1
G1 F1800 X113.6 Y78.9 E139.49977
G0 F12000 X115.2 Y78.9
G1 F1800 X115.2 Y141.1 E144.46485
G0 F12000 X116.8 Y141.1
G1 F1800 X116.8 Y78.9 E149.42992
G0 F12000 X118.4 Y78.9
G1 F1800 X118.4 Y141.1 E154.39499
G0 F12000 X120 Y141.1
G1 F1800 X120 Y78.9 E159.36007
G0 F12000 X121.6 Y78.9
G1 F1800 X121.6 Y141.1 E164.32514
G0 F12000 X123.2 Y141.1
G1 F1800 X123.2 Y78.9 E169.29021
G0 F12000 X124.8 Y78.9
G1 F1800 X124.8 Y141.1 E174.25529
G0 F12000 X126.4 Y141.1
G1 F1800 X126.4 Y78.9 E179.22036
G0 F12000 X128 Y78.9
G1 F1800 X128 Y141.1 E184.18543
G0 F12000 X129.6 Y141.1
G1 F1800 X129.6 Y78.9 E189.1505
G0 F12000 X131.2 Y78.9
G1 F1800 X131.2 Y141.1 E194.11558
G0 F12000 X132.8 Y141.1
G1 F1800 X132.8 Y78.9 E199.08065
G0 F12000 X134.4 Y78.9
G1 F1800 X134.4 Y141.1 E204.04572
G0 F12000 X136 Y141.1
G1 F1800 X136 Y78.9 E209.0108
G0 F12000 X137.6 Y78.9
G1 F1800 X137.6 Y141.1 E213.97587
G0 F12000 X139.2 Y141.1
G1 F1800 X139.2 Y78.9 E218.94094
G0 F12000 X140.8 Y78.92
G1 F1800 X140.8 Y141.072 E223.90218
G0 F12000 X142.4 Y140.678
G1 F1800 X142.4 Y79.321 E228.79996
G0 F12000 X144 Y80.53
G1 F1800 X144 Y139.47 E233.50481
G1 F2700 E228.50481
G0 F12000 X144.48 Y140.52
G0 X143.654 Y141.197
G0 X142.702 Y141.71
G0 X141.717 Y142.024
G0 X140.403 Y142.164
G0 X78.971 Y142.132
G0 X77.904 Y141.927
G0 X76.907 Y141.528
G0 X76.005 Y140.949
G0 X75.234 Y140.215
G0 X74.724 Y139.503
G0 X74.29 Y138.702
G0 X75.2 Y138.106
G1 F2700 E233.50481
G1 F1800 X75.2 Y81.891 E237.99213
G1 F2700 E232.99213
G0 F300 X75.2 Y81.891 Z0.54
G0 F12000 X74.073 Y81.904
G0 X73.868 Y82.971
G0 X73.847 Y136.655
G0 X73.904 Y137.281
G0 X75.018 Y137.494
;TIME_ELAPSED:111.945637
;LAYER:-5
;TYPE:SUPPORT
G1 F2700 E237.99213
G1 F1800 X75.073 Y137.723 E238.01563
G1 X75.168 Y138.026 E238.04732
G1 X75.271 Y138.287 E238.07532
G1 X75.398 Y138.562 E238.10554
G1 X75.526 Y138.8 E238.1325
G1 X75.688 Y139.06 E238.16307
G1 X75.847 Y139.283 E238.1904
G1 X76.04 Y139.518 E238.22074
G1 X76.226 Y139.72 E238.24814
G1 X76.46 Y139.939 E238.28012
G1 X76.66 Y140.109 E238.30631
G1 X76.907 Y140.291 E238.33692
G1 X77.147 Y140.443 E238.36527
G1 X77.404 Y140.585 E238.39457
G1 X77.662 Y140.708 E238.42309
G1 X77.939 Y140.818 E238.45283
G1 X78.199 Y140.903 E238.48012
G1 X78.49 Y140.979 E238.51013
G1 X78.775 Y141.034 E238.53909
G1 X78.813 Y141.038 E238.54291
G1 X74.968 Y137.193 E239.08548
G1 X74.96 Y137.146 E239.09023
G1 X74.91 Y136.592 E239.14574
G1 X74.9 Y136.37 E239.16791
G1 X74.9 Y135.711 E239.23367
G1 X80.288 Y141.099 E239.99397
G1 X81.702 Y141.099 E240.13506
G1 X74.9 Y134.297 E241.0949
G1 X74.9 Y132.883 E241.23599
G1 X83.116 Y141.099 E242.39535
G1 X84.531 Y141.099 E242.53654
G1 X74.9 Y131.468 E243.89558
G1 X74.9 Y130.054 E244.03667
G1 X85.945 Y141.099 E245.59524
G1 X87.359 Y141.099 E245.73633
G1 X74.9 Y128.64 E247.49443
G1 X74.9 Y127.226 E247.63552
G1 X88.773 Y141.099 E249.59315
G1 X90.187 Y141.099 E249.73424
G1 X74.9 Y125.811 E251.89147
G1 X74.9 Y124.397 E252.03256
G1 X91.602 Y141.099 E254.38939
G1 X93.016 Y141.099 E254.53048
G1 X74.9 Y122.983 E257.08684
G1 X74.9 Y121.569 E257.22793
G1 X94.43 Y141.099 E259.98383
G1 X95.844 Y141.099 E260.12491
G1 X74.9 Y120.155 E263.08034
G1 X74.9 Y118.74 E263.22153
G1 X97.259 Y141.099 E266.37662
G1 X98.673 Y141.099 E266.51771
G1 X74.9 Y117.326 E269.87234
G1 X74.9 Y115.912 E270.01343
G1 X100.087 Y141.099 E273.56759
G1 X101.501 Y141.099 E273.70868
G1 X74.9 Y114.498 E277.46237
G1 X74.9 Y113.084 E277.60346
G1 X102.915 Y141.099 E281.55668
G1 X104.33 Y141.099 E281.69786
G1 X74.9 Y111.669 E285.85076
G1 X74.9 Y110.255 E285.99184
G1 X105.744 Y141.099 E290.34427
G1 X107.158 Y141.099 E290.48536
G1 X74.9 Y108.841 E295.03731
G1 X74.9 Y107.427 E295.1784
G1 X108.572 Y141.099 E299.92988
G1 X109.986 Y141.099 E300.07097
G1 X74.9 Y106.012 E305.02205
G1 X74.9 Y104.598 E305.16314
G1 X111.401 Y141.099 E310.31383
G1 X112.815 Y141.099 E310.45492
G1 X74.9 Y103.184 E315.80513
G1 X74.9 Y101.77 E315.94622
G1 X114.229 Y141.099 E321.49597
G1 X115.643 Y141.099 E321.63706
G1 X74.9 Y100.356 E327.38634
G1 X74.9 Y98.941 E327.52753
G1 X117.057 Y141.099 E333.47641
G1 X118.472 Y141.099 E333.6176
G1 X74.9 Y97.527 E339.76608
G1 X74.9 Y96.113 E339.90716
G1 X119.886 Y141.099 E346.25518
G1 X121.3 Y141.099 E346.39626
G1 X74.9 Y94.699 E352.94381
G1 X74.9 Y93.285 E353.0849
G1 X122.714 Y141.099 E359.83197
G1 X124.129 Y141.099 E359.97316
G1 X74.9 Y91.87 E366.9199
G1 X74.9 Y90.456 E367.06099
G1 X125.543 Y141.099 E374.20726
G1 X126.957 Y141.099 E374.34835
G1 X74.9 Y89.042 E381.69416
G1 X74.9 Y87.628 E381.83525
G1 X128.371 Y141.099 E389.38058
G1 X129.785 Y141.099 E389.52167
G1 X74.9 Y86.213 E397.26661
G1 X74.9 Y84.799 E397.4077
G1 X131.2 Y141.099 E405.35224
G1 X132.614 Y141.099 E405.49333
G1 X74.907 Y83.392 E413.63641
G1 X74.927 Y83.072 E413.6684
G1 X74.965 Y82.774 E413.69838
G1 X75.02 Y82.49 E413.72724
G1 X75.096 Y82.199 E413.75725
G1 X75.103 Y82.175 E413.75974
G1 X134.028 Y141.099 E422.07463
G1 X135.442 Y141.099 E422.21572
G1 X75.532 Y81.189 E430.66967
G1 X75.559 Y81.141 E430.67516
G1 X75.708 Y80.907 E430.70284
G1 X75.89 Y80.66 E430.73345
G1 X76.059 Y80.458 E430.75973
G1 X76.134 Y80.377 E430.77075
G1 X136.856 Y141.099 E439.33928
G1 X138.271 Y141.099 E439.48047
G1 X76.892 Y79.721 E448.14164
G1 X76.939 Y79.687 E448.14743
G1 X77.197 Y79.525 E448.17782
G1 X77.437 Y79.397 E448.20496
G1 X77.711 Y79.27 E448.2351
G1 X77.815 Y79.229 E448.24625
G1 X139.685 Y141.099 E456.97678
G1 X140.371 Y141.099 E457.04523
G1 X140.592 Y141.089 E457.0673
G1 X141.048 Y141.048 E457.11298
G1 X78.95 Y78.95 E465.87568
G1 X79.406 Y78.91 E465.92136
G1 X79.628 Y78.899 E465.94354
G1 X80.313 Y78.899 E466.01189
G1 X142.183 Y140.769 E474.74241
G1 X142.287 Y140.729 E474.75353
G1 X142.561 Y140.601 E474.7837
G1 X142.801 Y140.473 E474.81084
G1 X143.059 Y140.311 E474.84124
G1 X143.106 Y140.277 E474.84703
G1 X81.728 Y78.899 E483.50813
G1 X83.142 Y78.899 E483.64922
G1 X143.864 Y139.621 E492.21775
G1 X143.937 Y139.543 E492.22841
G1 X144.118 Y139.326 E492.2566
G1 X144.29 Y139.092 E492.28558
G1 X144.443 Y138.853 E492.3139
G1 X144.467 Y138.81 E492.31881
G1 X84.556 Y78.899 E500.7729
G1 X85.97 Y78.899 E500.91399
G1 X144.895 Y137.824 E509.22894
G1 X144.903 Y137.799 E509.23156
G1 X144.978 Y137.508 E509.26155
G1 X145.033 Y137.224 E509.29041
G1 X145.071 Y136.926 E509.32039
G1 X145.091 Y136.606 E509.35238
G1 X87.384 Y78.899 E517.49546
G1 X88.799 Y78.899 E517.63665
G1 X145.099 Y135.199 E525.58119
G1 X145.099 Y133.785 E525.72228
G1 X90.213 Y78.899 E533.46728
G1 X91.627 Y78.899 E533.60837
G1 X145.099 Y132.371 E541.15385
G1 X145.099 Y130.956 E541.29504
G1 X93.041 Y78.899 E548.64092
G1 X94.456 Y78.899 E548.78211
G1 X145.099 Y129.542 E555.92838
G1 X145.099 Y128.128 E556.06947
G1 X95.87 Y78.899 E563.01621
G1 X97.284 Y78.899 E563.1573
G1 X145.099 Y126.714 E569.90452
G1 X145.099 Y125.3 E570.0456
G1 X98.698 Y78.899 E576.59329
G1 X100.112 Y78.899 E576.73438
G1 X145.099 Y123.885 E583.08246
G1 X145.099 Y122.471 E583.22355
G1 X101.527 Y78.899 E589.37203
G1 X102.941 Y78.899 E589.51312
G1 X145.099 Y121.057 E595.46207
G1 X145.099 Y119.643 E595.60316
G1 X104.355 Y78.899 E601.35257
G1 X105.769 Y78.899 E601.49366
G1 X145.099 Y118.228 E607.04348
G1 X145.099 Y116.814 E607.18457
G1 X107.183 Y78.899 E612.53486
G1 X108.598 Y78.899 E612.67605
G1 X145.099 Y115.4 E617.82673
G1 X145.099 Y113.986 E617.96782
G1 X110.012 Y78.899 E622.91898
G1 X111.426 Y78.899 E623.06007
G1 X145.099 Y112.572 E627.81169
G1 X145.099 Y111.157 E627.95288
G1 X112.84 Y78.899 E632.5049
G1 X114.255 Y78.899 E632.64609
G1 X145.099 Y109.743 E636.99851
G1 X145.099 Y108.329 E637.1396
G1 X115.669 Y78.899 E641.29249
G1 X117.083 Y78.899 E641.43358
G1 X145.099 Y106.915 E645.38694
G1 X145.099 Y105.501 E645.52803
G1 X118.497 Y78.899 E649.28186
G1 X119.911 Y78.899 E649.42295
G1 X145.099 Y104.086 E652.97718
G1 X145.099 Y102.672 E653.11827
G1 X121.326 Y78.899 E656.4729
G1 X122.74 Y78.899 E656.61399
G1 X145.099 Y101.258 E659.76908
G1 X145.099 Y99.844 E659.91017
G1 X124.154 Y78.899 E662.86574
G1 X125.568 Y78.899 E663.00683
G1 X145.099 Y98.429 E665.76279
G1 X145.099 Y97.015 E665.90388
G1 X126.982 Y78.899 E668.46031
G1 X128.397 Y78.899 E668.6015
G1 X145.099 Y95.601 E670.95834
G1 X145.099 Y94.187 E671.09943
G1 X129.811 Y78.899 E673.25673
G1 X131.225 Y78.899 E673.39782
G1 X145.099 Y92.773 E675.35559
G1 X145.099 Y91.358 E675.49678
G1 X132.639 Y78.899 E677.25495
G1 X134.054 Y78.899 E677.39614
G1 X145.099 Y89.944 E678.95471
G1 X145.099 Y88.53 E679.0958
G1 X135.468 Y78.899 E680.45483
G1 X136.882 Y78.899 E680.59592
G1 X145.099 Y87.116 E681.75543
G1 X145.099 Y85.702 E681.89652
G1 X138.296 Y78.899 E682.8565
G1 X139.71 Y78.899 E682.99759
G1 X145.099 Y84.287 E683.75796
G1 X145.099 Y83.628 E683.82372
G1 X145.089 Y83.406 E683.84589
G1 X145.038 Y82.853 E683.9013
G1 X145.031 Y82.805 E683.90614
G1 X141.185 Y78.96 E684.44879
G1 X141.224 Y78.964 E684.4527
G1 X141.508 Y79.019 E684.48156
G1 X141.799 Y79.096 E684.5116
G1 X142.057 Y79.179 E684.53864
G1 X142.336 Y79.29 E684.5686
G1 X142.594 Y79.413 E684.59712
G1 X142.851 Y79.555 E684.62642
G1 X143.091 Y79.707 E684.65476
G1 X143.338 Y79.889 E684.68538
G1 X143.539 Y80.059 E684.71164
G1 X143.772 Y80.278 E684.74355
G1 X143.959 Y80.48 E684.77102
G1 X144.147 Y80.711 E684.80073
G1 X144.311 Y80.938 E684.82868
G1 X144.473 Y81.198 E684.85924
G1 X144.601 Y81.436 E684.88621
G1 X144.727 Y81.711 E684.91639
G1 X144.83 Y81.972 E684.94439
G1 X144.925 Y82.276 E684.97617
G1 X144.979 Y82.496 E684.99877
G1 F2700 E679.99877
G0 F300 X144.979 Y82.496 Z0.74
G0 F12000 X145.948 Y81.978
G0 X145.554 Y80.961
G0 X144.99 Y80.059
G0 X144.257 Y79.272
G0 X143.392 Y78.638
G0 X142.849 Y78.381
G0 X142.096 Y78.073
G0 X141.433 Y78.8
;TIME_ELAPSED:267.393786
;LAYER:-4
;TYPE:SUPPORT-INTERFACE
G1 F2700 E684.99877
G1 F2400 X78.6 Y78.8 E687.08861
G1 X78.829 Y78.761 E687.09633
G1 X79.398 Y78.71 E687.11533
G1 X79.62 Y78.7 E687.12272
G1 X140.431 Y78.699 E689.14531
G1 X140.55 Y78.703 E689.14927
G1 X140.954 Y78.728 E689.16273
G1 X141.257 Y78.766 E689.17289
G1 F2700 E684.17289
G0 F12000 X141.42 Y77.918
G0 X142.432 Y78.183
G0 X143.392 Y78.638
G0 X144.257 Y79.272
G0 X144.99 Y80.059
G0 X145.554 Y80.961
G0 X145.948 Y81.978
G0 X146.153 Y83.345
G0 X146.132 Y137.029
G0 X145.927 Y138.096
G0 X145.528 Y139.093
G0 X144.949 Y139.994
G0 X144.215 Y140.766
G0 X143.334 Y141.396
G0 X143.063 Y141.52
G0 X142.043 Y141.941
G0 X141.785 Y141.117
G1 F2700 E689.17289
G1 F2400 X142.096 Y141.019 E689.18373
G1 X142.363 Y140.916 E689.19325
G1 X142.612 Y140.8 E689.20239
G1 X77.388 Y140.8 E691.37175
G1 X77.296 Y140.756 E691.37514
G1 X77.048 Y140.618 E691.38458
G1 X76.795 Y140.457 E691.39455
G1 X76.717 Y140.4 E691.39776
G1 X143.28 Y140.4 E693.61166
G1 X143.409 Y140.308 E693.61693
G1 X143.651 Y140.11 E693.62733
G1 X143.769 Y140 E693.63269
G1 X76.229 Y140 E695.87908
