;FLAVOR:Marlin
;TIME:1102
;Filament used: 0.393899m
;Layer height: 0.2
;MINX:100.376
;MINY:100.401
;MINZ:0.24
;MAXX:119.908
;MAXY:120.216
;MAXZ:48.09
;Generated with Cura_SteamEngine 4.12.1
M140 S55
M105
M190 S55
M104 S205
M105
M109 S205
M82 ;absolute extrusion mode
M201 X500.00 Y500.00 Z100.00 E5000.00 ;Setup machine max acceleration
M203 X500.00 Y500.00 Z10.00 E50.00 ;Setup machine max feedrate
M204 P500.00 R1000.00 T500.00 ;Setup Print/Retract/Travel acceleration
M205 X8.00 Y8.00 Z0.40 E5.00 ;Setup Jerk
M220 S100 ;Reset Feedrate
M221 S100 ;Reset Flowrate

G28 ;Home

G92 E0 ;Reset Extruder
G1 Z2.0 F3000 ;Move Z Axis up
G1 X10.1 Y20 Z0.28 F5000.0 ;Move to start position
G1 X10.1 Y200.0 Z0.28 F1500.0 E15 ;Draw the first line
G1 X10.4 Y200.0 Z0.28 F5000.0 ;Move to side a little
G1 X10.4 Y20 Z0.28 F1500.0 E30 ;Draw the second line
G92 E0 ;Reset Extruder
G1 Z2.0 F3000 ;Move Z Axis up

G92 E0
G92 E0
G1 F2700 E-5
;LAYER_COUNT:235
;LAYER:-6
M106 S255
G0 F12000 X103.759 Y104.044 Z0.24
;TYPE:SUPPORT-INTERFACE
G1 F2700 E0
G1 F1403.3 X104.088 Y103.74 E0.03576
G1 X104.669 Y103.265 E0.09566
G1 X104.794 Y103.169 E0.10824
G1 X105.115 Y102.94 E0.13972
G1 X105.48 Y102.714 E0.17399
G1 X106.129 Y102.367 E0.23273
G1 X106.285 Y102.29 E0.24662
G1 X106.633 Y102.132 E0.27713
G1 X107.033 Y101.984 E0.31117
G1 X107.745 Y101.767 E0.37059
G1 X107.902 Y101.724 E0.38358
G1 X108.297 Y101.631 E0.41598
G1 X108.692 Y101.566 E0.44793
G1 X109.474 Y101.488 E0.51066
G1 X109.594 Y101.481 E0.52026
G1 X110.036 Y101.465 E0.55556
G1 X110.401 Y101.478 E0.58472
G1 X110.504 Y101.486 E0.59296
G1 X111.21 Y101.556 E0.6496
G1 X111.315 Y101.569 E0.65804
G1 X111.763 Y101.643 E0.69429
G1 X112.151 Y101.736 E0.72614
G1 X112.872 Y101.954 E0.78626
G1 X113.025 Y102.006 E0.79916
G1 X113.406 Y102.148 E0.83162
G1 X113.792 Y102.326 E0.86555
G1 X114.461 Y102.684 E0.92612
G1 X114.593 Y102.761 E0.93832
G1 X114.967 Y102.994 E0.97349
G1 X115.244 Y103.193 E1.00072
G1 X115.866 Y103.701 E1.06482
G1 X115.956 Y103.78 E1.07438
G1 X116.272 Y104.075 E1.10889
G1 X116.541 Y104.363 E1.14035
G1 X117.044 Y104.973 E1.20346
G1 X117.117 Y105.068 E1.21302
G1 X117.372 Y105.423 E1.24791
G1 X117.575 Y105.752 E1.27877
G1 X117.937 Y106.429 E1.34005
G1 X118.018 Y106.593 E1.35466
G1 X118.175 Y106.94 E1.38506
G1 X118.318 Y107.319 E1.41739
G1 X118.542 Y108.053 E1.47865
G1 X118.583 Y108.204 E1.49114
G1 X118.676 Y108.597 E1.52338
G1 X118.742 Y108.996 E1.55566
G1 X118.82 Y109.775 E1.61816
G1 X118.828 Y109.903 E1.62839
G1 X118.844 Y110.35 E1.6641
G1 X118.832 Y110.695 E1.69165
G1 X118.824 Y110.804 E1.70038
G1 X118.753 Y111.515 E1.75742
G1 X118.736 Y111.645 E1.76788
G1 X118.667 Y112.07 E1.80225
G1 X118.572 Y112.465 E1.83468
G1 X118.355 Y113.183 E1.89455
G1 X118.311 Y113.313 E1.90551
G1 X118.159 Y113.718 E1.94004
G1 X118.009 Y114.049 E1.96905
G1 X117.946 Y114.174 E1.98022
G1 X117.627 Y114.767 E2.03397
G1 X117.549 Y114.904 E2.04656
G1 X117.338 Y115.244 E2.0785
G1 X117.054 Y115.634 E2.11701
G1 X116.601 Y116.185 E2.17395
G1 X116.53 Y116.266 E2.18255
G1 X116.226 Y116.59 E2.21801
G1 X115.922 Y116.872 E2.25111
G1 X115.329 Y117.359 E2.31237
G1 X115.257 Y117.415 E2.31965
G1 X114.894 Y117.675 E2.35529
G1 X114.557 Y117.884 E2.38694
G1 X113.879 Y118.247 E2.44833
G1 X113.733 Y118.32 E2.46136
G1 X113.358 Y118.491 E2.49426
G1 X112.995 Y118.626 E2.52518
G1 X112.922 Y118.65 E2.53131
G1 X112.256 Y118.852 E2.58687
G1 X112.098 Y118.895 E2.59994
G1 X111.703 Y118.988 E2.63233
G1 X111.321 Y119.049 E2.66321
G1 X111.196 Y119.064 E2.67326
G1 X110.548 Y119.128 E2.72524
G1 X110.383 Y119.138 E2.73843
G1 X109.977 Y119.152 E2.77086
G1 X109.596 Y119.139 E2.80129
G1 X109.49 Y119.131 E2.80977
G1 X108.832 Y119.066 E2.86256
G1 X108.656 Y119.044 E2.87671
G1 X108.247 Y118.978 E2.90978
G1 X107.879 Y118.89 E2.93999
G1 X107.751 Y118.854 E2.9506
G1 X107.126 Y118.664 E3.00275
G1 X106.975 Y118.613 E3.01547
G1 X106.581 Y118.466 E3.04904
G1 X106.228 Y118.303 E3.08007
G1 X105.526 Y117.929 E3.14357
G1 X105.435 Y117.877 E3.15193
G1 X105.064 Y117.647 E3.18678
G1 X104.712 Y117.392 E3.22147
G1 X104.144 Y116.926 E3.28012
G1 X104.031 Y116.827 E3.29211
G1 X103.722 Y116.539 E3.32583
G1 X103.435 Y116.228 E3.35961
G1 X102.944 Y115.628 E3.4215
G1 X102.865 Y115.524 E3.43192
G1 X102.626 Y115.191 E3.46464
G1 X102.415 Y114.848 E3.49679
G1 X102.067 Y114.197 E3.55571
G1 X101.979 Y114.019 E3.57156
G1 X101.817 Y113.663 E3.60279
G1 X101.669 Y113.26 E3.63706
G1 X101.656 Y113.222 E3.64026
G1 X101.454 Y112.547 E3.6965
G1 X101.408 Y112.374 E3.71079
G1 X101.321 Y112.002 E3.74129
G1 X101.259 Y111.627 E3.77163
G1 X101.179 Y110.83 E3.83557
G1 X101.171 Y110.711 E3.84509
G1 X101.156 Y110.262 E3.88095
G1 X101.168 Y109.923 E3.90803
G1 X101.176 Y109.814 E3.91675
G1 X101.247 Y109.099 E3.97411
G1 X101.26 Y108.996 E3.98239
G1 X101.335 Y108.54 E4.01928
G1 X101.435 Y108.13 E4.05297
G1 X101.65 Y107.423 E4.11196
G1 X101.693 Y107.295 E4.12274
G1 X101.84 Y106.9 E4.15638
G1 X101.989 Y106.571 E4.18521
G1 X102.375 Y105.843 E4.25099
G1 X102.437 Y105.735 E4.26093
G1 X102.651 Y105.389 E4.2934
G1 X102.911 Y105.028 E4.32891
G1 X103.403 Y104.429 E4.39079
G1 X103.467 Y104.356 E4.39854
G1 X103.759 Y104.044 E4.43265
G0 F12000 X104 Y103.821
G1 F1403.3 X104 Y116.798 E5.46853
G0 F12000 X105.6 Y117.968
G1 F1403.3 X105.6 Y102.649 E6.69136
G0 F12000 X107.2 Y101.933
G1 F1403.3 X107.2 Y118.686 E8.02866
G0 F12000 X108.8 Y119.062
G1 F1403.3 X108.8 Y101.555 E9.42614
G0 F12000 X110.4 Y101.478
G1 F1403.3 X110.4 Y119.137 E10.83576
G0 F12000 X112 Y118.919
G1 F1403.3 X112 Y101.7 E12.21025
G0 F12000 X113.6 Y102.238
G1 F1403.3 X113.6 Y118.381 E13.49886
G0 F12000 X115.2 Y117.456
G1 F1403.3 X115.2 Y103.162 E14.63987
G0 F12000 X116.8 Y104.678
M104 S200
G1 F1403.3 X116.8 Y115.943 E15.53909
G0 F12000 X118.4 Y113.035
G1 F1403.3 X118.4 Y107.588 E15.97389
G1 F2700 E10.97389
G0 F12000 X119.357 Y107.074
G0 X118.887 Y105.948
G0 X118.246 Y104.815
G0 X117.021 Y103.319
G0 X115.543 Y102.098
G0 X113.805 Y101.16
G0 X111.958 Y100.596
G0 X110.02 Y100.401
G0 X108.079 Y100.589
G0 X106.225 Y101.149
G0 X104.523 Y102.054
G0 X103.006 Y103.292
G0 X102.001 Y104.513
G0 X101.526 Y105.184
G0 X102.4 Y105.799
G1 F2700 E15.97389
G1 F1403.3 X102.4 Y114.819 E16.69391
G0 F300 X102.4 Y114.819 Z0.54
G0 F12000 X103.144 Y115.872
;TIME_ELAPSED:15.852979
;LAYER:-5
M140 S50
;TYPE:SUPPORT
G1 F1661.7 X104.443 Y117.171 E16.87721
G1 X104.144 Y116.925 E16.91584
G1 X104.03 Y116.826 E16.93091
G1 X103.722 Y116.538 E16.97298
G1 X103.567 Y116.378 E16.99521
G1 X103.408 Y116.195 E17.0194
G0 F12000 X104.443 Y117.171
G1 F1661.7 X104.711 Y117.391 E17.054
G1 X104.884 Y117.523 E17.07571
G1 X105.064 Y117.646 E17.09746
G1 X105.435 Y117.876 E17.14102
G1 X105.525 Y117.928 E17.15139
G1 X106.179 Y118.277 E17.22536
G1 X106.391 Y118.383 E17.24901
G1 X106.581 Y118.465 E17.26966
G1 X106.974 Y118.612 E17.31152
G1 X107.125 Y118.663 E17.32743
G1 X107.446 Y118.76 E17.36089
G1 X101.548 Y112.862 E18.19316
G1 X101.454 Y112.545 E18.22615
G1 X101.407 Y112.373 E18.24394
G1 X101.321 Y112.001 E18.28204
G1 X101.276 Y111.756 E18.30689
G1 X101.247 Y111.53 E18.32963
G1 X101.206 Y111.105 E18.37223
G1 X109.202 Y119.101 E19.50055
G1 X109.489 Y119.13 E19.52934
G1 X109.739 Y119.148 E19.55435
G1 X109.977 Y119.151 E19.5781
G1 X110.382 Y119.136 E19.61854
G1 X110.548 Y119.126 E19.63513
G1 X110.633 Y119.118 E19.64365
G1 X101.189 Y109.675 E20.97623
G1 X101.247 Y109.098 E21.03409
G1 X101.259 Y108.995 E21.04444
G1 X101.335 Y108.539 E21.09057
G1 X101.358 Y108.429 E21.10178
G1 X111.875 Y118.946 E22.58584
G1 X112.097 Y118.894 E22.60859
G1 X112.256 Y118.851 E22.62503
G1 X112.922 Y118.649 E22.69447
G1 X112.974 Y118.631 E22.69996
G1 X101.678 Y107.335 E24.29395
G1 X101.692 Y107.294 E24.29827
G1 X101.84 Y106.898 E24.34045
G1 X101.937 Y106.676 E24.36463
G1 X102.032 Y106.484 E24.386
G1 X102.104 Y106.347 E24.40144
G1 X113.959 Y118.202 E26.07431
G1 X114.494 Y117.917 E26.1348
G1 X114.699 Y117.801 E26.1583
G1 X114.864 Y117.692 E26.17803
G1 X102.616 Y105.444 E27.90636
G1 X102.65 Y105.388 E27.91289
G1 X102.788 Y105.187 E27.93722
G1 X102.911 Y105.027 E27.95736
G1 X103.227 Y104.641 E28.00713
G1 X115.666 Y117.08 E29.76241
G1 X115.92 Y116.872 E29.79517
G1 X116.082 Y116.729 E29.81673
G1 X116.225 Y116.589 E29.8367
G1 X116.401 Y116.401 E29.86239
G1 X103.903 Y103.903 E31.626
G1 X103.924 Y103.883 E31.62889
G1 X104.113 Y103.719 E31.65386
G1 X104.668 Y103.265 E31.72541
G1 X104.675 Y103.26 E31.72626
G1 X117.051 Y115.637 E33.47272
G0 F12000 X117.053 Y115.633
G1 F1661.7 X117.2 Y115.442 E33.49677
G1 X117.337 Y115.244 E33.5208
G1 X117.548 Y114.904 E33.56072
G1 X117.615 Y114.787 E33.57418
G1 X105.52 Y102.692 E35.28091
G1 X106.128 Y102.366 E35.34975
G1 X106.283 Y102.29 E35.36697
G1 X106.455 Y102.212 E35.38582
G1 X118.098 Y113.856 E37.02884
G1 X118.158 Y113.717 E37.04395
G1 X118.31 Y113.312 E37.08711
G1 X118.354 Y113.183 E37.10071
G1 X118.467 Y112.811 E37.1395
G1 X107.498 Y101.841 E38.68742
G1 X107.744 Y101.766 E38.71308
G1 X107.9 Y101.723 E38.72923
G1 X108.296 Y101.631 E38.76979
G1 X108.519 Y101.59 E38.79242
G1 X108.644 Y101.573 E38.805
G1 X118.733 Y111.662 E40.22867
G1 X118.735 Y111.644 E40.23048
G1 X118.752 Y111.514 E40.24356
G1 X118.822 Y110.804 E40.31475
G1 X118.839 Y110.554 E40.33975
G1 X118.843 Y110.358 E40.35931
G1 X109.953 Y101.468 E41.61379
G1 X110.035 Y101.464 E41.62198
G1 X110.244 Y101.467 E41.64283
G1 X110.503 Y101.486 E41.66875
G1 X111.209 Y101.556 E41.73954
G1 X111.314 Y101.568 E41.75008
G1 X111.499 Y101.599 E41.7688
G1 X118.716 Y108.816 E42.78719
G1 X118.675 Y108.597 E42.80943
G1 X118.582 Y108.203 E42.84982
G1 X118.54 Y108.052 E42.86546
G1 X118.339 Y107.387 E42.93478
G1 X118.266 Y107.17 E42.95762
G1 X118.174 Y106.94 E42.98234
G1 X118.108 Y106.795 E42.99824
G1 X113.504 Y102.191 E43.64791
G1 X113.613 Y102.237 E43.65972
G1 X113.829 Y102.344 E43.68377
G1 X114.46 Y102.683 E43.75524
G1 X114.592 Y102.761 E43.77054
G1 X114.966 Y102.993 E43.81445
G1 X115.131 Y103.107 E43.83446
G1 X115.333 Y103.264 E43.85999
G1 X115.865 Y103.701 E43.92869
G1 X115.954 Y103.779 E43.9405
G1 X116.27 Y104.074 E43.98363
G1 X116.426 Y104.233 E44.00586
G1 X116.577 Y104.406 E44.02877
G1 X117.043 Y104.972 E44.10192
G1 X117.115 Y105.068 E44.1139
G1 X117.371 Y105.422 E44.15749
G1 X117.487 Y105.602 E44.17886
G1 X117.598 Y105.797 E44.20124
G1 X117.936 Y106.428 E44.27267
G1 X118.016 Y106.592 E44.29088
G0 F300 X118.016 Y106.592 Z0.74
G0 F12000 X118.917 Y108.8
;TIME_ELAPSED:27.180308
;LAYER:-4
M107
;TYPE:SUPPORT-INTERFACE
G1 F2400 X101.089 Y108.8 E44.88384
G1 X101.135 Y108.517 E44.89337
G1 X101.161 Y108.4 E44.89736
G1 X118.835 Y108.4 E45.4852
G1 X118.777 Y108.158 E45.49348
G1 X118.735 Y108 E45.49891
G1 X101.265 Y108 E46.07997
G1 X101.388 Y107.6 E46.09389
G1 X118.614 Y107.6 E46.66683
G1 X118.532 Y107.33 E46.67621
G1 X118.488 Y107.2 E46.68078
G1 X101.515 Y107.2 E47.2453
G1 X101.648 Y106.84 E47.25807
G1 X101.666 Y106.8 E47.25952
G1 X118.332 Y106.8 E47.81384
G1 X118.195 Y106.498 E47.82487
G1 X118.147 Y106.4 E47.8285
G1 X101.853 Y106.4 E48.37044
G1 X101.857 Y106.391 E48.37077
G1 X102.066 Y106 E48.38551
G1 X117.935 Y106 E48.91332
G1 X117.778 Y105.706 E48.9244
G1 X117.718 Y105.6 E48.92845
G1 X102.286 Y105.6 E49.44172
G1 X102.486 Y105.276 E49.45439
G1 X102.539 Y105.2 E49.45747
G1 X117.458 Y105.2 E49.95368
G1 X117.283 Y104.957 E49.96364
G1 X117.194 Y104.841 E49.9685
G1 X117.161 Y104.8 E49.97025
G1 X102.84 Y104.8 E50.44657
G1 X103.169 Y104.4 E50.4638
G1 X116.832 Y104.4 E50.91823
G1 X116.732 Y104.279 E50.92345
G1 X116.57 Y104.093 E50.93165
G1 X116.479 Y104 E50.93598
G1 X103.527 Y104 E51.36677
G1 X103.626 Y103.894 E51.37159
G1 X103.787 Y103.737 E51.37907
G1 X103.944 Y103.6 E51.386
G1 X116.054 Y103.6 E51.78878
G1 X115.993 Y103.547 E51.79147
G1 X115.57 Y103.2 E51.80967
G1 X104.433 Y103.2 E52.18008
G1 X104.547 Y103.107 E52.18498
G1 X104.672 Y103.011 E52.19022
G1 X104.967 Y102.8 E52.20228
G1 X115.035 Y102.8 E52.53715
G1 X114.699 Y102.591 E52.55031
G1 X114.567 Y102.514 E52.55539
G1 X114.355 Y102.4 E52.56339
G1 X105.642 Y102.4 E52.85319
G1 X106.029 Y102.193 E52.86779
G1 X106.191 Y102.113 E52.8738
G1 X106.441 Y102 E52.88292
G1 X113.569 Y102 E53.12
G1 X113.481 Y101.962 E53.12319
G1 X113.084 Y101.814 E53.13728
G1 X112.943 Y101.766 E53.14223
G1 X112.393 Y101.6 E53.16134
G1 X107.605 Y101.6 E53.32059
G1 X107.68 Y101.577 E53.3232
G1 X107.849 Y101.532 E53.32902
G1 X108.258 Y101.436 E53.34299
G1 X108.495 Y101.392 E53.35101
G1 X108.731 Y101.361 E53.35893
G1 X109.453 Y101.29 E53.38305
G1 X109.593 Y101.281 E53.38772
G1 X110.031 Y101.265 E53.4023
G1 X110.243 Y101.268 E53.40935
G1 X110.515 Y101.286 E53.41842
G1 X111.24 Y101.358 E53.44265
G1 X111.349 Y101.371 E53.4463
G1 X111.799 Y101.445 E53.46147
G1 X112.005 Y101.49 E53.46848
G1 X112.207 Y101.544 E53.47544
G1 F2700 E48.47544
G0 F12000 X112.498 Y100.728
G0 X114.059 Y101.271
G0 X115.543 Y102.098
G0 X117.021 Y103.319
G0 X118.246 Y104.815
G0 X119.158 Y106.533
G0 X119.72 Y108.388
G0 X118.917 Y108.803
G1 F2700 E53.47544
G1 F2400 X118.948 Y109.036 E53.48325
G1 X118.965 Y109.2 E53.48874
G1 X101.036 Y109.2 E54.08506
G1 X100.997 Y109.6 E54.09843
G1 X119.004 Y109.6 E54.69734
G1 X119.019 Y109.761 E54.70272
G1 X119.028 Y109.895 E54.70719
G1 X119.032 Y110 E54.71068
G1 X100.964 Y110 E55.31163
G1 X100.959 Y110.066 E55.31383
G1 X100.956 Y110.278 E55.32088
G1 X100.96 Y110.4 E55.32494
G1 X119.043 Y110.4 E55.92638
G1 X119.041 Y110.551 E55.9314
G1 X119.024 Y110.8 E55.93971
G1 X100.977 Y110.8 E56.53995
G1 X100.981 Y110.855 E56.54178
G1 X101.015 Y111.2 E56.55332
G1 X118.985 Y111.2 E57.151
G1 X118.952 Y111.54 E57.16236
G1 X118.944 Y111.6 E57.16437
G1 X101.055 Y111.6 E57.75937
G1 X101.08 Y111.793 E57.76584
G1 X101.117 Y112 E57.77283
G1 X118.88 Y112 E58.36363
G1 X118.865 Y112.097 E58.3669
G1 X118.819 Y112.317 E58.37437
G1 X118.796 Y112.4 E58.37724
G1 X101.208 Y112.4 E58.96222
G1 X101.216 Y112.432 E58.96331
G1 X101.258 Y112.592 E58.96881
G1 X101.32 Y112.8 E58.97603
G1 X118.68 Y112.8 E59.55343
G1 X118.559 Y113.2 E59.56733
G1 X101.441 Y113.2 E60.13668
G1 X101.468 Y113.288 E60.13974
G1 X101.546 Y113.52 E60.14788
G1 X101.577 Y113.6 E60.15073
G1 X118.417 Y113.6 E60.71083
G1 X118.349 Y113.783 E60.71733
G1 X118.255 Y114 E60.72519
G1 X101.75 Y114 E61.27415
G1 X101.799 Y114.107 E61.27806
G1 X101.887 Y114.285 E61.28467
G1 X101.948 Y114.4 E61.289
G1 X118.051 Y114.4 E61.82459
G1 X117.836 Y114.8 E61.83969
G1 X102.161 Y114.8 E62.36104
G1 X102.198 Y114.869 E62.36365
G1 X102.328 Y115.098 E62.37241
G1 X102.393 Y115.2 E62.37643
G1 X117.6 Y115.2 E62.88221
G1 X117.503 Y115.358 E62.88838
G1 X117.37 Y115.552 E62.8962
G1 X117.332 Y115.6 E62.89824
G1 X102.674 Y115.6 E63.38577
G1 X102.71 Y115.65 E63.38782
G1 X102.789 Y115.754 E63.39216
G1 X102.99 Y116 E63.40273
G1 X117.012 Y116 E63.8691
G1 X116.76 Y116.307 E63.88231
G1 X116.677 Y116.4 E63.88646
G1 X103.32 Y116.4 E64.33071
G1 X103.431 Y116.526 E64.3363
G1 X103.585 Y116.686 E64.34368
G1 X103.707 Y116.8 E64.34924
G1 X116.297 Y116.8 E64.76798
G1 X116.208 Y116.887 E64.77212
G1 X116.048 Y117.027 E64.77919
G1 X115.837 Y117.2 E64.78827
G1 X104.163 Y117.2 E65.17655
G1 X104.586 Y117.547 E65.19474
G1 X104.654 Y117.6 E65.19761
G1 X115.341 Y117.6 E65.55306
G1 X115.011 Y117.837 E65.56658
G1 X114.8 Y117.974 E65.57494
G1 X114.754 Y118 E65.5767
G1 X105.253 Y118 E65.89271
G1 X105.326 Y118.045 E65.89556
G1 X105.436 Y118.108 E65.89977
G1 X105.981 Y118.4 E65.92034
G1 X114.018 Y118.4 E66.18765
G1 X113.979 Y118.421 E66.18912
G1 X113.816 Y118.502 E66.19518
G1 X113.45 Y118.669 E66.20856
G1 X113.212 Y118.764 E66.21708
G1 X113.104 Y118.8 E66.22087
G1 X106.903 Y118.8 E66.42711
G1 X106.917 Y118.805 E66.42761
G1 X107.056 Y118.853 E66.4325
G1 X107.696 Y119.047 E66.45474
G1 X107.986 Y119.127 E66.46475
G1 X108.219 Y119.176 E66.47267
G1 X108.367 Y119.2 E66.47765
G1 X111.649 Y119.2 E66.58681
G1 X111.51 Y119.226 E66.59152
G1 X111.218 Y119.262 E66.6013
G1 X110.568 Y119.326 E66.62303
G1 X110.383 Y119.338 E66.62919
G1 X109.98 Y119.352 E66.6426
G1 X109.739 Y119.349 E66.65062
G1 X109.474 Y119.33 E66.65946
G1 X108.8 Y119.264 E66.68198
G1 X108.627 Y119.242 E66.68778
G1 F2700 E61.68778
G0 F300 X108.627 Y119.242 Z0.94
G0 F12000 X108.709 Y120.123
G0 X109.993 Y120.216
G0 X111.922 Y120.03
