;FLAVOR:Marlin
;TIME:2601
;Filament used: 2.23882m
;Layer height: 0.2
;MINX:91.335
;MINY:82.132
;MINZ:0.24
;MAXX:128.664
;MAXY:157.597
;MAXZ:11.09
;Generated with Cura_SteamEngine 4.12.0
M140 S50
M105
M190 S50
M104 S200
M105
M109 S200
M82 ;absolute extrusion mode
M201 X500.00 Y500.00 Z100.00 E5000.00 ;Setup machine max acceleration
M203 X500.00 Y500.00 Z10.00 E50.00 ;Setup machine max feedrate
M204 P500.00 R1000.00 T500.00 ;Setup Print/Retract/Travel acceleration
M205 X8.00 Y8.00 Z0.40 E5.00 ;Setup Jerk
M220 S100 ;Reset Feedrate
M221 S100 ;Reset Flowrate

G28 ;Home

G92 E0 ;Reset Extruder
G1 Z2.0 F3000 ;Move Z Axis up
G1 X10.1 Y20 Z0.28 F5000.0 ;Move to start position
G1 X10.1 Y200.0 Z0.28 F1500.0 E15 ;Draw the first line
G1 X10.4 Y200.0 Z0.28 F5000.0 ;Move to side a little
G1 X10.4 Y20 Z0.28 F1500.0 E30 ;Draw the second line
G92 E0 ;Reset Extruder
G1 Z2.0 F3000 ;Move Z Axis up

G92 E0
G92 E0
G1 F2700 E-5
;LAYER_COUNT:50
;LAYER:-6
M107
G0 F12000 X93.559 Y83.893 Z0.24
;TYPE:SUPPORT-INTERFACE
G1 F2700 E0
G1 F1800 X93.779 Y83.66 E0.02558
G1 X93.981 Y83.473 E0.04755
G1 X94.211 Y83.285 E0.07127
G1 X94.439 Y83.121 E0.09368
G1 X94.698 Y82.959 E0.11807
G1 X94.937 Y82.831 E0.13971
G1 X95.212 Y82.704 E0.16389
G1 X95.473 Y82.602 E0.18626
G1 X95.776 Y82.507 E0.21161
G1 X95.997 Y82.453 E0.22977
G1 X96.353 Y82.393 E0.25859
G1 X96.907 Y82.343 E0.30299
G1 X97.129 Y82.333 E0.32073
G1 X122.924 Y82.333 E2.3798
G1 X123.05 Y82.337 E2.38986
G1 X123.427 Y82.361 E2.42001
G1 X123.725 Y82.398 E2.44398
G1 X124.009 Y82.453 E2.46708
G1 X124.3 Y82.529 E2.49108
G1 X124.558 Y82.613 E2.51274
G1 X124.837 Y82.724 E2.53671
G1 X125.095 Y82.846 E2.55949
G1 X125.353 Y82.989 E2.58304
G1 X125.592 Y83.141 E2.60565
G1 X125.839 Y83.323 E2.63014
G1 X126.04 Y83.492 E2.6511
G1 X126.273 Y83.712 E2.67668
G1 X126.46 Y83.914 E2.69865
G1 X126.648 Y84.144 E2.72237
G1 X126.812 Y84.372 E2.74479
G1 X126.974 Y84.631 E2.76917
G1 X127.102 Y84.87 E2.79081
G1 X127.229 Y85.145 E2.81499
G1 X127.331 Y85.406 E2.83736
G1 X127.426 Y85.709 E2.86271
G1 X127.48 Y85.93 E2.88087
G1 X127.54 Y86.286 E2.90969
G1 X127.59 Y86.84 E2.95409
G1 X127.6 Y87.062 E2.97183
G1 X127.6 Y151.857 E8.14405
G1 X127.596 Y151.983 E8.15411
G1 X127.572 Y152.36 E8.18426
G1 X127.535 Y152.658 E8.20823
G1 X127.48 Y152.942 E8.23133
G1 X127.404 Y153.233 E8.25533
G1 X127.32 Y153.491 E8.27699
G1 X127.209 Y153.77 E8.30096
G1 X127.087 Y154.028 E8.32374
G1 X126.944 Y154.286 E8.34729
G1 X126.792 Y154.525 E8.3699
G1 X126.619 Y154.76 E8.39319
G1 X126.438 Y154.977 E8.41575
G1 X126.224 Y155.203 E8.44059
G1 X126.019 Y155.393 E8.4629
G1 X125.789 Y155.581 E8.48662
G1 X125.561 Y155.745 E8.50904
G1 X125.302 Y155.907 E8.53342
G1 X125.063 Y156.035 E8.55506
G1 X124.788 Y156.162 E8.57924
G1 X124.527 Y156.264 E8.60161
G1 X124.224 Y156.359 E8.62696
G1 X124.003 Y156.413 E8.64512
G1 X123.647 Y156.473 E8.67394
G1 X123.093 Y156.523 E8.71834
G1 X122.871 Y156.533 E8.73608
G1 X97.076 Y156.533 E10.79515
G1 X96.95 Y156.529 E10.80521
G1 X96.573 Y156.505 E10.83537
G1 X96.275 Y156.468 E10.85934
G1 X95.991 Y156.413 E10.88243
G1 X95.7 Y156.337 E10.90644
G1 X95.44 Y156.252 E10.92827
G1 X95.163 Y156.142 E10.95206
G1 X94.904 Y156.019 E10.97495
G1 X94.647 Y155.877 E10.99839
G1 X94.408 Y155.725 E11.021
G1 X94.161 Y155.543 E11.04549
G1 X93.96 Y155.374 E11.06645
G1 X93.727 Y155.154 E11.09203
G1 X93.54 Y154.952 E11.114
G1 X93.348 Y154.717 E11.13823
G1 X93.188 Y154.494 E11.16014
G1 X93.026 Y154.235 E11.18452
G1 X92.898 Y153.996 E11.20616
G1 X92.771 Y153.721 E11.23034
G1 X92.669 Y153.46 E11.25271
G1 X92.574 Y153.157 E11.27806
G1 X92.518 Y152.928 E11.29688
G1 X92.46 Y152.58 E11.32504
G1 X92.41 Y152.026 E11.36944
G1 X92.4 Y151.804 E11.38718
G1 X92.4 Y87.009 E16.5594
G1 X92.404 Y86.883 E16.56946
G1 X92.428 Y86.506 E16.59961
G1 X92.465 Y86.208 E16.62359
G1 X92.52 Y85.924 E16.64668
G1 X92.596 Y85.633 E16.67068
G1 X92.68 Y85.375 E16.69234
G1 X92.791 Y85.096 E16.71631
G1 X92.913 Y84.838 E16.73909
G1 X93.059 Y84.575 E16.76311
G1 X93.208 Y84.341 E16.78525
G1 X93.39 Y84.094 E16.80974
G1 X93.559 Y83.893 E16.8307
G0 F12000 X94.4 Y83.149
G1 F1800 X94.4 Y155.719 E22.62355
G0 F12000 X96 Y156.414
G1 F1800 X96 Y82.452 E28.52752
G0 F12000 X97.6 Y82.333
G1 F1800 X97.6 Y156.533 E34.45049
G0 F12000 X99.2 Y156.533
G1 F1800 X99.2 Y82.333 E40.37345
G0 F12000 X100.8 Y82.333
G1 F1800 X100.8 Y156.533 E46.29641
G0 F12000 X102.4 Y156.533
G1 F1800 X102.4 Y82.333 E52.21938
G0 F12000 X104 Y82.333
G1 F1800 X104 Y156.533 E58.14234
G0 F12000 X105.6 Y156.533
G1 F1800 X105.6 Y82.333 E64.06531
G0 F12000 X107.2 Y82.333
G1 F1800 X107.2 Y156.533 E69.98827
G0 F12000 X108.8 Y156.533
G1 F1800 X108.8 Y82.333 E75.91124
G0 F12000 X110.4 Y82.333
G1 F1800 X110.4 Y156.533 E81.8342
G0 F12000 X112 Y156.533
G1 F1800 X112 Y82.333 E87.75717
G0 F12000 X113.6 Y82.333
G1 F1800 X113.6 Y156.533 E93.68013
G0 F12000 X115.2 Y156.533
G1 F1800 X115.2 Y82.333 E99.6031
G0 F12000 X116.8 Y82.333
G1 F1800 X116.8 Y156.533 E105.52606
G0 F12000 X118.4 Y156.533
G1 F1800 X118.4 Y82.333 E111.44903
G0 F12000 X120 Y82.333
G1 F1800 X120 Y156.533 E117.37199
G0 F12000 X121.6 Y156.533
G1 F1800 X121.6 Y82.333 E123.29496
G0 F12000 X123.2 Y82.347
G1 F1800 X123.2 Y156.514 E129.21529
G0 F12000 X124.8 Y156.157
G1 F1800 X124.8 Y82.71 E135.07815
G0 F12000 X126.4 Y83.85
G1 F1800 X126.4 Y155.018 E140.75908
G1 F2700 E135.75908
G0 F12000 X126.98 Y155.953
G0 X126.154 Y156.63
G0 X125.202 Y157.143
G0 X124.217 Y157.457
G0 X122.903 Y157.597
G0 X96.471 Y157.565
G0 X95.404 Y157.36
G0 X94.407 Y156.961
G0 X93.505 Y156.382
G0 X92.734 Y155.648
G0 X92.377 Y155.15
G0 X91.946 Y154.472
G0 X92.8 Y153.783
G1 F2700 E140.75908
G1 F1800 X92.8 Y85.076 E146.24357
G0 F300 X92.8 Y85.076 Z0.54
G0 F12000 X94.436 Y83.122
;TIME_ELAPSED:69.636153
;LAYER:-5
;TYPE:SUPPORT
G1 F1800 X127.599 Y116.285 E150.92323
G1 X127.599 Y117.7 E151.06442
G1 X93.671 Y83.772 E155.85203
G1 X93.558 Y83.893 E155.86855
G1 X93.389 Y84.094 E155.89475
G1 X93.207 Y84.341 E155.92536
G1 X93.058 Y84.573 E155.95288
G1 X127.599 Y119.114 E160.82698
G1 X127.599 Y120.528 E160.96807
G1 X92.621 Y85.55 E165.90385
G1 X92.594 Y85.632 E165.91246
G1 X92.519 Y85.923 E165.94245
G1 X92.464 Y86.207 E165.97131
G1 X92.427 Y86.506 E166.00137
G1 X92.411 Y86.754 E166.02617
G1 X127.599 Y121.942 E170.99158
G1 X127.599 Y123.356 E171.13267
G1 X92.399 Y88.157 E176.0997
G1 X92.399 Y89.571 E176.24078
G1 X127.599 Y124.771 E181.20788
G1 X127.599 Y126.185 E181.34897
G1 X92.399 Y90.985 E186.31607
G1 X92.399 Y92.399 E186.45716
G1 X127.599 Y127.599 E191.42426
G1 X127.599 Y129.013 E191.56535
G1 X92.399 Y93.813 E196.53245
G1 X92.399 Y95.228 E196.67364
G1 X127.599 Y130.427 E201.64067
G1 X127.599 Y131.842 E201.78186
G1 X92.399 Y96.642 E206.74896
G1 X92.399 Y98.056 E206.89005
G1 X127.599 Y133.256 E211.85715
G1 X127.599 Y134.67 E211.99824
G1 X92.399 Y99.47 E216.96534
G1 X92.399 Y100.885 E217.10653
G1 X127.599 Y136.084 E222.07356
G1 X127.599 Y137.499 E222.21475
G1 X92.399 Y102.299 E227.18185
G1 X92.399 Y103.713 E227.32294
G1 X127.599 Y138.913 E232.29004
G1 X127.599 Y140.327 E232.43113
G1 X92.399 Y105.127 E237.39823
G1 X92.399 Y106.541 E237.53932
G1 X127.599 Y141.741 E242.50642
G1 X127.599 Y143.155 E242.64751
G1 X92.399 Y107.956 E247.61454
G1 X92.399 Y109.37 E247.75563
G1 X127.599 Y144.57 E252.72273
G1 X127.599 Y145.984 E252.86382
G1 X92.399 Y110.784 E257.83092
G1 X92.399 Y112.198 E257.97201
G1 X127.599 Y147.398 E262.93911
G1 X127.599 Y148.812 E263.0802
G1 X92.399 Y113.612 E268.0473
G1 X92.399 Y115.027 E268.18849
G1 X127.599 Y150.226 E273.15552
G1 X127.599 Y151.641 E273.29671
G1 X92.399 Y116.441 E278.26381
G1 X92.399 Y117.855 E278.4049
G1 X127.481 Y152.937 E283.35534
G0 F12000 X127.48 Y152.941
G1 F1800 X127.404 Y153.232 E283.38535
G1 X127.32 Y153.49 E283.41243
G1 X127.209 Y153.769 E283.44239
G1 X127.11 Y153.98 E283.46565
G1 X92.399 Y119.269 E288.36374
G1 X92.399 Y120.684 E288.50493
G1 X126.553 Y154.838 E293.32443
G1 X126.437 Y154.976 E293.34242
G1 X126.223 Y155.202 E293.37347
G1 X126.019 Y155.392 E293.40129
G1 X125.839 Y155.538 E293.42442
G1 X92.399 Y122.098 E298.14316
G1 X92.399 Y123.512 E298.28425
G1 X124.966 Y156.078 E302.87974
G1 X124.788 Y156.16 E302.89929
G1 X124.527 Y156.263 E302.92729
G1 X124.224 Y156.358 E302.95897
G1 X124.003 Y156.412 E302.98167
G1 X123.902 Y156.428 E302.99188
G1 X92.399 Y124.926 E307.43722
G1 X92.399 Y126.34 E307.57831
G1 X122.591 Y156.532 E311.83873
G1 X121.176 Y156.532 E311.97992
G1 X92.399 Y127.755 E316.04066
G1 X92.399 Y129.169 E316.18175
G1 X119.762 Y156.532 E320.04297
G1 X118.348 Y156.532 E320.18405
G1 X92.399 Y130.583 E323.84574
G1 X92.399 Y131.997 E323.98683
G1 X116.934 Y156.532 E327.44898
G1 X115.52 Y156.532 E327.59007
G1 X92.399 Y133.411 E330.85269
G1 X92.399 Y134.826 E330.99388
G1 X114.105 Y156.532 E334.05683
G1 X112.691 Y156.532 E334.19792
G1 X92.399 Y136.24 E337.06134
G1 X92.399 Y137.654 E337.20243
G1 X111.277 Y156.532 E339.86632
G1 X109.863 Y156.532 E340.00741
G1 X92.399 Y139.068 E342.47177
G1 X92.399 Y140.483 E342.61296
G1 X108.448 Y156.532 E344.87765
G1 X107.034 Y156.532 E345.01874
G1 X92.399 Y141.897 E347.0839
G1 X92.399 Y143.311 E347.22498
G1 X105.62 Y156.532 E349.09061
G1 X104.206 Y156.532 E349.2317
G1 X92.399 Y144.725 E350.8978
G1 X92.399 Y146.139 E351.03888
G1 X102.792 Y156.532 E352.50545
G1 X101.377 Y156.532 E352.64664
G1 X92.399 Y147.554 E353.91353
G1 X92.399 Y148.968 E354.05462
G1 X99.963 Y156.532 E355.12198
G1 X98.549 Y156.532 E355.26307
G1 X92.399 Y150.382 E356.1309
G1 X92.399 Y151.796 E356.27199
G1 X97.135 Y156.532 E356.94029
G1 X97.075 Y156.532 E356.94628
G1 X96.949 Y156.527 E356.95886
G1 X96.573 Y156.504 E356.99645
G1 X96.275 Y156.467 E357.02641
G1 X95.991 Y156.412 E357.05528
G1 X95.7 Y156.336 E357.08529
G1 X95.44 Y156.251 E357.11258
G1 X92.682 Y153.493 E357.50177
G0 F12000 X92.77 Y153.72
G1 F1800 X92.898 Y153.995 E357.53203
G1 X93.025 Y154.234 E357.55904
G1 X93.188 Y154.492 E357.58949
G1 X93.347 Y154.716 E357.6169
G1 X93.54 Y154.951 E357.64724
G1 X93.727 Y155.153 E357.67471
G1 X93.959 Y155.373 E357.70661
G1 X94.161 Y155.542 E357.73289
G1 X94.407 Y155.724 E357.76342
G1 X94.646 Y155.876 E357.79168
G1 X94.904 Y156.018 E357.82107
G1 X95.163 Y156.141 E357.84968
G1 X95.44 Y156.251 E357.87942
G1 F2700 E352.87942
G0 F12000 X95.046 Y157.242
G0 X94.108 Y156.795
G0 X93.243 Y156.161
G0 X92.51 Y155.374
G0 X91.946 Y154.472
G0 X91.552 Y153.455
G0 X91.347 Y152.088
G0 X91.368 Y86.404
G0 X91.573 Y85.337
G0 X91.972 Y84.34
G0 X92.551 Y83.438
G0 X92.758 Y83.22
G0 X93.559 Y82.443
G0 X94.438 Y83.12
G1 F2700 E357.87942
G1 F1800 X94.697 Y82.959 E357.90985
G1 X94.936 Y82.83 E357.93695
G1 X95.211 Y82.703 E357.96717
G1 X95.37 Y82.642 E357.98416
G1 X127.599 Y114.871 E362.53202
G1 X127.599 Y113.457 E362.67311
G1 X96.52 Y82.377 E367.05876
G1 X96.906 Y82.342 E367.09744
G1 X97.128 Y82.332 E367.11961
G1 X97.889 Y82.332 E367.19554
G1 X127.599 Y112.043 E371.38802
G1 X127.599 Y110.628 E371.52921
G1 X99.303 Y82.332 E375.52208
G1 X100.717 Y82.332 E375.66317
G1 X127.599 Y109.214 E379.45651
G1 X127.599 Y107.8 E379.5976
G1 X102.131 Y82.332 E383.19141
G1 X103.545 Y82.332 E383.3325
G1 X127.599 Y106.386 E386.72678
G1 X127.599 Y104.972 E386.86787
G1 X104.96 Y82.332 E390.06254
G1 X106.374 Y82.332 E390.20363
G1 X127.599 Y103.557 E393.19871
G1 X127.599 Y102.143 E393.3398
G1 X107.788 Y82.332 E396.13535
G1 X109.202 Y82.332 E396.27643
G1 X127.599 Y100.729 E398.87245
G1 X127.599 Y99.315 E399.01354
G1 X110.616 Y82.332 E401.41002
G1 X112.031 Y82.332 E401.55121
G1 X127.599 Y97.901 E403.7481
G1 X127.599 Y96.486 E403.88929
G1 X113.445 Y82.332 E405.88657
G1 X114.859 Y82.332 E406.02766
G1 X127.599 Y95.072 E407.82541
G1 X127.599 Y93.658 E407.9665
G1 X116.273 Y82.332 E409.56472
G1 X117.688 Y82.332 E409.70591
G1 X127.599 Y92.244 E411.10453
G1 X127.599 Y90.829 E411.24572
G1 X119.102 Y82.332 E412.44474
G1 X120.516 Y82.332 E412.58583
G1 X127.599 Y89.415 E413.58531
G1 X127.599 Y88.001 E413.7264
G1 X121.93 Y82.332 E414.52636
G1 X122.923 Y82.332 E414.62544
G1 X123.049 Y82.336 E414.63802
G1 X123.369 Y82.357 E414.67002
G1 X127.562 Y86.55 E415.2617
G1 X127.538 Y86.286 E415.28815
G1 X127.479 Y85.929 E415.32425
G1 X127.425 Y85.709 E415.34686
G1 X127.33 Y85.405 E415.37864
G1 X127.228 Y85.145 E415.4065
G1 X127.101 Y84.869 E415.43682
G1 X126.973 Y84.63 E415.46387
G1 X126.833 Y84.406 E415.49023
G1 X125.526 Y83.099 E415.67466
G1 X125.591 Y83.14 E415.68233
G1 X125.838 Y83.322 E415.71294
G1 X126.038 Y83.492 E415.73913
G1 X126.272 Y83.711 E415.77111
G1 X126.458 Y83.913 E415.79851
G1 X126.647 Y84.144 E415.82829
G1 X126.811 Y84.371 E415.85624
G0 F300 X126.811 Y84.371 Z0.74
G0 F12000 X124.347 Y82.333
;TIME_ELAPSED:165.763163
;LAYER:-4
;TYPE:SUPPORT-INTERFACE
G1 F2400 X124.052 Y82.256 E415.86638
G1 X123.757 Y82.199 E415.87637
G1 X123.454 Y82.161 E415.88653
G1 X123.05 Y82.136 E415.89999
G1 X122.931 Y82.132 E415.90395
G1 X97.12 Y82.133 E416.76243
G1 X96.898 Y82.143 E416.76982
G1 X96.329 Y82.194 E416.78882
G1 X95.959 Y82.257 E416.8013
G1 X95.716 Y82.316 E416.80962
G1 X95.449 Y82.4 E416.81893
G1 X124.553 Y82.4 E417.78693
G1 X124.632 Y82.426 E417.7897
G1 X124.902 Y82.533 E417.79936
G1 X125.203 Y82.676 E417.81044
G1 X125.426 Y82.8 E417.81893
G1 X94.578 Y82.8 E418.84494
G1 X94.322 Y82.959 E418.85496
G1 X94.091 Y83.125 E418.86442
G1 X94 Y83.2 E418.86834
G1 X126.005 Y83.2 E419.93283
G1 X126.186 Y83.353 E419.94072
G1 X126.401 Y83.556 E419.95055
G1 X126.442 Y83.6 E419.95255
G1 X93.56 Y83.6 E421.04621
G1 X93.421 Y83.747 E421.05294
G1 X93.235 Y83.968 E421.06255
G1 X93.212 Y84 E421.06386
G1 X126.79 Y84 E422.18067
G1 X126.808 Y84.023 E422.18164
G1 X126.974 Y84.254 E422.1911
G1 X127.065 Y84.4 E422.19682
G1 X92.934 Y84.4 E423.33202
G1 X92.878 Y84.488 E423.33549
G1 X92.744 Y84.73 E423.34469
G1 X92.711 Y84.8 E423.34727
G1 X127.291 Y84.8 E424.4974
G1 X127.418 Y85.074 E424.50745
G1 X127.467 Y85.2 E424.51194
G1 X92.535 Y85.2 E425.67379
G1 X92.494 Y85.301 E425.67741
G1 X92.401 Y85.586 E425.68738
G1 X92.398 Y85.6 E425.68786
G1 X127.602 Y85.6 E426.85875
G1 X127.617 Y85.648 E426.86042
G1 X127.678 Y85.897 E426.86895
G1 X127.696 Y86 E426.87243
G1 X92.301 Y86 E428.04967
G1 X92.266 Y86.182 E428.05583
G1 X92.239 Y86.4 E428.06314
G1 X127.752 Y86.4 E429.24431
G1 X127.788 Y86.8 E429.25766
G1 X92.21 Y86.8 E430.44099
G1 X92.204 Y86.883 E430.44376
G1 X92.2 Y87.002 E430.44772
G1 X92.2 Y87.2 E430.45431
G1 X127.8 Y87.2 E431.63837
G1 X127.8 Y87.6 E431.65167
G1 X92.2 Y87.6 E432.83573
G1 X92.2 Y88 E432.84904
G1 X127.8 Y88 E434.0331
G1 X127.8 Y88.4 E434.0464
G1 X92.2 Y88.4 E435.23046
G1 X92.2 Y88.8 E435.24377
G1 X127.8 Y88.8 E436.42783
G1 X127.8 Y89.2 E436.44113
G1 X92.2 Y89.2 E437.62519
G1 X92.2 Y89.6 E437.6385
G1 X127.8 Y89.6 E438.82256
G1 X127.8 Y90 E438.83586
G1 X92.2 Y90 E440.01992
G1 X92.2 Y90.4 E440.03322
G1 X127.8 Y90.4 E441.21729
G1 X127.8 Y90.8 E441.23059
G1 X92.2 Y90.8 E442.41465
G1 X92.2 Y91.2 E442.42795
G1 X127.8 Y91.2 E443.61202
G1 X127.8 Y91.6 E443.62532
G1 X92.2 Y91.6 E444.80938
G1 X92.2 Y92 E444.82268
G1 X127.8 Y92 E446.00675
G1 X127.8 Y92.4 E446.02005
G1 X92.2 Y92.4 E447.20411
G1 X92.2 Y92.8 E447.21741
G1 X127.8 Y92.8 E448.40147
G1 X127.8 Y93.2 E448.41478
G1 X92.2 Y93.2 E449.59884
G1 X92.2 Y93.6 E449.61214
G1 X127.8 Y93.6 E450.7962
G1 X127.8 Y94 E450.80951
G1 X92.2 Y94 E451.99357
G1 X92.2 Y94.4 E452.00687
G1 X127.8 Y94.4 E453.19093
G1 X127.8 Y94.8 E453.20424
G1 X92.2 Y94.8 E454.3883
G1 X92.2 Y95.2 E454.4016
G1 X127.8 Y95.2 E455.58566
G1 X127.8 Y95.6 E455.59897
G1 X92.2 Y95.6 E456.78303
G1 X92.2 Y96 E456.79633
G1 X127.8 Y96 E457.98039
G1 X127.8 Y96.4 E457.9937
G1 X92.2 Y96.4 E459.17776
G1 X92.2 Y96.8 E459.19106
G1 X127.8 Y96.8 E460.37512
G1 X127.8 Y97.2 E460.38843
G1 X92.2 Y97.2 E461.57249
G1 X92.2 Y97.6 E461.58579
G1 X127.8 Y97.6 E462.76985
G1 X127.8 Y98 E462.78316
G1 X92.2 Y98 E463.96722
G1 X92.2 Y98.4 E463.98052
G1 X127.8 Y98.4 E465.16458
G1 X127.8 Y98.8 E465.17789
G1 X92.2 Y98.8 E466.36195
G1 X92.2 Y99.2 E466.37525
G1 X127.8 Y99.2 E467.55931
G1 X127.8 Y99.6 E467.57262
G1 X92.2 Y99.6 E468.75668
G1 X92.2 Y100 E468.76998
G1 X127.8 Y100 E469.95404
G1 X127.8 Y100.4 E469.96735
G1 X92.2 Y100.4 E471.15141
G1 X92.2 Y100.8 E471.16471
G1 X127.8 Y100.8 E472.34877
