;FLAVOR:Marlin
;TIME:3600
;Filament used: 3.0222m
;Layer height: 0.2
;MINX:80.329
;MINY:99.177
;MINZ:0.2
;MAXX:138.806
;MAXY:170.692
;MAXZ:9
;Generated with Cura_SteamEngine 4.12.1
M140 S50
M105
M190 S50
M104 S200
M105
M109 S200
M82 ;absolute extrusion mode
M201 X500.00 Y500.00 Z100.00 E5000.00 ;Setup machine max acceleration
M203 X500.00 Y500.00 Z10.00 E50.00 ;Setup machine max feedrate
M204 P500.00 R1000.00 T500.00 ;Setup Print/Retract/Travel acceleration
M205 X8.00 Y8.00 Z0.40 E5.00 ;Setup Jerk
M220 S100 ;Reset Feedrate
M221 S100 ;Reset Flowrate

G28 ;Home

G92 E0 ;Reset Extruder
G1 Z2.0 F3000 ;Move Z Axis up
G1 X10.1 Y20 Z0.28 F5000.0 ;Move to start position
G1 X10.1 Y200.0 Z0.28 F1500.0 E15 ;Draw the first line
G1 X10.4 Y200.0 Z0.28 F5000.0 ;Move to side a little
G1 X10.4 Y20 Z0.28 F1500.0 E30 ;Draw the second line
G92 E0 ;Reset Extruder
G1 Z2.0 F3000 ;Move Z Axis up

G92 E0
G92 E0
G1 F2700 E-5
;LAYER_COUNT:45
;LAYER:0
M107
;MESH:turret_base.obj
G0 F6000 X86.26 Y120.02 Z0.2
;TYPE:WALL-INNER
G1 F2700 E0
G1 F1200 X86.752 Y119.898 E0.01686
G1 X87.201 Y119.663 E0.03372
G1 X87.581 Y119.327 E0.05059
G1 X87.87 Y118.909 E0.06749
G1 X88.05 Y118.434 E0.08438
G1 X88.11 Y117.931 E0.10123
G1 X88.05 Y117.428 E0.11808
G1 X87.87 Y116.953 E0.13497
G1 X87.582 Y116.535 E0.15186
G1 X87.203 Y116.198 E0.16873
G1 X86.751 Y115.963 E0.18567
G1 X86.26 Y115.842 E0.20249
G1 X85.753 Y115.842 E0.21935
G1 X85.262 Y115.963 E0.23617
G1 X84.81 Y116.198 E0.25312
G1 X84.431 Y116.535 E0.26998
G1 X84.143 Y116.953 E0.28687
G1 X83.963 Y117.428 E0.30376
G1 X83.902 Y117.931 E0.32061
G1 X83.963 Y118.434 E0.33747
G1 X84.143 Y118.909 E0.35436
G1 X84.432 Y119.327 E0.37126
G1 X84.812 Y119.663 E0.38813
G1 X85.261 Y119.898 E0.40499
G1 X85.753 Y120.02 E0.42185
G1 X86.26 Y120.02 E0.43871
G0 F6000 X86.211 Y119.62
;TYPE:WALL-OUTER
G1 F1200 X86.609 Y119.521 E0.45235
G1 X86.973 Y119.331 E0.46601
G1 X87.28 Y119.06 E0.47963
G1 X87.513 Y118.722 E0.49328
G1 X87.659 Y118.338 E0.50695
G1 X87.707 Y117.931 E0.52058
G1 X87.659 Y117.524 E0.53421
G1 X87.513 Y117.14 E0.54787
G1 X87.28 Y116.802 E0.56153
G1 X86.974 Y116.53 E0.57515
G1 X86.609 Y116.34 E0.58883
G1 X86.211 Y116.242 E0.60246
G1 X85.802 Y116.242 E0.61607
G1 X85.404 Y116.34 E0.6297
G1 X85.039 Y116.53 E0.64339
G1 X84.733 Y116.802 E0.657
G1 X84.5 Y117.14 E0.67066
G1 X84.354 Y117.524 E0.68432
G1 X84.305 Y117.931 E0.69796
G1 X84.354 Y118.338 E0.71159
G1 X84.5 Y118.722 E0.72526
G1 X84.733 Y119.06 E0.73891
G1 X85.04 Y119.331 E0.75253
G1 X85.404 Y119.521 E0.76619
G1 X85.802 Y119.62 E0.77983
G1 X86.211 Y119.62 E0.79343
G0 F6000 X86.264 Y120.056
G1 F2700 E-4.20657
G0 F6000 X87.31 Y119.821
G0 X86.481 Y118.613
G0 X133.532 Y118.613
G0 X132.703 Y119.821
G0 X133.753 Y120.02
;TYPE:WALL-INNER
G1 F2700 E0.79343
G1 F1200 X134.26 Y120.02 E0.81029
G1 X134.752 Y119.898 E0.82715
G1 X135.201 Y119.663 E0.84401
G1 X135.581 Y119.327 E0.86088
G1 X135.87 Y118.909 E0.87778
G1 X136.05 Y118.434 E0.89468
G1 X136.11 Y117.931 E0.91153
G1 X136.05 Y117.428 E0.92837
G1 X135.87 Y116.953 E0.94527
G1 X135.582 Y116.535 E0.96215
G1 X135.203 Y116.198 E0.97902
G1 X134.751 Y115.963 E0.99596
G1 X134.26 Y115.842 E1.01278
G1 X133.753 Y115.842 E1.02965
G1 X133.262 Y115.963 E1.04647
G1 X132.81 Y116.198 E1.06341
G1 X132.431 Y116.535 E1.08028
G1 X132.143 Y116.953 E1.09716
G1 X131.963 Y117.428 E1.11406
G1 X131.902 Y117.931 E1.13091
G1 X131.963 Y118.434 E1.14776
G1 X132.143 Y118.909 E1.16466
G1 X132.432 Y119.327 E1.18156
G1 X132.812 Y119.663 E1.19843
G1 X133.261 Y119.898 E1.21528
G1 X133.753 Y120.02 E1.23214
G0 F6000 X133.802 Y119.62
;TYPE:WALL-OUTER
G1 F1200 X134.211 Y119.62 E1.24575
G1 X134.609 Y119.521 E1.25939
G1 X134.973 Y119.331 E1.27304
G1 X135.28 Y119.06 E1.28666
G1 X135.513 Y118.722 E1.30032
G1 X135.659 Y118.338 E1.31398
G1 X135.707 Y117.931 E1.32761
G1 X135.659 Y117.524 E1.34124
G1 X135.513 Y117.14 E1.35491
G1 X135.28 Y116.802 E1.36856
G1 X134.974 Y116.53 E1.38218
G1 X134.609 Y116.34 E1.39587
G1 X134.211 Y116.242 E1.4095
G1 X133.802 Y116.242 E1.4231
G1 X133.404 Y116.34 E1.43673
G1 X133.039 Y116.53 E1.45042
G1 X132.733 Y116.802 E1.46404
G1 X132.5 Y117.14 E1.47769
G1 X132.354 Y117.524 E1.49136
G1 X132.305 Y117.931 E1.50499
G1 X132.354 Y118.338 E1.51863
G1 X132.5 Y118.722 E1.53229
G1 X132.733 Y119.06 E1.54594
G1 X133.04 Y119.331 E1.55956
G1 X133.404 Y119.521 E1.57322
G1 X133.802 Y119.62 E1.58686
G0 F6000 X133.749 Y120.056
G1 F2700 E-3.41314
G0 F6000 X133.907 Y118.756
G0 X133.906 Y160.106
G0 X133.73 Y158.651
G0 X132.553 Y159.643
G0 X132.287 Y160.028
G0 X132.12 Y160.467
G0 X132.064 Y160.931
G0 X132.12 Y161.395
G0 X132.287 Y161.834
G0 X132.437 Y162.052
G0 X133.261 Y162.898
;TYPE:WALL-INNER
G1 F2700 E1.58686
G1 F1200 X133.753 Y163.02 E1.60372
G1 X134.26 Y163.02 E1.62058
G1 X134.752 Y162.898 E1.63744
G1 X135.201 Y162.663 E1.6543
G1 X135.581 Y162.327 E1.67117
G1 X135.87 Y161.909 E1.68807
G1 X136.05 Y161.434 E1.70497
G1 X136.11 Y160.931 E1.72182
G1 X136.05 Y160.428 E1.73866
G1 X135.87 Y159.953 E1.75556
G1 X135.582 Y159.535 E1.77244
G1 X135.203 Y159.198 E1.78931
G1 X134.751 Y158.963 E1.80625
G1 X134.26 Y158.842 E1.82307
G1 X133.753 Y158.842 E1.83994
G1 X133.262 Y158.963 E1.85676
G1 X132.81 Y159.198 E1.8737
G1 X132.431 Y159.535 E1.89057
G1 X132.143 Y159.953 E1.90745
G1 X131.963 Y160.428 E1.92435
G1 X131.902 Y160.931 E1.9412
G1 X131.963 Y161.434 E1.95805
G1 X132.143 Y161.909 E1.97495
G1 X132.432 Y162.327 E1.99185
G1 X132.812 Y162.663 E2.00872
G1 X133.261 Y162.898 E2.02557
G0 F6000 X133.404 Y162.521
;TYPE:WALL-OUTER
G1 F1200 X133.802 Y162.62 E2.03922
G1 X134.211 Y162.62 E2.05282
G1 X134.609 Y162.521 E2.06646
G1 X134.973 Y162.331 E2.08012
G1 X135.28 Y162.06 E2.09374
G1 X135.513 Y161.722 E2.10739
G1 X135.659 Y161.338 E2.12105
G1 X135.707 Y160.931 E2.13468
G1 X135.659 Y160.524 E2.14832
G1 X135.513 Y160.14 E2.16198
G1 X135.28 Y159.802 E2.17563
G1 X134.974 Y159.53 E2.18925
G1 X134.609 Y159.34 E2.20294
G1 X134.211 Y159.242 E2.21657
G1 X133.802 Y159.242 E2.23017
G1 X133.404 Y159.34 E2.24381
G1 X133.039 Y159.53 E2.25749
G1 X132.733 Y159.802 E2.27111
G1 X132.5 Y160.14 E2.28476
G1 X132.354 Y160.524 E2.29843
G1 X132.305 Y160.931 E2.31206
G1 X132.354 Y161.338 E2.3257
G1 X132.5 Y161.722 E2.33936
G1 X132.733 Y162.06 E2.35302
G1 X133.04 Y162.331 E2.36664
G1 X133.404 Y162.521 E2.38029
G0 F6000 X133.248 Y162.932
G1 F2700 E-2.61971
G0 F6000 X131.777 Y161.481
G0 X133.199 Y161.131
G0 X111.526 Y148.106
G0 X111.835 Y149.531
G0 X110.006 Y149.532
;TYPE:WALL-INNER
G1 F2700 E2.38029
G1 F1200 X110.906 Y149.484 E2.41027
G1 X111.795 Y149.344 E2.4402
G1 X112.665 Y149.11 E2.47017
G1 X113.504 Y148.788 E2.50006
G1 X114.306 Y148.379 E2.53
G1 X115.062 Y147.889 E2.55996
G1 X115.761 Y147.323 E2.58988
G1 X116.399 Y146.686 E2.61986
G1 X116.965 Y145.986 E2.6498
G1 X117.455 Y145.231 E2.67974
G1 X117.864 Y144.429 E2.70968
G1 X118.186 Y143.589 E2.73961
G1 X118.42 Y142.719 E2.76957
G1 X118.56 Y141.83 E2.7995
G1 X118.607 Y140.931 E2.82944
G1 X118.56 Y140.032 E2.85939
G1 X118.42 Y139.143 E2.88932
G1 X118.186 Y138.273 E2.91928
G1 X117.864 Y137.433 E2.9492
G1 X117.455 Y136.631 E2.97915
G1 X116.965 Y135.876 E3.00908
G1 X116.399 Y135.176 E3.03902
G1 X115.761 Y134.539 E3.06901
G1 X115.062 Y133.973 E3.09893
G1 X114.306 Y133.483 E3.12889
G1 X113.505 Y133.074 E3.1588
G1 X112.665 Y132.751 E3.18874
G1 X111.795 Y132.518 E3.21869
G1 X110.906 Y132.378 E3.24862
G1 X110.006 Y132.33 E3.2786
G1 X109.107 Y132.378 E3.30854
G1 X108.218 Y132.518 E3.33848
G1 X107.348 Y132.751 E3.36843
G1 X106.508 Y133.074 E3.39837
G1 X105.706 Y133.483 E3.42831
G1 X104.951 Y133.973 E3.45825
G1 X104.251 Y134.539 E3.48819
G1 X103.614 Y135.176 E3.51815
G1 X103.048 Y135.876 E3.54809
G1 X102.558 Y136.631 E3.57803
G1 X102.149 Y137.433 E3.60797
G1 X101.827 Y138.273 E3.63789
G1 X101.593 Y139.143 E3.66786
G1 X101.453 Y140.032 E3.69779
G1 X101.405 Y140.931 E3.72773
G1 X101.453 Y141.83 E3.75767
G1 X101.593 Y142.719 E3.78761
G1 X101.827 Y143.589 E3.81757
G1 X102.149 Y144.429 E3.84749
G1 X102.558 Y145.231 E3.87744
G1 X103.048 Y145.986 E3.90737
G1 X103.614 Y146.686 E3.93731
G1 X104.251 Y147.323 E3.96728
G1 X104.951 Y147.889 E3.99722
G1 X105.706 Y148.379 E4.02715
G1 X106.509 Y148.788 E4.05713
G1 X107.348 Y149.11 E4.08702
G1 X108.218 Y149.344 E4.11698
G1 X109.107 Y149.484 E4.14691
G1 X110.006 Y149.532 E4.17686
G0 F6000 X110.006 Y149.131
;TYPE:WALL-OUTER
G1 F1200 X110.864 Y149.086 E4.20543
G1 X111.712 Y148.952 E4.23399
G1 X112.541 Y148.729 E4.26254
G1 X113.341 Y148.422 E4.29104
G1 X114.106 Y148.032 E4.3196
G1 X114.827 Y147.565 E4.34817
G1 X115.493 Y147.025 E4.37669
G1 X116.101 Y146.418 E4.40526
G1 X116.641 Y145.751 E4.43381
G1 X117.108 Y145.031 E4.46235
G1 X117.498 Y144.266 E4.49091
G1 X117.805 Y143.465 E4.51944
G1 X118.028 Y142.636 E4.54799
G1 X118.162 Y141.788 E4.57655
G1 X118.206 Y140.931 E4.60509
G1 X118.162 Y140.074 E4.63363
G1 X118.028 Y139.226 E4.66219
G1 X117.805 Y138.397 E4.69074
G1 X117.498 Y137.596 E4.71927
G1 X117.108 Y136.831 E4.74783
G1 X116.641 Y136.111 E4.77637
G1 X116.101 Y135.444 E4.80492
G1 X115.493 Y134.837 E4.83349
G1 X114.827 Y134.297 E4.86201
G1 X114.106 Y133.83 E4.89058
G1 X113.342 Y133.44 E4.91911
G1 X112.541 Y133.132 E4.94765
G1 X111.712 Y132.91 E4.9762
G1 X110.864 Y132.776 E5.00475
G1 X110.006 Y132.731 E5.03333
G1 X109.149 Y132.776 E5.06187
G1 X108.301 Y132.91 E5.09043
G1 X107.472 Y133.132 E5.11897
G1 X106.671 Y133.44 E5.14751
G1 X105.906 Y133.83 E5.17607
G1 X105.186 Y134.297 E5.20462
G1 X104.519 Y134.837 E5.23316
G1 X103.912 Y135.444 E5.26171
G1 X103.372 Y136.111 E5.29026
G1 X102.905 Y136.831 E5.3188
G1 X102.515 Y137.596 E5.34736
G1 X102.208 Y138.397 E5.37589
G1 X101.985 Y139.226 E5.40444
G1 X101.851 Y140.074 E5.433
G1 X101.806 Y140.931 E5.46154
G1 X101.851 Y141.788 E5.49008
G1 X101.985 Y142.636 E5.51864
G1 X102.208 Y143.465 E5.54719
G1 X102.515 Y144.266 E5.57572
G1 X102.905 Y145.031 E5.60428
G1 X103.372 Y145.751 E5.63283
G1 X103.912 Y146.418 E5.66137
G1 X104.519 Y147.025 E5.68992
G1 X105.186 Y147.565 E5.71846
G1 X105.906 Y148.032 E5.74701
G1 X106.672 Y148.422 E5.7756
G1 X107.472 Y148.729 E5.8041
G1 X108.301 Y148.952 E5.83265
G1 X109.149 Y149.086 E5.8612
G1 X110.006 Y149.131 E5.88975
G0 F6000 X110.006 Y149.571
G1 F2700 E0.88975
G0 F6000 X108.178 Y149.531
G0 X108.487 Y148.106
G0 X86.813 Y161.135
G0 X88.236 Y161.48
G0 X86.752 Y162.898
;TYPE:WALL-INNER
G1 F2700 E5.88975
G1 F1200 X87.201 Y162.663 E5.9066
G1 X87.581 Y162.327 E5.92347
G1 X87.87 Y161.909 E5.94038
G1 X88.05 Y161.434 E5.95727
G1 X88.11 Y160.931 E5.97412
G1 X88.05 Y160.428 E5.99097
G1 X87.87 Y159.953 E6.00786
G1 X87.582 Y159.535 E6.02475
G1 X87.203 Y159.198 E6.04161
G1 X86.751 Y158.963 E6.05856
G1 X86.26 Y158.842 E6.07538
G1 X85.753 Y158.842 E6.09224
G1 X85.262 Y158.963 E6.10906
G1 X84.81 Y159.198 E6.126
G1 X84.431 Y159.535 E6.14287
G1 X84.143 Y159.953 E6.15975
G1 X83.963 Y160.428 E6.17665
G1 X83.902 Y160.931 E6.1935
G1 X83.963 Y161.434 E6.21035
G1 X84.143 Y161.909 E6.22725
G1 X84.432 Y162.327 E6.24415
G1 X84.812 Y162.663 E6.26102
G1 X85.261 Y162.898 E6.27788
G1 X85.753 Y163.02 E6.29474
G1 X86.26 Y163.02 E6.3116
G1 X86.752 Y162.898 E6.32846
G0 F6000 X86.609 Y162.521
;TYPE:WALL-OUTER
G1 F1200 X86.973 Y162.331 E6.34212
G1 X87.28 Y162.06 E6.35574
G1 X87.513 Y161.722 E6.36939
G1 X87.659 Y161.338 E6.38305
G1 X87.707 Y160.931 E6.39669
G1 X87.659 Y160.524 E6.41032
G1 X87.513 Y160.14 E6.42398
G1 X87.28 Y159.802 E6.43763
G1 X86.974 Y159.53 E6.45125
G1 X86.609 Y159.34 E6.46494
G1 X86.211 Y159.242 E6.47857
G1 X85.802 Y159.242 E6.49217
G1 X85.404 Y159.34 E6.50581
G1 X85.039 Y159.53 E6.51949
G1 X84.733 Y159.802 E6.53311
G1 X84.5 Y160.14 E6.54676
G1 X84.354 Y160.524 E6.56043
G1 X84.305 Y160.931 E6.57406
G1 X84.354 Y161.338 E6.5877
G1 X84.5 Y161.722 E6.60136
G1 X84.733 Y162.06 E6.61502
G1 X85.04 Y162.331 E6.62864
G1 X85.404 Y162.521 E6.64229
G1 X85.802 Y162.62 E6.65593
G1 X86.211 Y162.62 E6.66954
G1 X86.609 Y162.521 E6.68318
G0 F6000 X86.765 Y162.932
G1 F2700 E1.68318
G0 F6000 X88.04 Y161.998
G0 X86.743 Y161.317
G0 X95.333 Y170.692
G0 X95.44 Y169.222
G0 X124.54 Y169.432
;TYPE:WALL-INNER
G1 F2700 E6.68318
G1 F1200 X95.439 Y169.432 E7.65108
G1 X93.384 Y169.28 E7.71962
G1 X91.394 Y168.834 E7.78745
G1 X89.48 Y168.095 E7.85569
G1 X87.705 Y167.091 E7.92351
G1 X86.095 Y165.835 E7.99143
G1 X84.677 Y164.346 E8.05982
G1 X83.508 Y162.687 E8.12732
G1 X82.586 Y160.858 E8.19544
G1 X81.941 Y158.909 E8.26373
G1 X81.594 Y156.91 E8.33121
G1 X81.594 Y118.111 E9.62167
G1 X83.06 Y115.341 E9.72591
G1 X84.847 Y112.672 E9.83274
G1 X86.924 Y110.172 E9.94084
G1 X89.237 Y107.909 E10.04847
G1 X91.767 Y105.9 E10.15592
G1 X94.498 Y104.156 E10.26369
G1 X97.39 Y102.704 E10.37132
G1 X100.418 Y101.557 E10.47902
G1 X103.541 Y100.73 E10.58647
G1 X106.745 Y100.227 E10.69434
G1 X109.975 Y100.057 E10.80192
G1 X113.203 Y100.219 E10.90942
G1 X116.41 Y100.716 E11.01736
G1 X119.537 Y101.536 E11.12488
G1 X122.558 Y102.673 E11.23224
G1 X125.461 Y104.123 E11.34017
G1 X128.191 Y105.857 E11.44773
G1 X130.729 Y107.864 E11.55535
G1 X133.051 Y110.126 E11.66317
G1 X135.122 Y112.607 E11.77066
G1 X136.928 Y115.293 E11.87831
G1 X138.394 Y118.047 E11.98208
G1 X138.394 Y156.849 E13.27264
G1 X138.053 Y158.86 E13.34048
G1 X137.417 Y160.806 E13.40858
G1 X136.499 Y162.643 E13.47688
G1 X135.32 Y164.326 E13.54522
G1 X133.912 Y165.811 E13.61329
G1 X132.303 Y167.072 E13.68128
G1 X130.513 Y168.089 E13.74975
G1 X128.599 Y168.829 E13.81801
G1 X126.602 Y169.279 E13.88609
G1 X124.54 Y169.432 E13.95486
G0 F6000 X124.557 Y169.832
;TYPE:WALL-OUTER
G1 F1200 X95.424 Y169.832 E14.92383
G1 X93.328 Y169.677 E14.99373
G1 X91.276 Y169.217 E15.06368
G1 X89.308 Y168.457 E15.13384
G1 X87.484 Y167.425 E15.20355
G1 X85.822 Y166.129 E15.27365
G1 X84.369 Y164.603 E15.34373
G1 X83.164 Y162.893 E15.41331
G1 X82.214 Y161.008 E15.48351
G1 X81.553 Y159.01 E15.55351
G1 X81.194 Y156.943 E15.62329
G1 X81.194 Y118.011 E16.91817
G1 X82.714 Y115.139 E17.02625
G1 X84.529 Y112.428 E17.13476
G1 X86.628 Y109.902 E17.24399
G1 X88.97 Y107.61 E17.35298
G1 X91.533 Y105.575 E17.46183
G1 X94.301 Y103.808 E17.57106
G1 X97.231 Y102.336 E17.68012
G1 X100.297 Y101.175 E17.78916
G1 X103.455 Y100.339 E17.89781
G1 X106.701 Y99.829 E18.0071
G1 X109.974 Y99.657 E18.11611
G1 X113.245 Y99.821 E18.22504
G1 X116.494 Y100.325 E18.33439
G1 X119.656 Y101.154 E18.44312
G1 X122.723 Y102.308 E18.55211
G1 X125.656 Y103.773 E18.66115
G1 X128.424 Y105.531 E18.77021
G1 X130.994 Y107.564 E18.8792
G1 X133.341 Y109.85 E18.98817
G1 X135.443 Y112.368 E19.09727
G1 X137.271 Y115.087 E19.20624
G1 X138.794 Y117.947 E19.31401
G1 X138.794 Y156.881 E20.60896
G1 X138.442 Y158.956 E20.67896
G1 X137.787 Y160.962 E20.74915
G1 X136.844 Y162.847 E20.81925
G1 X135.632 Y164.578 E20.88954
G1 X134.179 Y166.111 E20.95979
G1 X132.526 Y167.406 E21.02963
G1 X130.688 Y168.45 E21.09993
G1 X128.716 Y169.213 E21.17026
G1 X126.659 Y169.676 E21.24039
G1 X124.557 Y169.832 E21.31049
G0 F6000 X124.541 Y169.393
G0 X124.537 Y169.042
;TYPE:SKIN
G1 F1200 X95.441 Y169.042 E22.27823
G1 X93.445 Y168.894 E22.3448
G1 X91.51 Y168.461 E22.41075
G1 X89.645 Y167.741 E22.47724
G1 X87.927 Y166.769 E22.5429
G1 X86.357 Y165.545 E22.60911
G1 X84.973 Y164.09 E22.6759
G1 X83.85 Y162.497 E22.74072
G1 X82.945 Y160.702 E22.80758
G1 X82.319 Y158.811 E22.87384
G1 X81.984 Y156.878 E22.93909
G1 X81.984 Y118.209 E24.22522
G1 X83.4 Y115.534 E24.32589
G1 X85.162 Y112.902 E24.43124
G1 X87.208 Y110.44 E24.53771
G1 X89.497 Y108.201 E24.6442
G1 X91.993 Y106.219 E24.75021
G1 X94.69 Y104.497 E24.85664
G1 X97.548 Y103.061 E24.96302
G1 X100.539 Y101.928 E25.0694
G1 X103.615 Y101.114 E25.17523
G1 X106.788 Y100.615 E25.28206
G1 X109.977 Y100.448 E25.38827
G1 X113.162 Y100.607 E25.49434
G1 X116.339 Y101.101 E25.60128
G1 X119.418 Y101.907 E25.70714
G1 X122.401 Y103.03 E25.81315
G1 X125.27 Y104.464 E25.91983
G1 X127.962 Y106.173 E26.02588
G1 X130.469 Y108.156 E26.1322
G1 X132.763 Y110.39 E26.2387
G1 X134.81 Y112.841 E26.34491
G1 X136.592 Y115.494 E26.45121
G1 X138.004 Y118.146 E26.55114
G1 X138.004 Y156.82 E27.83744
G1 X137.675 Y158.761 E27.90292
G1 X137.055 Y160.659 E27.96933
G1 X136.165 Y162.439 E28.03552
G1 X135.016 Y164.079 E28.10212
G1 X133.641 Y165.529 E28.16858
