;FLAVOR:Marlin
;TIME:785
;Filament used: 0.384503m
;Layer height: 0.2
;MINX:99.556
;MINY:99.574
;MINZ:0.2
;MAXX:120.444
;MAXY:120.412
;MAXZ:5.6
;Generated with Cura_SteamEngine 4.12.1
M140 S55
M105
M190 S55
M104 S205
M105
M109 S205
M82 ;absolute extrusion mode
M201 X500.00 Y500.00 Z100.00 E5000.00 ;Setup machine max acceleration
M203 X500.00 Y500.00 Z10.00 E50.00 ;Setup machine max feedrate
M204 P500.00 R1000.00 T500.00 ;Setup Print/Retract/Travel acceleration
M205 X8.00 Y8.00 Z0.40 E5.00 ;Setup Jerk
M220 S100 ;Reset Feedrate
M221 S100 ;Reset Flowrate

G28 ;Home

G92 E0 ;Reset Extruder
G1 Z2.0 F3000 ;Move Z Axis up
G1 X10.1 Y20 Z0.28 F5000.0 ;Move to start position
G1 X10.1 Y200.0 Z0.28 F1500.0 E15 ;Draw the first line
G1 X10.4 Y200.0 Z0.28 F5000.0 ;Move to side a little
G1 X10.4 Y20 Z0.28 F1500.0 E30 ;Draw the second line
G92 E0 ;Reset Extruder
G1 Z2.0 F3000 ;Move Z Axis up

G92 E0
G92 E0
G1 F2700 E-5
;LAYER_COUNT:28
;LAYER:0
M107
;MESH:turret_drive_gear.obj
G0 F6000 X111.578 Y112.751 Z0.2
;TYPE:WALL-INNER
G1 F2700 E0
G1 F600 X113.143 Y110.034 E0.10429
G1 X111.571 Y107.324 E0.20849
G1 X108.441 Y107.326 E0.31259
G1 X106.876 Y110.043 E0.41688
G1 X108.448 Y112.752 E0.52105
G1 X111.578 Y112.751 E0.62516
G0 F6000 X111.347 Y112.351
G1 F600 X112.681 Y110.035 E0.71405
G1 X111.341 Y107.724 E0.8029
G1 X108.672 Y107.726 E0.89167
G1 X107.338 Y110.042 E0.98057
G1 X108.678 Y112.352 E1.06939
G1 X111.347 Y112.351 E1.15816
G0 F6000 X111.116 Y111.951
G1 F600 X112.219 Y110.036 E1.23167
G1 X111.111 Y108.124 E1.30517
G1 X108.903 Y108.126 E1.3786
G1 X107.8 Y110.041 E1.45211
G1 X108.908 Y111.952 E1.52558
G1 X111.116 Y111.951 E1.59902
G0 F6000 X110.885 Y111.551
;TYPE:WALL-OUTER
G1 F600 X111.757 Y110.037 E1.65713
G1 X110.881 Y108.524 E1.71528
G1 X109.134 Y108.526 E1.77338
G1 X108.262 Y110.04 E1.83149
G1 X109.138 Y111.552 E1.88961
G1 X110.885 Y111.551 E1.94772
G1 F2700 E-3.05228
G0 F6000 X111.144 Y111.7
G0 X111.092 Y112.961
G0 X112.255 Y116.514
G0 X111.093 Y117.115
;TYPE:WALL-INNER
G1 F2700 E1.94772
G1 F600 X108.738 Y117.086 E2.02605
G1 X106.514 Y116.288 E2.10464
G1 X104.678 Y114.82 E2.18282
G1 X103.413 Y112.828 E2.26131
G1 X102.863 Y110.534 E2.33977
G1 X103.09 Y108.191 E2.41806
G1 X104.063 Y106.045 E2.49643
G1 X105.683 Y104.332 E2.57485
G1 X107.775 Y103.235 E2.65342
G1 X110.099 Y102.879 E2.73162
G1 X112.426 Y103.297 E2.81025
G1 X114.48 Y104.446 E2.88853
G1 X116.053 Y106.2 E2.96689
G1 X116.973 Y108.374 E3.04541
G1 X117.136 Y110.721 E3.12366
G1 X116.53 Y112.996 E3.20196
G1 X115.21 Y114.96 E3.28067
G1 X113.33 Y116.382 E3.35907
G1 X111.093 Y117.115 E3.43736
G0 F6000 X111.154 Y117.516
G1 F600 X108.665 Y117.485 E3.52015
G1 X106.318 Y116.643 E3.60309
G1 X104.376 Y115.09 E3.68579
G1 X103.04 Y112.986 E3.76869
G1 X102.459 Y110.563 E3.85156
G1 X102.698 Y108.087 E3.9343
G1 X103.728 Y105.817 E4.01721
G1 X105.437 Y104.01 E4.09993
G1 X107.647 Y102.85 E4.18294
G1 X110.107 Y102.474 E4.26571
G1 X112.561 Y102.915 E4.34864
G1 X114.734 Y104.13 E4.43145
G1 X116.395 Y105.982 E4.51419
G1 X117.367 Y108.28 E4.59718
G1 X117.54 Y110.761 E4.6799
G1 X116.9 Y113.162 E4.76254
G1 X115.505 Y115.238 E4.84573
G1 X113.517 Y116.742 E4.92864
G1 X111.154 Y117.516 E5.01134
G0 F6000 X111.077 Y118.324
G1 F600 X111.055 Y117.915 E5.02497
G1 X108.756 Y117.886 E5.10144
G1 X108.723 Y118.285 E5.11475
G1 X108.665 Y118.977 E5.13785
G1 X108.591 Y119.239 E5.14691
G1 X108.445 Y119.545 E5.15818
G1 X108.278 Y119.816 E5.16877
G1 X108.235 Y119.874 E5.17117
G1 X108.217 Y119.815
G1 X108.161 Y119.543 E5.17517
G1 X108.123 Y119.178 E5.18737
G1 X108.139 Y118.894 E5.19683
G1 X108.331 Y118.215 E5.2203
G1 X108.439 Y117.829 E5.23235
G1 X106.276 Y117.053 E5.30878
G1 X106.114 Y117.423 E5.32222
G1 X105.827 Y118.077 E5.34597
G1 X105.707 Y118.248 E5.35292
G1 X105.452 Y118.512 E5.36513
G1 X105.246 Y118.684 E5.37405
G1 X105.134 Y118.763 E5.37861
G1 X105.173 Y118.432 E5.38482
G1 X105.241 Y118.124 E5.39531
G1 X105.357 Y117.822 E5.40607
G1 X105.765 Y117.229 E5.43001
G1 X105.994 Y116.896 E5.44216
G1 X104.2 Y115.462 E5.51855
G1 X103.921 Y115.764 E5.53223
G1 X103.452 Y116.273 E5.55525
G1 X103.087 Y116.509 E5.5697
G1 X102.835 Y116.621 E5.57888
G1 X102.563 Y116.71 E5.5884
G1 X102.679 Y116.466 E5.59121
G1 X102.825 Y116.212 E5.59889
G1 X102.986 Y115.991 E5.60798
G1 X103.095 Y115.879 E5.61318
G1 X103.655 Y115.467 E5.63631
G1 X103.986 Y115.223 E5.64864
G1 X102.754 Y113.281 E5.72513
G1 X102.397 Y113.474 E5.73863
G1 X101.777 Y113.81 E5.76208
G1 X101.365 Y113.91 E5.77618
G1 X101.01 Y113.936 E5.78802
G1 X100.806 Y113.93 E5.79481
G1 X100.843 Y113.888
G1 X101.039 Y113.692 E5.80141
G1 X101.241 Y113.52 E5.80831
G1 X101.456 Y113.375 E5.81694
G1 X101.571 Y113.318 E5.82121
G1 X102.242 Y113.106 E5.84461
G1 X102.629 Y112.985 E5.85678
G1 X102.093 Y110.752 E5.93316
G1 X101.691 Y110.818 E5.94671
G1 X101 Y110.932 E5.97001
G1 X100.661 Y110.91 E5.9813
G1 X100.355 Y110.841 E5.99174
G1 X100.099 Y110.758 E6.00069
G1 X100.036 Y110.733 E6.00294
G1 X100.082 Y110.706
G1 X100.393 Y110.559 E6.0089
G1 X100.717 Y110.447 E6.02031
G1 X100.972 Y110.401 E6.02892
G1 X101.662 Y110.42 E6.05188
G1 X102.07 Y110.431 E6.06414
G1 X102.291 Y108.143 E6.14059
G1 X101.888 Y108.076 E6.15418
G1 X101.195 Y107.959 E6.17756
G1 X100.919 Y107.847 E6.18746
G1 X100.667 Y107.697 E6.19722
G1 X100.464 Y107.549 E6.20557
G1 X100.355 Y107.458 E6.21029
G1 X100.427 Y107.443
G1 X100.739 Y107.408 E6.21641
G1 X101.054 Y107.403 E6.22689
G1 X101.333 Y107.443 E6.23626
G1 X101.991 Y107.69 E6.25964
G1 X102.374 Y107.833 E6.27189
G1 X103.324 Y105.74 E6.34834
G1 X102.967 Y105.546 E6.36186
G1 X102.353 Y105.213 E6.38509
G1 X102.185 Y105.075 E6.39232
G1 X101.933 Y104.79 E6.40497
G1 X101.713 Y104.465 E6.41803
G1 X101.842 Y104.483
G1 X102.099 Y104.542 E6.42206
G1 X102.394 Y104.64 E6.4324
G1 X102.639 Y104.763 E6.44152
G1 X103.189 Y105.215 E6.4652
G1 X103.503 Y105.473 E6.4774
G1 X105.082 Y103.803 E6.55384
G1 X104.809 Y103.506 E6.56726
G1 X104.335 Y102.989 E6.59059
G1 X104.22 Y102.802 E6.59789
G1 X104.072 Y102.444 E6.61077
G1 X104.002 Y102.202 E6.61915
G1 X103.974 Y102.072 E6.62358
G1 X104.038 Y102.104
G1 X104.262 Y102.238 E6.62814
G1 X104.527 Y102.432 E6.63906
G1 X104.72 Y102.616 E6.64793
G1 X104.754 Y102.661 E6.64981
G1 X105.127 Y103.265 E6.67342
G1 X105.339 Y103.609 E6.68557
G1 X107.372 Y102.542 E6.76194
G1 X107.213 Y102.175 E6.77524
G1 X106.924 Y101.509 E6.79939
G1 X106.882 Y101.317 E6.80592
G1 X106.86 Y101.047 E6.81493
G1 X106.867 Y100.747 E6.82491
G1 X106.888 Y100.545 E6.83167
G1 X106.934 Y100.592
G1 X107.12 Y100.814 E6.83898
G1 X107.262 Y101.012 E6.84708
G1 X107.39 Y101.24 E6.85578
G1 X107.435 Y101.356 E6.85991
G1 X107.592 Y102.05 E6.88358
G1 X107.68 Y102.44 E6.89563
G1 X109.952 Y102.093 E6.97207
G1 X109.919 Y101.683 E6.98576
G1 X109.861 Y100.977 E7.00932
G1 X109.911 Y100.651 E7.02029
G1 X109.987 Y100.402 E7.02894
G1 X110.138 Y100.049 E7.04171
G1 X110.196 Y100.172
G1 X110.283 Y100.409 E7.04531
G1 X110.357 Y100.676 E7.05452
G1 X110.395 Y100.965 E7.06422
G1 X110.317 Y101.688 E7.0884
G1 X110.273 Y102.097 E7.10075
G1 X112.535 Y102.504 E7.1772
G1 X112.635 Y102.111 E7.19068
G1 X112.811 Y101.418 E7.21447
G1 X112.896 Y101.239 E7.22106
G1 X113.05 Y101.005 E7.23037
G1 X113.105 Y100.932 E7.23341
G1 X113.332 Y100.673 E7.24487
G1 X113.377 Y100.628 E7.24698
G1 X113.384 Y100.682
G1 X113.394 Y100.964 E7.25084
G1 X113.383 Y101.239 E7.25999
G1 X113.338 Y101.523 E7.26955
G1 X113.313 Y101.603 E7.27234
G1 X113.01 Y102.245 E7.29595
G1 X112.838 Y102.612 E7.30812
G1 X114.844 Y103.733 E7.38455
G1 X115.063 Y103.398 E7.39786
G1 X115.446 Y102.811 E7.42117
G1 X115.61 Y102.642 E7.42901
G1 X115.846 Y102.463 E7.43886
G1 X116.128 Y102.294 E7.44979
G1 X116.251 Y102.233 E7.45436
G1 X116.237 Y102.294
G1 X116.137 Y102.612 E7.4607
G1 X116.023 Y102.885 E7.47054
G1 X115.886 Y103.117 E7.4795
G1 X115.375 Y103.647 E7.50399
G1 X115.097 Y103.935 E7.51604
G1 X116.629 Y105.644 E7.59238
G1 X116.947 Y105.397 E7.60577
G1 X117.516 Y104.956 E7.62972
G1 X117.7 Y104.865 E7.63654
G1 X117.942 Y104.783 E7.64504
G1 X118.304 Y104.701 E7.65739
G1 X118.448 Y104.683 E7.66221
G1 X118.289 Y104.912 E7.6667
G1 X117.989 Y105.256 E7.68188
G1 X117.799 Y105.41 E7.69002
G1 X117.161 Y105.734 E7.71382
G1 X116.802 Y105.916 E7.72592
G1 X117.697 Y108.034 E7.80239
G1 X118.086 Y107.9 E7.81608
G1 X118.739 Y107.675 E7.83905
G1 X119.041 Y107.64 E7.84916
G1 X119.339 Y107.653 E7.85908
G1 X119.66 Y107.696 E7.86985
G1 X119.727 Y107.712 E7.87215
G1 X119.676 Y107.755
G1 X119.454 Y107.912 E7.87593
G1 X119.179 Y108.072 E7.88651
G1 X118.864 Y108.193 E7.89774
G1 X118.18 Y108.289 E7.92071
G1 X117.772 Y108.345 E7.93304
G1 X117.932 Y110.638 E8.00949
G1 X118.378 Y110.638 E8.02432
G1 X119.032 Y110.638 E8.04608
G1 X119.261 Y110.681 E8.05382
G1 X119.551 Y110.786 E8.06408
G1 X119.902 Y110.961 E8.07713
G1 X119.956 Y110.994 E8.07923
G1 X119.9 Y111.016
G1 X119.628 Y111.096 E8.08307
G1 X119.368 Y111.149 E8.0919
G1 X119.034 Y111.175 E8.10304
G1 X119.006 Y111.173 E8.10397
G1 X118.484 Y111.073 E8.12165
G1 X117.911 Y110.919 E8.13885
G1 X117.309 Y113.179 E8.21664
G1 X117.695 Y113.311 E8.23021
G1 X118.348 Y113.536 E8.25318
G1 X118.581 Y113.673 E8.26217
G1 X118.924 Y113.972 E8.27731
G1 X119.108 Y114.17 E8.2863
G1 X118.975 Y114.174
G1 X118.595 Y114.145 E8.29669
G1 X118.313 Y114.088 E8.30626
G1 X118.132 Y114.023 E8.31266
G1 X117.528 Y113.674 E8.33586
G1 X117.175 Y113.47 E8.34808
G1 X115.893 Y115.378 E8.42454
G1 X116.211 Y115.625 E8.43793
G1 X116.759 Y116.053 E8.46106
G1 X116.913 Y116.227 E8.46878
G1 X117.108 Y116.542 E8.48111
G1 X117.248 Y116.84 E8.49206
G1 X117.272 Y116.902 E8.49427
G1 X117.201 Y116.881
G1 X116.952 Y116.783 E8.49796
G1 X116.668 Y116.64 E8.50854
G1 X116.452 Y116.494 E8.51721
G1 X116.407 Y116.454 E8.51921
G1 X115.937 Y115.916 E8.54297
G1 X115.672 Y115.613 E8.55508
G1 X113.841 Y116.999 E8.63146
G1 X114.06 Y117.336 E8.64482
G1 X114.446 Y117.928 E8.66833
G1 X114.548 Y118.2 E8.67799
G1 X114.62 Y118.553 E8.68997
G1 X114.647 Y118.816 E8.69877
G1 X114.649 Y118.89 E8.70123
G1 X114.592 Y118.849
G1 X114.384 Y118.67 E8.70544
G1 X114.197 Y118.482 E8.71426
G1 X113.973 Y118.175 E8.7269
G1 X113.707 Y117.522 E8.75035
G1 X113.556 Y117.15 E8.76242
G1 X111.372 Y117.866 E8.83887
G1 X111.472 Y118.263 E8.85114
G1 X111.642 Y118.937 E8.87426
G1 X111.652 Y119.238 E8.88428
G1 X111.627 Y119.467 E8.89194
G1 X111.562 Y119.783 E8.90267
G1 X111.523 Y119.916 E8.90728
G1 X111.483 Y119.859
G1 X111.345 Y119.625 E8.91204
G1 X111.245 Y119.423 E8.91796
G1 X111.14 Y119.138 E8.92806
G1 X111.116 Y119.023 E8.93197
G1 X111.077 Y118.324 E8.95525
G0 F6000 X110.676 Y118.31
;TYPE:WALL-OUTER
G1 F600 X109.124 Y118.291 E9.00687
G1 X109.061 Y119.048 E9.03214
G1 X108.969 Y119.372 E9.04334
G1 X108.911 Y119.508 E9.04826
G1 X108.798 Y119.734 E9.05666
G1 X108.607 Y120.043 E9.06875
G1 X108.397 Y120.328 E9.08052
G1 X108.361 Y120.373 E9.08244
G1 X107.941 Y120.297 E9.09663
G1 X107.828 Y119.908 E9.11011
G1 X107.765 Y119.605 E9.1204
G1 X107.722 Y119.194 E9.13414
G1 X107.729 Y118.922 E9.14319
G1 X107.746 Y118.816 E9.14676
G1 X107.953 Y118.08 E9.17219
G1 X106.492 Y117.556 E9.22382
G1 X106.177 Y118.274 E9.2499
G1 X106.017 Y118.502 E9.25916
G1 X105.719 Y118.81 E9.27341
G1 X105.491 Y119.001 E9.28331
G1 X105.222 Y119.196 E9.29436
G1 X105.095 Y119.278 E9.29939
G1 X104.721 Y119.069 E9.31364
G1 X104.721 Y119.023 E9.31516
G1 X104.734 Y118.744 E9.32445
G1 X104.779 Y118.36 E9.33731
G1 X104.855 Y118.016 E9.34903
G1 X104.941 Y117.764 E9.35789
G1 X105.01 Y117.62 E9.3632
G1 X105.453 Y116.976 E9.3892
G1 X104.241 Y116.007 E9.44081
G1 X103.722 Y116.57 E9.46628
G1 X103.519 Y116.726 E9.47479
G1 X103.265 Y116.868 E9.48447
G1 X102.977 Y116.995 E9.49494
G1 X102.588 Y117.123 E9.50856
G1 X102.361 Y117.182 E9.51636
G1 X102.077 Y116.865 E9.53052
G1 X102.19 Y116.565 E9.54118
G1 X102.328 Y116.274 E9.55189
G1 X102.49 Y115.992 E9.56271
G1 X102.676 Y115.736 E9.57323
G1 X102.833 Y115.575 E9.58071
G1 X103.448 Y115.122 E9.60612
G1 X102.616 Y113.811 E9.65776
G1 X101.935 Y114.18 E9.68352
G1 X101.666 Y114.264 E9.69289
G1 X101.413 Y114.308 E9.70144
G1 X101.017 Y114.337 E9.71464
G1 X100.6 Y114.324 E9.72852
G1 X100.455 Y114.312 E9.73336
G1 X100.289 Y113.918 E9.74758
G1 X100.552 Y113.612 E9.761
G1 X100.767 Y113.398 E9.77109
G1 X101.001 Y113.199 E9.7813
G1 X101.253 Y113.029 E9.79141
G1 X101.417 Y112.948 E9.7975
G1 X102.153 Y112.716 E9.82316
G1 X101.791 Y111.207 E9.87478
G1 X101.022 Y111.334 E9.9007
G1 X100.602 Y111.307 E9.9147
G1 X100.245 Y111.226 E9.92688
G1 X99.967 Y111.136 E9.93659
G1 X99.718 Y111.039 E9.94548
G1 X99.586 Y110.979 E9.9503
G1 X99.556 Y110.553 E9.96451
G1 X99.903 Y110.348 E9.97791
G1 X100.239 Y110.189 E9.99028
G1 X100.616 Y110.058 E10.00355
G1 X100.942 Y110 E10.01456
G1 X101.708 Y110.021 E10.04005
G1 X101.857 Y108.476 E10.09168
G1 X101.085 Y108.346 E10.11772
G1 X100.739 Y108.205 E10.13014
G1 X100.446 Y108.031 E10.14148
G1 X100.212 Y107.86 E10.15112
G1 X99.957 Y107.648 E10.16215
G1 X99.845 Y107.542 E10.16727
G1 X99.955 Y107.131 E10.18143
G1 X100.358 Y107.049 E10.1951
G1 X100.719 Y107.008 E10.20719
G1 X101.072 Y107.003 E10.21893
G1 X101.323 Y107.029 E10.22732
G1 X101.451 Y107.06 E10.2317
G1 X102.164 Y107.327 E10.25703
G1 X102.806 Y105.914 E10.30865
G1 X102.134 Y105.55 E10.33406
G1 X101.902 Y105.36 E10.34404
G1 X101.619 Y105.039 E10.35827
G1 X101.36 Y104.657 E10.37362
G1 X101.206 Y104.378 E10.38422
G1 X101.444 Y104.024 E10.39841
G1 X101.92 Y104.09 E10.41439
G1 X102.205 Y104.156 E10.42412
G1 X102.541 Y104.267 E10.43589
G1 X102.774 Y104.375 E10.44443
G1 X102.871 Y104.436 E10.44824
G1 X103.469 Y104.927 E10.47398
G1 X104.535 Y103.799 E10.5256
G1 X104.014 Y103.231 E10.55124
G1 X103.861 Y102.982 E10.56096
G1 X103.695 Y102.58 E10.57542
G1 X103.614 Y102.301 E10.58508
G1 X103.543 Y101.97 E10.59634
G1 X103.52 Y101.827 E10.60116
G1 X103.861 Y101.569 E10.61538
G1 X104.228 Y101.752 E10.62902
G1 X104.487 Y101.907 E10.63906
G1 X104.782 Y102.123 E10.65122
G1 X105.021 Y102.351 E10.66221
G1 X105.084 Y102.432 E10.66562
G1 X105.484 Y103.081 E10.69098
G1 X106.857 Y102.36 E10.74256
G1 X106.541 Y101.631 E10.76898
G1 X106.485 Y101.377 E10.77764
G1 X106.46 Y101.06 E10.78821
G1 X106.467 Y100.722 E10.79946
G1 X106.5 Y100.402 E10.81016
G1 X106.538 Y100.166 E10.81811
G1 X106.944 Y100.032 E10.83233
G1 X107.232 Y100.324 E10.84597
G1 X107.427 Y100.557 E10.85607
G1 X107.602 Y100.802 E10.86609
G1 X107.751 Y101.066 E10.87617
G1 X107.819 Y101.239 E10.88235
G1 X107.988 Y101.988 E10.90789
G1 X109.523 Y101.754 E10.95953
G1 X109.458 Y100.966 E10.98583
G1 X109.521 Y100.556 E10.99963
G1 X109.604 Y100.284 E11.00909
G1 X109.71 Y100.015 E11.0187
G1 X109.86 Y99.706 E11.03013
G1 X109.932 Y99.574 E11.03513
G1 X110.359 Y99.579 E11.04933
G1 X110.565 Y100.017 E11.06543
G1 X110.666 Y100.29 E11.07511
G1 X110.746 Y100.582 E11.08518
G1 X110.788 Y100.832 E11.09361
G1 X110.796 Y100.981 E11.09858
G1 X110.711 Y101.769 E11.12494
G1 X112.239 Y102.044 E11.17658
G1 X112.432 Y101.283 E11.20269
G1 X112.548 Y101.04 E11.21164
G1 X112.717 Y100.782 E11.2219
G1 X112.799 Y100.675 E11.22639
G1 X113.041 Y100.398 E11.23862
G1 X113.227 Y100.213 E11.24735
G1 X113.334 Y100.115 E11.25217
G1 X113.736 Y100.259 E11.26637
G1 X113.784 Y100.663 E11.27991
G1 X113.795 Y100.966 E11.28999
G1 X113.782 Y101.28 E11.30044
G1 X113.729 Y101.61 E11.31156
G1 X113.686 Y101.75 E11.31643
G1 X113.359 Y102.445 E11.34198
G1 X114.713 Y103.202 E11.39357
G1 X115.132 Y102.56 E11.41907
G1 X115.341 Y102.345 E11.42904
G1 X115.625 Y102.129 E11.44091
G1 X115.938 Y101.941 E11.45305
G1 X116.243 Y101.791 E11.46436
G1 X116.375 Y101.733 E11.46915
G1 X116.708 Y101.999 E11.48333
G1 X116.684 Y102.137 E11.48799
G1 X116.623 Y102.401 E11.497
G1 X116.514 Y102.749 E11.50913
G1 X116.381 Y103.065 E11.52053
G1 X116.216 Y103.345 E11.53134
G1 X116.173 Y103.397 E11.53359
G1 X115.643 Y103.945 E11.55894
G1 X116.678 Y105.1 E11.61053
G1 X117.302 Y104.616 E11.63679
G1 X117.548 Y104.494 E11.64592
G1 X117.831 Y104.398 E11.65586
G1 X118.239 Y104.306 E11.66977
G1 X118.583 Y104.262 E11.68131
G1 X118.727 Y104.25 E11.68612
G1 X118.956 Y104.611 E11.70033
G1 X118.932 Y104.655 E11.702
G1 X118.79 Y104.892 E11.71119
G1 X118.614 Y105.146 E11.72147
G1 X118.447 Y105.354 E11.73034
