;FLAVOR:Marlin
;TIME:857
;Filament used: 0.590282m
;Layer height: 0.2
;MINX:93.7
;MINY:93.982
;MINZ:0.24
;MAXX:126.299
;MAXY:126.266
;MAXZ:6.69
;Generated with Cura_SteamEngine 4.12.1
M140 S50
M105
M190 S50
M104 S200
M105
M109 S200
M82 ;absolute extrusion mode
M201 X500.00 Y500.00 Z100.00 E5000.00 ;Setup machine max acceleration
M203 X500.00 Y500.00 Z10.00 E50.00 ;Setup machine max feedrate
M204 P500.00 R1000.00 T500.00 ;Setup Print/Retract/Travel acceleration
M205 X8.00 Y8.00 Z0.40 E5.00 ;Setup Jerk
M220 S100 ;Reset Feedrate
M221 S100 ;Reset Flowrate

G28 ;Home

G92 E0 ;Reset Extruder
G1 Z2.0 F3000 ;Move Z Axis up
G1 X10.1 Y20 Z0.28 F5000.0 ;Move to start position
G1 X10.1 Y200.0 Z0.28 F1500.0 E15 ;Draw the first line
G1 X10.4 Y200.0 Z0.28 F5000.0 ;Move to side a little
G1 X10.4 Y20 Z0.28 F1500.0 E30 ;Draw the second line
G92 E0 ;Reset Extruder
G1 Z2.0 F3000 ;Move Z Axis up

G92 E0
G92 E0
G1 F2700 E-5
;LAYER_COUNT:28
;LAYER:-6
M107
G0 F12000 X100.14 Y98.427 Z0.24
;TYPE:SUPPORT-INTERFACE
G1 F2700 E0
G1 F1800 X100.533 Y98.076 E0.04206
G1 X100.668 Y97.965 E0.05601
G1 X100.951 Y97.752 E0.08429
G1 X101.04 Y97.688 E0.09304
G1 X101.39 Y97.457 E0.12651
G1 X101.614 Y97.329 E0.14711
G1 X101.869 Y97.203 E0.16981
G1 X102.173 Y97.077 E0.19608
G1 X102.271 Y97.043 E0.20436
G1 X102.892 Y96.785 E0.25804
G1 X103.577 Y96.381 E0.32152
G1 X103.913 Y96.148 E0.35416
G1 X104.158 Y95.999 E0.37705
G1 X104.437 Y95.857 E0.40204
G1 X104.893 Y95.663 E0.44159
G1 X105.085 Y95.59 E0.45799
G1 X105.385 Y95.491 E0.48321
G1 X105.571 Y95.436 E0.49869
G1 X105.915 Y95.346 E0.52708
G1 X106.177 Y95.294 E0.5484
G1 X106.493 Y95.253 E0.57383
G1 X106.767 Y95.235 E0.59575
G1 X106.937 Y95.234 E0.60932
G1 X107.609 Y95.189 E0.66308
G1 X108.438 Y95.013 E0.73073
G1 X108.701 Y94.934 E0.75265
G1 X108.965 Y94.874 E0.77427
G1 X109.282 Y94.824 E0.79988
G1 X109.849 Y94.782 E0.84527
G1 X110.064 Y94.774 E0.86244
G1 X110.38 Y94.779 E0.88767
G1 X110.55 Y94.787 E0.90125
G1 X110.913 Y94.815 E0.93032
G1 X111.201 Y94.856 E0.95354
G1 X111.479 Y94.913 E0.97619
G1 X111.761 Y94.989 E0.9995
G1 X111.886 Y95.032 E1.01006
G1 X112.534 Y95.208 E1.06366
G1 X113.318 Y95.31 E1.12677
G1 X113.735 Y95.331 E1.16009
G1 X113.999 Y95.362 E1.18131
G1 X114.336 Y95.428 E1.20872
G1 X114.824 Y95.559 E1.24906
G1 X115.015 Y95.618 E1.26502
G1 X115.331 Y95.732 E1.29183
G1 X115.445 Y95.777 E1.30161
G1 X115.821 Y95.938 E1.33426
G1 X116.057 Y96.058 E1.3554
G1 X116.313 Y96.21 E1.37916
G1 X116.549 Y96.371 E1.40197
G1 X116.656 Y96.454 E1.41278
G1 X117.212 Y96.832 E1.46645
G1 X117.91 Y97.178 E1.52863
G1 X118.313 Y97.342 E1.56336
G1 X118.549 Y97.456 E1.58429
G1 X118.862 Y97.636 E1.61311
G1 X119.257 Y97.903 E1.65117
G1 X119.425 Y98.027 E1.66783
G1 X119.664 Y98.219 E1.6923
G1 X119.815 Y98.347 E1.70811
G1 X120.074 Y98.583 E1.73608
G1 X120.265 Y98.779 E1.75792
G1 X120.475 Y99.025 E1.78374
G1 X120.628 Y99.231 E1.80422
G1 X120.711 Y99.356 E1.8162
G1 X121.114 Y99.892 E1.86973
G1 X121.663 Y100.447 E1.93205
G1 X121.992 Y100.734 E1.9669
G1 X122.178 Y100.917 E1.98773
G1 X122.398 Y101.168 E2.01437
G1 X122.695 Y101.561 E2.05369
G1 X122.801 Y101.712 E2.06842
G1 X122.998 Y102.023 E2.0978
G1 X123.066 Y102.14 E2.10861
G1 X123.249 Y102.473 E2.13894
G1 X123.37 Y102.731 E2.16168
G1 X123.47 Y102.983 E2.18333
G1 X123.567 Y103.283 E2.20849
G1 X123.616 Y103.471 E2.224
G1 X123.824 Y104.112 E2.2778
G1 X124.22 Y104.912 E2.34905
G1 X124.299 Y105.042 E2.36119
G1 X124.421 Y105.275 E2.38219
G1 X124.539 Y105.544 E2.40564
G1 X124.697 Y105.988 E2.44326
G1 X124.749 Y106.15 E2.45684
G1 X124.851 Y106.52 E2.48747
G1 X124.879 Y106.634 E2.49684
G1 X124.964 Y107.041 E2.53003
G1 X124.999 Y107.292 E2.55026
G1 X125.024 Y107.603 E2.57517
G1 X125.029 Y107.869 E2.59641
G1 X124.988 Y108.767 E2.66816
G1 X125.012 Y108.767 E2.67008
G1 X125.033 Y109.212 E2.70564
G1 X125.028 Y109.255 E2.7091
G1 X125.183 Y110.08 E2.7761
G1 X125.22 Y110.372 E2.7996
G1 X125.235 Y110.667 E2.82318
G1 X125.225 Y111.17 E2.86334
G1 X125.215 Y111.347 E2.87749
G1 X125.182 Y111.684 E2.90452
G1 X125.165 Y111.819 E2.91538
G1 X125.1 Y112.213 E2.94725
G1 X125.035 Y112.495 E2.97036
G1 X124.952 Y112.776 E2.99374
G1 X124.848 Y113.059 E3.01781
G1 X124.787 Y113.197 E3.02986
G1 X124.554 Y113.83 E3.0837
G1 X124.375 Y114.69 E3.15382
G1 X124.352 Y114.883 E3.16933
G1 X124.301 Y115.152 E3.19119
G1 X124.224 Y115.45 E3.21576
G1 X124.08 Y115.886 E3.25241
G1 X124.029 Y116.024 E3.26415
G1 X123.888 Y116.361 E3.29331
G1 X123.814 Y116.525 E3.30768
G1 X123.661 Y116.838 E3.33549
G1 X123.512 Y117.098 E3.35941
G1 X123.345 Y117.352 E3.38367
G1 X123.186 Y117.563 E3.40476
G1 X122.608 Y118.237 E3.47564
G1 X122.615 Y118.242 E3.47632
G1 X122.252 Y118.791 E3.52886
G1 X122.091 Y119.094 E3.55625
G1 X121.989 Y119.303 E3.57482
G1 X121.856 Y119.535 E3.59616
G1 X121.679 Y119.802 E3.62173
G1 X121.442 Y120.112 E3.65288
G1 X121.314 Y120.268 E3.66899
G1 X121.08 Y120.533 E3.69721
G1 X120.99 Y120.629 E3.70771
G1 X120.715 Y120.904 E3.73876
G1 X120.493 Y121.1 E3.7624
G1 X120.271 Y121.271 E3.78477
G1 X120.033 Y121.433 E3.80775
G1 X119.29 Y121.871 E3.8766
G1 X119.262 Y121.902 E3.87993
G1 X118.568 Y122.478 E3.95192
G1 X118.307 Y122.736 E3.98122
G1 X118.126 Y122.894 E4.0004
G1 X117.852 Y123.097 E4.02762
G1 X117.395 Y123.39 E4.07095
G1 X117.247 Y123.476 E4.08461
G1 X116.935 Y123.639 E4.11271
G1 X116.787 Y123.71 E4.12582
G1 X116.453 Y123.86 E4.15504
G1 X116.192 Y123.956 E4.17724
G1 X115.907 Y124.043 E4.20103
G1 X115.621 Y124.11 E4.22448
G1 X115.491 Y124.132 E4.235
G1 X114.837 Y124.286 E4.28863
G1 X114.12 Y124.561 E4.34993
G1 X113.712 Y124.752 E4.38589
G1 X113.46 Y124.852 E4.40754
G1 X113.135 Y124.953 E4.4347
G1 X112.668 Y125.063 E4.473
G1 X112.461 Y125.103 E4.48983
G1 X112.136 Y125.153 E4.51608
G1 X111.984 Y125.171 E4.5283
G1 X111.623 Y125.203 E4.55723
G1 X111.329 Y125.211 E4.5807
G1 X111.029 Y125.198 E4.60467
G1 X110.735 Y125.169 E4.62825
G1 X110.622 Y125.149 E4.63741
G1 X109.953 Y125.082 E4.69108
G1 X109.179 Y125.11 E4.75291
G1 X108.74 Y125.158 E4.78816
G1 X108.455 Y125.171 E4.81093
G1 X108.138 Y125.162 E4.83625
G1 X107.633 Y125.113 E4.87675
G1 X107.444 Y125.086 E4.89199
G1 X107.126 Y125.028 E4.91779
G1 X106.956 Y124.992 E4.93166
G1 X106.623 Y124.91 E4.95904
G1 X106.321 Y124.815 E4.98431
G1 X106.059 Y124.713 E5.00675
G1 X105.788 Y124.588 E5.03058
G1 X105.675 Y124.527 E5.04083
G1 X105.064 Y124.246 E5.09451
G1 X104.307 Y124.018 E5.15762
G1 X103.897 Y123.927 E5.19114
G1 X103.668 Y123.86 E5.21019
G1 X103.343 Y123.74 E5.23784
G1 X102.859 Y123.521 E5.28025
G1 X102.717 Y123.449 E5.29296
G1 X102.396 Y123.27 E5.3223
G1 X102.279 Y123.199 E5.33322
G1 X101.96 Y122.993 E5.36353
G1 X101.731 Y122.823 E5.3863
G1 X101.499 Y122.628 E5.41049
G1 X101.312 Y122.448 E5.43121
G1 X101.219 Y122.348 E5.44211
G1 X100.734 Y121.883 E5.49574
G1 X100.085 Y121.414 E5.55966
G1 X99.708 Y121.184 E5.59491
G1 X99.519 Y121.05 E5.61341
G1 X99.257 Y120.836 E5.64041
G1 X98.858 Y120.459 E5.68423
G1 X98.754 Y120.351 E5.6962
G1 X98.498 Y120.066 E5.72678
G1 X98.445 Y120.002 E5.73341
G1 X98.186 Y119.672 E5.7669
G1 X98.031 Y119.447 E5.78871
G1 X97.879 Y119.192 E5.81241
G1 X97.747 Y118.939 E5.83518
G1 X97.699 Y118.83 E5.84469
G1 X97.391 Y118.232 E5.89839
G1 X96.927 Y117.575 E5.96259
G1 X96.663 Y117.256 E5.99564
G1 X96.497 Y117.028 E6.01816
G1 X96.333 Y116.76 E6.04324
G1 X96.081 Y116.277 E6.08672
G1 X96.003 Y116.111 E6.10137
G1 X95.861 Y115.771 E6.13078
G1 X95.829 Y115.687 E6.13795
G1 X95.691 Y115.291 E6.17143
G1 X95.624 Y115.049 E6.19147
G1 X95.559 Y114.738 E6.21683
G1 X95.519 Y114.46 E6.23925
G1 X95.511 Y114.358 E6.24742
G1 X95.414 Y113.692 E6.30114
G1 X95.187 Y112.914 E6.36584
G1 X95.046 Y112.543 E6.39752
G1 X94.963 Y112.266 E6.4206
G1 X94.891 Y111.952 E6.44632
G1 X94.813 Y111.44 E6.48766
G1 X94.792 Y111.249 E6.503
G1 X94.769 Y110.912 E6.52996
G1 X94.764 Y110.77 E6.5413
G1 X94.761 Y110.384 E6.57212
G1 X94.778 Y110.096 E6.59514
G1 X94.814 Y109.8 E6.61895
G1 X94.866 Y109.527 E6.64113
G1 X94.894 Y109.419 E6.65004
G1 X95.018 Y108.76 E6.70356
G1 X95.041 Y108.375 E6.73435
G1 X95.065 Y108.375 E6.73627
G1 X95.045 Y107.5 E6.80613
G1 X95.057 Y107.209 E6.82938
G1 X95.09 Y106.917 E6.85284
G1 X95.178 Y106.441 E6.89148
G1 X95.22 Y106.257 E6.90654
G1 X95.313 Y105.908 E6.93537
G1 X95.35 Y105.783 E6.94578
G1 X95.476 Y105.41 E6.97721
G1 X95.579 Y105.159 E6.99886
G1 X95.71 Y104.89 E7.02275
G1 X95.855 Y104.633 E7.0463
G1 X95.924 Y104.528 E7.05633
G1 X96.256 Y103.939 E7.1103
G1 X96.385 Y103.6 E7.13926
G1 X96.415 Y103.61 E7.14178
G1 X96.673 Y102.798 E7.20979
G1 X96.775 Y102.534 E7.23238
G1 X96.913 Y102.243 E7.25809
G1 X97.171 Y101.784 E7.30012
G1 X97.244 Y101.668 E7.31106
G1 X97.459 Y101.349 E7.34177
G1 X97.522 Y101.26 E7.35047
G1 X97.754 Y100.957 E7.38094
G1 X97.96 Y100.722 E7.40588
G1 X98.149 Y100.532 E7.42728
G1 X98.383 Y100.325 E7.45221
G1 X98.479 Y100.25 E7.46194
G1 X98.982 Y99.804 E7.5156
G1 X99.492 Y99.208 E7.57822
G1 X99.743 Y98.865 E7.61214
G1 X99.904 Y98.672 E7.63221
G1 X100.14 Y98.427 E7.65936
G0 F12000 X100.8 Y97.865
G1 F1800 X100.8 Y121.946 E9.58161
G0 F12000 X99.2 Y120.782
G1 F1800 X99.2 Y99.549 E11.27652
G0 F12000 X97.6 Y101.158
G1 F1800 X97.6 Y118.637 E12.67177
G0 F12000 X96 Y116.103
G1 F1800 X96 Y104.393 E13.60651
G1 F2700 E8.60651
G0 F12000 X95.289 Y103.488
G0 X95.968 Y101.75
G0 X96.661 Y100.634
G0 X97.428 Y99.748
G0 X99.4 Y97.661
G0 X100.339 Y96.893
G0 X101.436 Y96.23
G0 X102.4 Y96.989
G1 F2700 E13.60651
G1 F1800 X102.4 Y123.272 E15.70454
G0 F12000 X104 Y123.949
G1 F1800 X104 Y96.095 E17.92796
G0 F12000 X105.6 Y95.428
G1 F1800 X105.6 Y124.492 E20.24798
G0 F12000 X107.2 Y125.041
G1 F1800 X107.2 Y95.216 E22.62874
G0 F12000 X108.8 Y94.911
G1 F1800 X108.8 Y125.152 E25.0427
G0 F12000 X110.4 Y125.126
G1 F1800 X110.4 Y94.78 E27.46505
G0 F12000 X112 Y95.063
G1 F1800 X112 Y125.17 E29.86832
G0 F12000 X113.6 Y124.797
G1 F1800 X113.6 Y95.325 E32.22091
G0 F12000 X115.2 Y95.685
G1 F1800 X115.2 Y124.201 E34.49718
G0 F12000 X116.8 Y123.704
G1 F1800 X116.8 Y96.552 E36.66457
G0 F12000 X118.4 Y97.385
G1 F1800 X118.4 Y122.645 E38.68093
G0 F12000 X120 Y121.453
G1 F1800 X120 Y98.516 E40.51186
G0 F12000 X121.6 Y100.384
G1 F1800 X121.6 Y119.906 E42.07019
G0 F12000 X123.2 Y117.545
G1 F1800 X123.2 Y102.384 E43.28041
G0 F12000 X124.8 Y106.335
G1 F1800 X124.8 Y113.168 E43.82585
G0 F300 X124.8 Y113.168 Z0.54
G0 F12000 X123.813 Y116.524
;TIME_ELAPSED:26.574659
;LAYER:-5
;TYPE:SUPPORT
G1 F1800 X123.887 Y116.36 E43.8438
G1 X124.028 Y116.024 E43.88016
G1 X124.079 Y115.885 E43.89493
G1 X124.152 Y115.667 E43.91787
G1 X104.374 Y95.889 E46.70876
G1 X104.436 Y95.857 E46.71572
G1 X104.892 Y95.663 E46.76517
G1 X105.083 Y95.59 E46.78557
G1 X105.384 Y95.49 E46.81722
G1 X105.389 Y95.489 E46.81773
G1 X124.411 Y114.512 E49.50201
G1 X124.553 Y113.829 E49.57162
G1 X124.712 Y113.398 E49.61745
G1 X106.562 Y95.248 E52.17862
G1 X106.766 Y95.234 E52.19902
G1 X106.936 Y95.233 E52.21598
G1 X107.608 Y95.188 E52.28318
G1 X107.862 Y95.134 E52.30909
G1 X125.07 Y112.342 E54.73733
G1 X125.099 Y112.212 E54.75062
G1 X125.164 Y111.818 E54.79046
G1 X125.181 Y111.683 E54.80404
G1 X125.214 Y111.346 E54.83783
G1 X125.224 Y111.169 E54.85552
G1 X125.226 Y111.084 E54.864
G1 X109.008 Y94.866 E57.15254
G1 X109.281 Y94.823 E57.18011
G1 X109.847 Y94.782 E57.23674
G1 X110.063 Y94.774 E57.2583
G1 X110.335 Y94.779 E57.28545
G1 X125.077 Y109.521 E59.3657
G1 X125.027 Y109.255 E59.39271
G1 X125.04 Y109.252 E59.39404
G1 X125.032 Y109.211 E59.39821
G1 X125.01 Y108.767 E59.44257
G1 X124.986 Y108.767 E59.44496
G1 X125.02 Y108.049 E59.51668
G1 X112.046 Y95.076 E61.34738
G1 X112.533 Y95.207 E61.3977
G1 X113.317 Y95.31 E61.4766
G1 X113.714 Y95.33 E61.51627
G1 X124.829 Y106.445 E63.08471
G1 X124.748 Y106.15 E63.11524
G1 X124.696 Y105.987 E63.13231
G1 X124.538 Y105.544 E63.17924
G1 X124.42 Y105.274 E63.20864
G1 X124.298 Y105.042 E63.2348
G1 X124.218 Y104.912 E63.25003
G1 X123.823 Y104.112 E63.33905
G1 X123.781 Y103.982 E63.35268
G1 X115.674 Y95.875 E64.49667
G1 X115.82 Y95.938 E64.51253
G1 X116.056 Y96.057 E64.53891
G1 X116.311 Y96.21 E64.56858
G1 X116.548 Y96.37 E64.59711
G1 X116.654 Y96.454 E64.61061
G1 X117.21 Y96.831 E64.67764
G1 X117.909 Y97.178 E64.7555
G1 X118.312 Y97.342 E64.79892
G1 X118.548 Y97.455 E64.82503
G1 X118.832 Y97.618 E64.8577
G1 X122.445 Y101.232 E65.3676
G0 F12000 X122.397 Y101.168
G1 F1800 X122.176 Y100.916 E65.40105
G1 X121.991 Y100.734 E65.42694
G1 X121.661 Y100.447 E65.47058
G1 X121.113 Y99.891 E65.54848
G1 X120.71 Y99.355 E65.61539
G1 X120.626 Y99.231 E65.63033
G1 X120.474 Y99.024 E65.65596
G1 X120.264 Y98.779 E65.68816
G1 X120.073 Y98.582 E65.71553
G1 X119.814 Y98.346 E65.7505
G1 X119.662 Y98.219 E65.77026
G1 X119.423 Y98.026 E65.80091
G1 X119.256 Y97.903 E65.82161
G1 X118.861 Y97.635 E65.86924
G1 X118.832 Y97.618 E65.87259
G1 F2700 E60.87259
G0 F12000 X119.426 Y96.733
G0 X120.512 Y97.542
G0 X121.299 Y98.351
G0 X123.561 Y100.941
G0 X124.348 Y102.31
G0 X125.772 Y105.855
G0 X126.058 Y107.187
G0 X126.299 Y110.658
G0 X126.218 Y111.979
G0 X125.965 Y113.106
G0 X125.198 Y115.789
G0 X124.862 Y116.79
G0 X123.813 Y116.524
G1 F2700 E65.87259
G1 F1800 X123.742 Y116.671 E65.88888
G1 X103.498 Y96.427 E68.74553
G1 X102.891 Y96.784 E68.81579
G1 X102.574 Y96.917 E68.85009
G1 X123.2 Y117.543 E71.76065
G1 X123.185 Y117.562 E71.76306
G1 X122.607 Y118.237 E71.85173
G1 X122.614 Y118.241 E71.85254
G1 X122.562 Y118.32 E71.86197
G1 X101.587 Y97.344 E74.82184
G1 X101.389 Y97.456 E74.84454
G1 X101.039 Y97.687 E74.88638
G1 X100.95 Y97.751 E74.89732
G1 X100.739 Y97.91 E74.92368
G1 X122.036 Y119.207 E77.92892
G1 X121.988 Y119.303 E77.93963
G1 X121.855 Y119.534 E77.96623
G1 X121.678 Y119.801 E77.99819
G1 X121.478 Y120.063 E78.03108
G1 X99.992 Y98.578 E81.06292
G1 X99.903 Y98.671 E81.07576
G1 X99.742 Y98.865 E81.10092
G1 X99.491 Y99.208 E81.14332
G1 X99.36 Y99.36 E81.16335
G1 X120.809 Y120.809 E84.19003
G1 X120.715 Y120.903 E84.2033
G1 X120.493 Y121.099 E84.23285
G1 X120.27 Y121.27 E84.26089
G1 X120.033 Y121.432 E84.28953
G1 X120.023 Y121.437 E84.29065
G1 X98.668 Y100.082 E87.30407
G1 X98.478 Y100.249 E87.32931
G1 X98.382 Y100.324 E87.34146
G1 X98.148 Y100.531 E87.37264
G1 X97.959 Y100.721 E87.39938
G1 X97.928 Y100.757 E87.40412
G1 X119.158 Y121.986 E90.39983
G1 X118.568 Y122.477 E90.47642
G1 X118.4 Y122.642 E90.49991
G1 X97.316 Y101.558 E93.4751
G1 X97.244 Y101.667 E93.48813
G1 X97.171 Y101.783 E93.50181
G1 X96.913 Y102.241 E93.55426
G1 X96.807 Y102.464 E93.57889
G1 X117.6 Y123.257 E96.51301
G1 X117.394 Y123.389 E96.53742
G1 X117.246 Y123.474 E96.55445
G1 X116.934 Y123.638 E96.58962
G1 X116.787 Y123.709 E96.60591
G1 X116.683 Y123.755 E96.61726
G1 X96.444 Y103.515 E99.47327
G1 X96.415 Y103.609 E99.48309
G1 X96.385 Y103.598 E99.48628
G1 X96.256 Y103.938 E99.52256
G1 X95.965 Y104.45 E99.58132
G1 X115.623 Y124.108 E102.35528
G0 F12000 X115.621 Y124.109
G1 F1800 X115.491 Y124.131 E102.36843
G1 X114.836 Y124.285 E102.43557
G1 X114.51 Y124.409 E102.47038
G1 X95.485 Y105.385 E105.15494
G1 X95.475 Y105.409 E105.15753
G1 X95.349 Y105.782 E105.19682
G1 X95.313 Y105.906 E105.2097
G1 X95.219 Y106.256 E105.24586
G1 X95.177 Y106.44 E105.26469
G1 X95.169 Y106.483 E105.26906
G1 X113.515 Y124.829 E107.85788
G1 X113.46 Y124.851 E107.86379
G1 X113.134 Y124.952 E107.89784
G1 X112.668 Y125.062 E107.94562
G1 X112.461 Y125.102 E107.96665
G1 X112.386 Y125.114 E107.97423
G1 X95.05 Y107.778 E110.42053
G1 X95.064 Y108.374 E110.48001
G1 X95.04 Y108.374 E110.48241
G1 X95.017 Y108.759 E110.52089
G1 X94.953 Y109.095 E110.55502
G1 X111.055 Y125.197 E112.82719
G1 X111.029 Y125.196 E112.82978
G1 X110.735 Y125.168 E112.85925
G1 X110.621 Y125.148 E112.8708
G1 X109.952 Y125.08 E112.9379
G1 X109.539 Y125.095 E112.97913
G1 X94.764 Y110.32 E115.06405
G1 X94.76 Y110.383 E115.07034
G1 X94.764 Y110.768 E115.10876
G1 X94.769 Y110.911 E115.12304
G1 X94.791 Y111.247 E115.15664
G1 X94.812 Y111.439 E115.17591
G1 X94.874 Y111.845 E115.21689
G1 X108.192 Y125.162 E117.09613
G1 X108.138 Y125.161 E117.10152
G1 X107.632 Y125.112 E117.15225
G1 X107.444 Y125.085 E117.1712
G1 X107.125 Y125.027 E117.20355
G1 X106.956 Y124.991 E117.22079
G1 X106.623 Y124.908 E117.25503
G1 X106.478 Y124.863 E117.27018
