;FLAVOR:Marlin
;TIME:463
;Filament used: 0.327984m
;Layer height: 0.2
;MINX:97.535
;MINY:95.611
;MINZ:0.24
;MAXX:122.477
;MAXY:124.382
;MAXZ:5.09
;Generated with Cura_SteamEngine 4.8.0
M140 S50
M105
M190 S50
M104 S200
M105
M109 S200
M82 ;absolute extrusion mode
M201 X500.00 Y500.00 Z100.00 E5000.00 ;Setup machine max acceleration
M203 X500.00 Y500.00 Z10.00 E50.00 ;Setup machine max feedrate
M204 P500.00 R1000.00 T500.00 ;Setup Print/Retract/Travel acceleration
M205 X8.00 Y8.00 Z0.40 E5.00 ;Setup Jerk
M220 S100 ;Reset Feedrate
M221 S100 ;Reset Flowrate

G28 ;Home

G92 E0 ;Reset Extruder
G1 Z2.0 F3000 ;Move Z Axis up
G1 X10.1 Y20 Z0.28 F5000.0 ;Move to start position
G1 X10.1 Y200.0 Z0.28 F1500.0 E15 ;Draw the first line
G1 X10.4 Y200.0 Z0.28 F5000.0 ;Move to side a little
G1 X10.4 Y20 Z0.28 F1500.0 E30 ;Draw the second line
G92 E0 ;Reset Extruder
G1 Z2.0 F3000 ;Move Z Axis up

G92 E0
G92 E0
G1 F2700 E-5
;LAYER_COUNT:20
;LAYER:-6
M107
G0 F12000 X100.864 Y98.815 Z0.24
;TYPE:SUPPORT-INTERFACE
G1 F2700 E0
G1 F1800 X100.984 Y98.699 E0.01332
G1 X101.1 Y98.592 E0.02592
G1 X101.229 Y98.482 E0.03945
G1 X101.563 Y98.212 E0.07374
G1 X101.669 Y98.132 E0.08434
G1 X101.857 Y97.998 E0.10277
G1 X101.948 Y97.938 E0.11147
G1 X102.289 Y97.722 E0.14369
G1 X102.404 Y97.654 E0.15435
G1 X102.583 Y97.555 E0.17068
G1 X102.691 Y97.5 E0.18036
G1 X103.116 Y97.299 E0.21788
G1 X103.25 Y97.24 E0.22957
G1 X103.413 Y97.175 E0.24358
G1 X103.574 Y97.116 E0.25727
G1 X103.926 Y96.997 E0.28693
G1 X104.233 Y96.908 E0.31244
G1 X104.408 Y96.865 E0.32683
G1 X104.821 Y96.779 E0.3605
G1 X104.957 Y96.754 E0.37154
G1 X105.156 Y96.725 E0.38759
G1 X105.304 Y96.708 E0.39948
G1 X105.724 Y96.672 E0.43313
G1 X105.89 Y96.664 E0.4464
G1 X106.07 Y96.659 E0.46077
G1 X106.189 Y96.659 E0.47027
G1 X106.632 Y96.673 E0.50565
G1 X106.755 Y96.68 E0.51549
G1 X106.943 Y96.697 E0.53055
G1 X107.085 Y96.715 E0.54198
G1 X107.533 Y96.782 E0.57814
G1 X107.637 Y96.801 E0.58658
G1 X107.829 Y96.842 E0.60225
G1 X107.966 Y96.875 E0.6135
G1 X108.389 Y96.991 E0.64851
G1 X108.453 Y97.011 E0.65386
G1 X109.103 Y97.167 E0.70722
G1 X109.783 Y97.241 E0.76182
G1 X110.465 Y97.229 E0.81627
G1 X111.137 Y97.132 E0.87047
G1 X111.576 Y97.02 E0.90664
G1 X111.624 Y97.005 E0.91065
G1 X112.037 Y96.893 E0.94481
G1 X112.18 Y96.86 E0.95652
G1 X112.372 Y96.82 E0.97218
G1 X112.508 Y96.796 E0.9832
G1 X112.903 Y96.738 E1.01507
G1 X113.108 Y96.715 E1.03154
G1 X113.27 Y96.7 E1.04452
G1 X113.4 Y96.693 E1.05492
G1 X113.833 Y96.681 E1.08949
G1 X113.947 Y96.681 E1.09859
G1 X114.185 Y96.688 E1.1176
G1 X114.275 Y96.694 E1.1248
G1 X114.742 Y96.737 E1.16224
G1 X114.868 Y96.753 E1.17237
G1 X115.063 Y96.782 E1.18811
G1 X115.187 Y96.805 E1.19818
G1 X115.603 Y96.895 E1.23215
G1 X115.747 Y96.93 E1.24398
G1 X115.906 Y96.973 E1.25713
G1 X116.048 Y97.016 E1.26897
G1 X116.447 Y97.151 E1.3026
G1 X116.6 Y97.208 E1.31563
G1 X116.788 Y97.285 E1.33185
G1 X116.885 Y97.328 E1.34032
G1 X117.312 Y97.533 E1.37813
G1 X117.423 Y97.59 E1.38809
G1 X117.599 Y97.688 E1.40417
G1 X117.705 Y97.751 E1.41401
G1 X118.067 Y97.982 E1.44829
G1 X118.204 Y98.076 E1.46155
G1 X118.328 Y98.166 E1.47378
G1 X118.452 Y98.26 E1.4862
G1 X118.772 Y98.52 E1.51912
G1 X118.875 Y98.609 E1.52998
G1 X119.024 Y98.745 E1.54609
G1 X119.105 Y98.823 E1.55506
G1 X119.412 Y99.14 E1.59029
G1 X119.518 Y99.257 E1.60289
G1 X119.64 Y99.399 E1.61783
G1 X119.723 Y99.501 E1.62833
G1 X119.985 Y99.843 E1.66272
G1 X120.079 Y99.976 E1.67572
G1 X120.184 Y100.133 E1.6908
G1 X120.259 Y100.252 E1.70203
G1 X120.456 Y100.587 E1.73305
G1 X120.542 Y100.742 E1.7472
G1 X120.611 Y100.877 E1.7593
G1 X120.685 Y101.032 E1.77301
G1 X120.858 Y101.424 E1.80721
G1 X120.899 Y101.526 E1.81599
G1 X120.971 Y101.721 E1.83258
G1 X121.023 Y101.878 E1.84578
G1 X121.138 Y102.253 E1.87709
G1 X121.178 Y102.398 E1.8891
G1 X121.221 Y102.573 E1.90349
G1 X121.252 Y102.721 E1.91556
G1 X121.333 Y103.172 E1.95213
G1 X121.349 Y103.282 E1.96101
G1 X121.374 Y103.488 E1.97757
G1 X121.387 Y103.633 E1.98919
G1 X121.41 Y104.054 E2.02285
G1 X121.414 Y104.176 E2.03259
G1 X121.414 Y104.356 E2.04696
G1 X121.409 Y104.533 E2.06109
G1 X121.385 Y104.92 E2.09205
G1 X121.37 Y105.094 E2.10599
G1 X121.349 Y105.273 E2.12037
G1 X121.332 Y105.388 E2.12965
G1 X121.248 Y105.857 E2.16769
G1 X121.228 Y105.948 E2.17512
G1 X121.173 Y106.177 E2.19392
G1 X121.147 Y106.275 E2.20202
G1 X121.017 Y106.698 E2.23734
G1 X120.974 Y106.825 E2.24804
G1 X120.904 Y107.013 E2.26406
G1 X120.849 Y107.148 E2.27569
G1 X120.678 Y107.533 E2.30932
G1 X120.608 Y107.679 E2.32225
G1 X120.359 Y108.301 E2.37573
G1 X120.185 Y108.961 E2.43021
G1 X120.096 Y109.638 E2.48472
G1 X120.094 Y110.321 E2.53924
G1 X120.177 Y110.998 E2.59368
G1 X120.346 Y111.66 E2.64822
G1 X120.598 Y112.297 E2.7029
G1 X120.69 Y112.493 E2.72019
G1 X120.857 Y112.871 E2.75317
G1 X120.9 Y112.979 E2.76245
G1 X120.971 Y113.169 E2.77864
G1 X121.024 Y113.328 E2.79202
G1 X121.143 Y113.72 E2.82472
G1 X121.184 Y113.873 E2.83737
G1 X121.223 Y114.033 E2.85051
G1 X121.252 Y114.175 E2.86208
G1 X121.333 Y114.621 E2.89827
G1 X121.348 Y114.721 E2.90634
G1 X121.373 Y114.937 E2.9237
G1 X121.386 Y115.082 E2.93532
G1 X121.409 Y115.503 E2.96897
G1 X121.413 Y115.625 E2.97872
G1 X121.413 Y115.805 E2.99309
G1 X121.408 Y115.982 E3.00722
G1 X121.384 Y116.369 E3.03817
G1 X121.369 Y116.543 E3.05211
G1 X121.347 Y116.727 E3.06691
G1 X121.332 Y116.83 E3.07521
G1 X121.251 Y117.285 E3.1121
G1 X121.226 Y117.402 E3.12166
G1 X121.181 Y117.592 E3.13724
G1 X121.147 Y117.716 E3.1475
G1 X121.021 Y118.131 E3.18213
G1 X120.966 Y118.296 E3.19601
G1 X120.909 Y118.451 E3.20919
G1 X120.849 Y118.597 E3.22179
G1 X120.678 Y118.982 E3.25542
G1 X120.618 Y119.108 E3.26656
G1 X120.533 Y119.274 E3.28145
G1 X120.474 Y119.382 E3.29127
G1 X120.237 Y119.784 E3.32852
G1 X120.172 Y119.886 E3.33818
G1 X120.065 Y120.045 E3.35347
G1 X119.979 Y120.165 E3.36526
G1 X119.715 Y120.51 E3.39994
G1 X119.631 Y120.614 E3.41061
G1 X119.495 Y120.771 E3.42719
G1 X119.406 Y120.868 E3.4377
G1 X119.12 Y121.162 E3.47044
G1 X119 Y121.278 E3.48376
G1 X118.884 Y121.385 E3.49636
G1 X118.755 Y121.495 E3.50989
G1 X118.421 Y121.765 E3.54417
G1 X118.315 Y121.845 E3.55477
G1 X118.128 Y121.978 E3.57309
G1 X118.036 Y122.039 E3.5819
G1 X117.697 Y122.254 E3.61395
G1 X117.57 Y122.329 E3.62572
G1 X117.415 Y122.414 E3.63983
G1 X117.281 Y122.484 E3.6519
G1 X116.867 Y122.68 E3.68846
G1 X116.751 Y122.73 E3.69855
G1 X116.573 Y122.801 E3.71384
G1 X116.42 Y122.858 E3.72688
G1 X116.047 Y122.984 E3.7583
G1 X115.905 Y123.027 E3.77015
G1 X115.755 Y123.068 E3.78256
G1 X115.599 Y123.106 E3.79538
G1 X115.136 Y123.203 E3.83314
G1 X115.038 Y123.221 E3.84109
G1 X114.837 Y123.251 E3.85731
G1 X114.678 Y123.268 E3.87008
G1 X114.254 Y123.306 E3.90406
G1 X114.099 Y123.313 E3.91644
G1 X113.916 Y123.318 E3.93106
G1 X113.797 Y123.318 E3.94056
G1 X113.353 Y123.304 E3.97602
G1 X113.23 Y123.297 E3.98585
G1 X113.045 Y123.28 E4.00068
G1 X112.884 Y123.26 E4.01363
G1 X112.493 Y123.202 E4.04518
G1 X112.323 Y123.171 E4.05898
G1 X112.157 Y123.136 E4.07252
G1 X112.012 Y123.1 E4.08445
G1 X111.606 Y122.988 E4.11807
G1 X111.475 Y122.948 E4.129
G1 X111.312 Y122.893 E4.14273
G1 X111.143 Y122.83 E4.15713
G1 X110.755 Y122.673 E4.19054
G1 X110.631 Y122.618 E4.20137
G1 X110.461 Y122.536 E4.21643
G1 X110.311 Y122.459 E4.22989
G1 X109.969 Y122.269 E4.26112
G1 X109.818 Y122.179 E4.27516
G1 X109.681 Y122.093 E4.28807
G1 X109.54 Y121.998 E4.30164
G1 X109.194 Y121.748 E4.33571
G1 X109.09 Y121.668 E4.34619
G1 X108.916 Y121.526 E4.36411
G1 X108.843 Y121.463 E4.37181
G1 X108.525 Y121.169 E4.40638
G1 X108.42 Y121.066 E4.41812
G1 X108.288 Y120.929 E4.43331
G1 X108.179 Y120.81 E4.44619
G1 X107.921 Y120.508 E4.4779
G1 X107.836 Y120.404 E4.48862
G1 X107.718 Y120.248 E4.50423
G1 X107.641 Y120.14 E4.51482
G1 X107.38 Y119.751 E4.55221
G1 X107.329 Y119.669 E4.55992
G1 X107.213 Y119.473 E4.5781
G1 X107.141 Y119.34 E4.59018
G1 X106.976 Y119.016 E4.6192
G1 X106.903 Y118.862 E4.6328
G1 X106.839 Y118.719 E4.64531
G1 X106.785 Y118.587 E4.65669
G1 X106.602 Y118.09 E4.69897
G1 X106.348 Y117.467 E4.75267
G1 X106.013 Y116.872 E4.80718
G1 X105.603 Y116.322 E4.86194
G1 X105.028 Y115.743 E4.92708
G1 X104.953 Y115.678 E4.935
G1 X104.792 Y115.532 E4.95235
G1 X104.702 Y115.444 E4.9624
G1 X104.404 Y115.136 E4.99661
G1 X104.288 Y115.009 E5.01034
G1 X104.161 Y114.859 E5.02603
G1 X104.078 Y114.756 E5.03658
G1 X103.826 Y114.424 E5.06986
G1 X103.747 Y114.314 E5.08067
G1 X103.625 Y114.133 E5.09809
G1 X103.567 Y114.04 E5.10684
G1 X103.327 Y113.631 E5.14469
G1 X103.273 Y113.532 E5.1537
G1 X103.189 Y113.366 E5.16855
G1 X103.135 Y113.253 E5.17854
G1 X102.96 Y112.852 E5.21347
G1 X102.908 Y112.724 E5.2245
G1 X102.829 Y112.508 E5.24286
G1 X102.769 Y112.331 E5.25777
G1 X102.514 Y111.711 E5.31129
G1 X102.177 Y111.117 E5.3658
G1 X101.766 Y110.568 E5.42055
G1 X101.189 Y109.989 E5.4858
G1 X101.1 Y109.912 E5.49519
G1 X100.961 Y109.784 E5.51027
G1 X100.87 Y109.696 E5.52038
G1 X100.572 Y109.388 E5.55459
G1 X100.46 Y109.264 E5.56793
G1 X100.337 Y109.121 E5.58298
G1 X100.251 Y109.015 E5.59388
G1 X99.99 Y108.669 E5.62848
G1 X99.889 Y108.527 E5.64239
G1 X99.786 Y108.372 E5.65724
G1 X99.73 Y108.283 E5.66563
G1 X99.519 Y107.926 E5.69874
G1 X99.45 Y107.801 E5.71013
G1 X99.354 Y107.614 E5.72691
G1 X99.31 Y107.521 E5.73513
G1 X99.133 Y107.117 E5.77033
G1 X99.068 Y106.958 E5.78405
G1 X99.009 Y106.797 E5.79773
G1 X98.96 Y106.649 E5.81018
G1 X98.841 Y106.257 E5.84288
G1 X98.8 Y106.104 E5.85552
G1 X98.758 Y105.93 E5.86981
G1 X98.73 Y105.793 E5.88097
G1 X98.652 Y105.356 E5.91641
G1 X98.633 Y105.225 E5.92697
G1 X98.612 Y105.041 E5.94176
G1 X98.596 Y104.867 E5.95571
G1 X98.575 Y104.474 E5.98712
G1 X98.571 Y104.353 E5.99679
G1 X98.571 Y104.172 E6.01123
G1 X98.576 Y103.995 E6.02537
G1 X98.6 Y103.608 E6.05632
G1 X98.615 Y103.434 E6.07026
G1 X98.636 Y103.249 E6.08512
G1 X98.652 Y103.147 E6.09336
G1 X98.733 Y102.692 E6.13026
G1 X98.76 Y102.566 E6.14054
G1 X98.803 Y102.385 E6.15539
G1 X98.837 Y102.261 E6.16566
G1 X98.967 Y101.834 E6.20129
G1 X99.025 Y101.661 E6.21585
G1 X99.081 Y101.512 E6.22856
G1 X99.132 Y101.388 E6.23926
G1 X99.309 Y100.987 E6.27425
G1 X99.369 Y100.861 E6.28539
G1 X99.456 Y100.693 E6.30049
G1 X99.527 Y100.565 E6.31217
G1 X99.74 Y100.204 E6.34563
G1 X99.8 Y100.11 E6.35453
G1 X99.923 Y99.926 E6.3722
G1 X99.99 Y99.832 E6.38142
G1 X100.266 Y99.471 E6.41769
G1 X100.354 Y99.362 E6.42887
G1 X100.494 Y99.2 E6.44596
G1 X100.578 Y99.109 E6.45585
G1 X100.864 Y98.815 E6.48859
G0 F12000 X100.8 Y98.88
G1 F1800 X100.8 Y109.623 E7.34614
G0 F12000 X102.4 Y111.51
G1 F1800 X102.4 Y97.656 E8.45203
G0 F12000 X104 Y96.975
G1 F1800 X104 Y114.653 E9.86316
G0 F12000 X105.6 Y116.318
G1 F1800 X105.6 Y96.682 E11.43059
G0 F12000 X107.2 Y96.733
G1 F1800 X107.2 Y119.448 E13.2438
G0 F12000 X108.8 Y121.423
G1 F1800 X108.8 Y97.095 E15.18577
G0 F12000 X110.4 Y97.23
G1 F1800 X110.4 Y122.504 E17.20325
G0 F12000 X112 Y123.096
G1 F1800 X112 Y96.903 E19.29409
G0 F12000 X113.6 Y96.687
G1 F1800 X113.6 Y123.311 E21.41933
G0 F12000 X115.2 Y123.19
G1 F1800 X115.2 Y96.808 E23.52526
G0 F12000 X116.8 Y97.291
G1 F1800 X116.8 Y122.709 E25.55423
G0 F12000 X118.4 Y121.781
G1 F1800 X118.4 Y98.221 E27.43489
G0 F12000 X120 Y99.865
G1 F1800 X120 Y120.136 E29.05301
G1 F2700 E24.05301
G0 F12000 X120.832 Y120.803
G0 X119.876 Y121.912
G0 X118.61 Y122.935
G0 X117.302 Y123.651
G0 X115.829 Y124.145
G0 X114.333 Y124.367
G0 X112.736 Y124.314
G0 X111.315 Y124.012
G0 X109.816 Y123.401
G0 X108.554 Y122.598
G0 X107.386 Y121.52
G0 X106.422 Y120.225
G0 X98.599 Y108.46
G0 X98.403 Y108.09
G0 X99.2 Y107.269
G1 F2700 E29.05301
G1 F1800 X99.2 Y101.233 E29.53483
G1 F2700 E24.53483
G0 F300 X99.2 Y101.233 Z0.54
G0 F12000 X98.339 Y100.548
G0 X99.137 Y99.196
G0 X100.108 Y98.065
G0 X101.374 Y97.042
G0 X102.67 Y96.332
G0 X104.165 Y95.829
G0 X105.646 Y95.611
G0 X113.483 Y95.63
G0 X114.864 Y95.68
G0 X115.186 Y96.804
;TIME_ELAPSED:20.481406
;LAYER:-5
;TYPE:SUPPORT
G1 F2700 E29.53483
G1 F1800 X115.062 Y96.782 E29.5474
G1 X114.867 Y96.752 E29.56708
G1 X114.741 Y96.737 E29.57974
G1 X114.274 Y96.694 E29.62654
G1 X114.184 Y96.687 E29.63555
G1 X113.946 Y96.681 E29.6593
G1 X113.832 Y96.68 E29.67068
G1 X113.656 Y96.686 E29.68825
G1 X121.411 Y104.441 E30.78256
G1 X121.408 Y104.533 E30.79175
G1 X121.384 Y104.919 E30.83034
G1 X121.369 Y105.094 E30.84786
G1 X121.348 Y105.272 E30.86575
G1 X121.331 Y105.387 E30.87735
G1 X121.273 Y105.716 E30.91068
G1 X112.376 Y96.819 E32.16614
G1 X112.371 Y96.82 E32.16665
G1 X112.178 Y96.86 E32.18632
G1 X112.036 Y96.892 E32.20084
G1 X111.623 Y97.004 E32.24354
G1 X111.575 Y97.02 E32.24859
G1 X111.246 Y97.104 E32.28247
G1 X120.971 Y106.829 E33.65477
G1 X120.903 Y107.012 E33.67425
G1 X120.848 Y107.147 E33.6888
G1 X120.676 Y107.533 E33.73096
G1 X120.607 Y107.678 E33.74699
G1 X120.55 Y107.822 E33.76244
G1 X109.966 Y97.238 E35.25596
G1 X109.782 Y97.241 E35.27432
G1 X109.102 Y97.166 E35.34258
G1 X108.451 Y97.01 E35.40938
G1 X108.388 Y96.991 E35.41594
G1 X108.273 Y96.959 E35.42785
G1 X120.203 Y108.889 E37.1113
G1 X120.184 Y108.96 E37.11864
G1 X120.095 Y109.638 E37.18687
G1 X120.094 Y110.194 E37.24235
G1 X106.57 Y96.671 E39.15066
G1 X106.188 Y96.659 E39.18879
G1 X106.069 Y96.659 E39.20067
G1 X105.889 Y96.664 E39.21864
G1 X105.723 Y96.672 E39.23522
G1 X105.303 Y96.708 E39.27728
G1 X105.204 Y96.719 E39.28722
G1 X120.476 Y111.99 E41.44219
G1 X120.597 Y112.297 E41.47512
G1 X120.689 Y112.492 E41.49663
G1 X120.855 Y112.871 E41.53792
G1 X120.898 Y112.979 E41.54952
G1 X120.969 Y113.168 E41.56966
G1 X121.022 Y113.328 E41.58648
G1 X121.142 Y113.72 E41.62739
G1 X121.183 Y113.873 E41.64319
G1 X121.222 Y114.032 E41.65953
G1 X121.251 Y114.175 E41.67408
G1 X121.253 Y114.182 E41.67481
G1 X104.036 Y96.965 E44.10432
G1 X103.925 Y96.997 E44.11584
G1 X103.573 Y97.116 E44.15292
G1 X103.412 Y97.175 E44.17003
G1 X103.248 Y97.239 E44.18759
G1 X103.115 Y97.298 E44.20211
G1 X103.007 Y97.35 E44.21407
G1 X121.412 Y115.755 E46.81122
G1 X121.412 Y115.804 E46.81611
G1 X121.407 Y115.982 E46.83387
G1 X121.383 Y116.368 E46.87246
G1 X121.368 Y116.543 E46.88999
G1 X121.345 Y116.727 E46.90849
G1 X121.331 Y116.829 E46.91876
G1 X121.292 Y117.049 E46.94106
G1 X102.09 Y97.848 E49.6506
G1 X101.947 Y97.937 E49.6674
G1 X101.855 Y97.997 E49.67836
G1 X101.668 Y98.131 E49.70132
G1 X101.562 Y98.212 E49.71463
G1 X101.274 Y98.446 E49.75166
G1 X121.005 Y118.177 E52.53591
G1 X120.964 Y118.296 E52.54847
G1 X120.908 Y118.45 E52.56482
G1 X120.848 Y118.596 E52.58057
G1 X120.677 Y118.982 E52.6227
G1 X120.616 Y119.107 E52.63658
G1 X120.585 Y119.17 E52.64358
G1 X100.551 Y99.137 E55.47053
G1 X100.492 Y99.2 E55.47914
G1 X100.353 Y99.361 E55.50036
G1 X100.265 Y99.47 E55.51434
G1 X99.989 Y99.832 E55.55976
G1 X99.923 Y99.923 E55.57098
G1 X120.056 Y120.056 E58.41196
G1 X119.979 Y120.164 E58.4252
G1 X119.714 Y120.509 E58.4686
G1 X119.63 Y120.613 E58.48194
G1 X119.494 Y120.77 E58.50267
G1 X119.428 Y120.843 E58.51249
G1 X99.394 Y100.808 E61.33957
G1 X99.368 Y100.86 E61.34537
G1 X99.308 Y100.986 E61.3593
G1 X99.132 Y101.387 E61.40299
G1 X99.081 Y101.51 E61.41628
G1 X99.025 Y101.66 E61.43226
G1 X98.975 Y101.804 E61.44747
G1 X118.705 Y121.533 E64.23151
G1 X118.421 Y121.764 E64.26804
G1 X118.314 Y121.844 E64.28137
G1 X118.127 Y121.977 E64.30427
G1 X118.035 Y122.038 E64.31528
G1 X117.888 Y122.13 E64.33259
G1 X98.689 Y102.932 E67.0417
G1 X98.652 Y103.146 E67.06337
G1 X98.636 Y103.248 E67.07367
G1 X98.615 Y103.433 E67.09225
G1 X98.599 Y103.607 E67.10969
G1 X98.576 Y103.994 E67.14837
G1 X98.57 Y104.17 E67.16594
G1 X98.57 Y104.227 E67.17163
G1 X116.972 Y122.629 E69.76835
G1 X116.867 Y122.679 E69.77995
G1 X116.751 Y122.728 E69.79252
G1 X116.572 Y122.799 E69.81173
G1 X116.42 Y122.857 E69.82797
G1 X116.046 Y122.983 E69.86734
G1 X115.943 Y123.014 E69.87808
G1 X98.731 Y105.802 E72.30688
G1 X98.758 Y105.929 E72.31983
G1 X98.8 Y106.103 E72.33769
G1 X98.841 Y106.256 E72.3535
G1 X98.96 Y106.647 E72.39428
G1 X99.009 Y106.795 E72.40983
G1 X99.067 Y106.957 E72.427
G1 X99.132 Y107.116 E72.44414
G1 X99.309 Y107.52 E72.48815
G1 X99.354 Y107.613 E72.49846
G1 X99.449 Y107.8 E72.51939
G1 X99.518 Y107.925 E72.53364
G1 X99.633 Y108.118 E72.55605
