;FLAVOR:Marlin
;TIME:912
;Filament used: 0.60626m
;Layer height: 0.2
;MINX:93.693
;MINY:93.715
;MINZ:0.24
;MAXX:126.3
;MAXY:126.286
;MAXZ:7.89
;Generated with Cura_SteamEngine 4.12.1
M140 S50
M105
M190 S50
M104 S200
M105
M109 S200
M82 ;absolute extrusion mode
M201 X500.00 Y500.00 Z100.00 E5000.00 ;Setup machine max acceleration
M203 X500.00 Y500.00 Z10.00 E50.00 ;Setup machine max feedrate
M204 P500.00 R1000.00 T500.00 ;Setup Print/Retract/Travel acceleration
M205 X8.00 Y8.00 Z0.40 E5.00 ;Setup Jerk
M220 S100 ;Reset Feedrate
M221 S100 ;Reset Flowrate

G28 ;Home

G92 E0 ;Reset Extruder
G1 Z2.0 F3000 ;Move Z Axis up
G1 X10.1 Y20 Z0.28 F5000.0 ;Move to start position
G1 X10.1 Y200.0 Z0.28 F1500.0 E15 ;Draw the first line
G1 X10.4 Y200.0 Z0.28 F5000.0 ;Move to side a little
G1 X10.4 Y20 Z0.28 F1500.0 E30 ;Draw the second line
G92 E0 ;Reset Extruder
G1 Z2.0 F3000 ;Move Z Axis up

G92 E0
G92 E0
G1 F2700 E-5
;LAYER_COUNT:34
;LAYER:-6
M107
G0 F12000 X100.088 Y98.468 Z0.24
;TYPE:SUPPORT-INTERFACE
G1 F2700 E0
G1 F1800 X100.474 Y98.123 E0.04133
G1 X100.626 Y97.999 E0.05698
G1 X100.99 Y97.722 E0.0935
G1 X101.106 Y97.641 E0.10479
G1 X101.431 Y97.426 E0.1359
G1 X101.679 Y97.284 E0.15871
G1 X101.943 Y97.154 E0.1822
G1 X102.22 Y97.038 E0.20617
G1 X102.283 Y97.017 E0.21147
G1 X102.905 Y96.758 E0.26525
G1 X103.63 Y96.323 E0.33274
G1 X103.794 Y96.206 E0.34883
G1 X104.042 Y96.052 E0.37213
G1 X104.34 Y95.897 E0.39894
G1 X104.853 Y95.676 E0.44353
G1 X105.04 Y95.605 E0.4595
G1 X105.495 Y95.456 E0.49771
G1 X105.618 Y95.42 E0.50794
G1 X105.966 Y95.33 E0.53664
G1 X106.276 Y95.27 E0.56184
G1 X106.565 Y95.234 E0.58509
G1 X106.843 Y95.216 E0.60733
G1 X106.91 Y95.216 E0.61268
G1 X107.581 Y95.173 E0.66635
G1 X108.352 Y95.017 E0.72914
G1 X108.717 Y94.913 E0.75944
G1 X108.965 Y94.86 E0.77968
G1 X109.296 Y94.813 E0.80637
G1 X109.811 Y94.778 E0.84757
G1 X109.977 Y94.773 E0.86083
G1 X110.445 Y94.78 E0.89819
G1 X110.619 Y94.788 E0.91209
G1 X110.978 Y94.816 E0.94084
G1 X111.263 Y94.857 E0.96382
G1 X111.545 Y94.915 E0.9868
G1 X111.831 Y94.993 E1.01047
G1 X111.908 Y95.019 E1.01695
G1 X112.556 Y95.194 E1.07053
G1 X113.327 Y95.293 E1.13258
G1 X113.67 Y95.31 E1.16
G1 X113.947 Y95.343 E1.18226
G1 X114.269 Y95.404 E1.20842
G1 X114.777 Y95.541 E1.25042
G1 X114.925 Y95.587 E1.2628
G1 X115.391 Y95.753 E1.30228
G1 X115.517 Y95.803 E1.3131
G1 X115.861 Y95.952 E1.34303
G1 X116.123 Y96.085 E1.36648
G1 X116.37 Y96.231 E1.38939
G1 X116.626 Y96.405 E1.41409
G1 X116.68 Y96.447 E1.41956
G1 X117.236 Y96.823 E1.47313
G1 X117.907 Y97.157 E1.53296
G1 X118.273 Y97.307 E1.56454
G1 X118.537 Y97.435 E1.58796
G1 X118.802 Y97.585 E1.61227
G1 X119.078 Y97.764 E1.63853
G1 X119.359 Y97.977 E1.66667
G1 X119.439 Y98.042 E1.6749
G1 X119.857 Y98.4 E1.71883
G1 X119.936 Y98.472 E1.72736
G1 X120.227 Y98.755 E1.75977
G1 X120.421 Y98.969 E1.78282
G1 X120.595 Y99.187 E1.80509
G1 X121.007 Y99.775 E1.8624
G1 X121.078 Y99.836 E1.86987
G1 X121.612 Y100.377 E1.93055
G1 X121.968 Y100.689 E1.96834
G1 X122.155 Y100.876 E1.98945
G1 X122.384 Y101.139 E2.01728
G1 X122.663 Y101.51 E2.05434
G1 X122.78 Y101.679 E2.07075
G1 X123.018 Y102.054 E2.1062
G1 X123.104 Y102.199 E2.11966
G1 X123.276 Y102.514 E2.14831
G1 X123.405 Y102.788 E2.17248
G1 X123.515 Y103.066 E2.19635
G1 X123.599 Y103.323 E2.21793
G1 X123.626 Y103.425 E2.22635
G1 X123.833 Y104.066 E2.28012
G1 X124.2 Y104.811 E2.34641
G1 X124.427 Y105.221 E2.38382
G1 X124.58 Y105.583 E2.41519
G1 X124.743 Y106.072 E2.45634
G1 X124.802 Y106.278 E2.47345
G1 X124.91 Y106.73 E2.51054
G1 X124.935 Y106.848 E2.52017
G1 X125.004 Y107.244 E2.55226
G1 X125.034 Y107.52 E2.57442
G1 X125.047 Y107.828 E2.59903
G1 X125.042 Y108.103 E2.62098
G1 X125.035 Y108.191 E2.62803
G1 X125.023 Y108.865 E2.68184
G1 X125.128 Y109.704 E2.74933
G1 X125.18 Y109.954 E2.76972
G1 X125.213 Y110.191 E2.78882
G1 X125.236 Y110.535 E2.81634
G1 X125.231 Y111.095 E2.86104
G1 X125.221 Y111.28 E2.87583
G1 X125.178 Y111.728 E2.91176
G1 X125.159 Y111.884 E2.9243
G1 X125.096 Y112.269 E2.95544
G1 X125.039 Y112.526 E2.97646
G1 X124.952 Y112.82 E3.00093
G1 X124.854 Y113.09 E3.02386
G1 X124.794 Y113.228 E3.03587
G1 X124.564 Y113.86 E3.08956
G1 X124.396 Y114.66 E3.15481
G1 X124.368 Y114.876 E3.17219
G1 X124.317 Y115.138 E3.1935
G1 X124.242 Y115.426 E3.21726
G1 X124.105 Y115.835 E3.25169
G1 X124.063 Y115.948 E3.26131
G1 X123.854 Y116.451 E3.30479
G1 X123.815 Y116.538 E3.3124
G1 X123.632 Y116.91 E3.34549
G1 X123.493 Y117.151 E3.3677
G1 X123.332 Y117.397 E3.39117
G1 X123.16 Y117.626 E3.41403
G1 X122.592 Y118.285 E3.48348
G1 X122.606 Y118.297 E3.48495
G1 X122.288 Y118.765 E3.53012
G1 X122.09 Y119.134 E3.56355
G1 X122.038 Y119.242 E3.57311
G1 X121.904 Y119.478 E3.59478
G1 X121.731 Y119.739 E3.61977
G1 X121.458 Y120.097 E3.65571
G1 X121.36 Y120.215 E3.66795
G1 X121.042 Y120.575 E3.7063
G1 X120.936 Y120.688 E3.71867
G1 X120.664 Y120.96 E3.74937
G1 X120.451 Y121.146 E3.77194
G1 X120.204 Y121.337 E3.79687
G1 X119.986 Y121.485 E3.8179
G1 X119.609 Y121.705 E3.85274
G1 X119.053 Y122.08 E3.90628
G1 X118.526 Y122.545 E3.96238
G1 X118.225 Y122.828 E3.99536
G1 X117.938 Y123.046 E4.02413
G1 X117.459 Y123.355 E4.06963
G1 X117.277 Y123.461 E4.08644
G1 X116.887 Y123.665 E4.12157
G1 X116.732 Y123.74 E4.13532
G1 X116.413 Y123.883 E4.16323
G1 X116.134 Y123.986 E4.18697
G1 X115.839 Y124.075 E4.21156
G1 X115.592 Y124.133 E4.23181
G1 X115.508 Y124.148 E4.23863
G1 X114.853 Y124.3 E4.2923
G1 X114.12 Y124.58 E4.35494
G1 X113.763 Y124.747 E4.3864
G1 X113.517 Y124.844 E4.4075
G1 X113.201 Y124.942 E4.43391
G1 X112.743 Y125.05 E4.47148
G1 X112.526 Y125.092 E4.48912
G1 X112.083 Y125.161 E4.52491
G1 X111.949 Y125.178 E4.53569
G1 X111.566 Y125.213 E4.56639
G1 X111.286 Y125.221 E4.58875
G1 X110.981 Y125.209 E4.61312
G1 X110.695 Y125.18 E4.63606
G1 X110.593 Y125.164 E4.6443
G1 X109.924 Y125.098 E4.69797
G1 X109.069 Y125.137 E4.76629
G1 X108.632 Y125.178 E4.80132
G1 X108.26 Y125.172 E4.83102
G1 X107.735 Y125.125 E4.8731
G1 X107.492 Y125.093 E4.89266
G1 X107.05 Y125.013 E4.92852
G1 X106.928 Y124.987 E4.93847
G1 X106.556 Y124.896 E4.96904
G1 X106.266 Y124.805 E4.99331
G1 X106.007 Y124.706 E5.01544
G1 X105.75 Y124.587 E5.03805
G1 X105.599 Y124.506 E5.05173
G1 X104.987 Y124.227 E5.10542
G1 X104.228 Y124 E5.16865
G1 X104.005 Y123.95 E5.1869
G1 X103.728 Y123.871 E5.20989
G1 X103.435 Y123.766 E5.23473
G1 X103.092 Y123.617 E5.26459
G1 X102.914 Y123.533 E5.2803
G1 X102.48 Y123.309 E5.31928
G1 X102.382 Y123.254 E5.32825
G1 X102.045 Y123.054 E5.35954
G1 X101.806 Y122.89 E5.38267
G1 X101.566 Y122.702 E5.40701
G1 X101.36 Y122.518 E5.42906
G1 X101.055 Y122.209 E5.46371
G1 X100.554 Y121.762 E5.51731
G1 X99.996 Y121.38 E5.57129
G1 X99.818 Y121.274 E5.58783
G1 X99.608 Y121.13 E5.60815
G1 X99.334 Y120.911 E5.63615
G1 X98.922 Y120.526 E5.68116
G1 X98.792 Y120.392 E5.69607
G1 X98.47 Y120.033 E5.73456
G1 X98.389 Y119.938 E5.74453
G1 X98.154 Y119.638 E5.77495
G1 X97.992 Y119.404 E5.79767
G1 X97.834 Y119.141 E5.82216
G1 X97.703 Y118.889 E5.84483
G1 X97.67 Y118.813 E5.85144
G1 X97.36 Y118.216 E5.90514
G1 X96.892 Y117.558 E5.96959
G1 X96.703 Y117.333 E5.99305
G1 X96.534 Y117.099 E6.01609
G1 X96.363 Y116.827 E6.04174
G1 X96.119 Y116.361 E6.08373
G1 X96.037 Y116.187 E6.09908
G1 X95.854 Y115.755 E6.13653
G1 X95.799 Y115.61 E6.14891
G1 X95.678 Y115.263 E6.17825
G1 X95.596 Y114.973 E6.2023
G1 X95.541 Y114.712 E6.22359
G1 X95.5 Y114.427 E6.24658
G1 X95.493 Y114.351 E6.25267
G1 X95.395 Y113.686 E6.30633
G1 X95.183 Y112.955 E6.36708
G1 X95.038 Y112.562 E6.40052
G1 X94.957 Y112.293 E6.42295
G1 X94.893 Y112.009 E6.44619
G1 X94.817 Y111.495 E6.48766
G1 X94.797 Y111.311 E6.50244
G1 X94.764 Y110.846 E6.53965
G1 X94.759 Y110.703 E6.55107
G1 X94.757 Y110.321 E6.58156
G1 X94.773 Y110.049 E6.60331
G1 X94.81 Y109.744 E6.62784
G1 X94.858 Y109.485 E6.64886
G1 X94.884 Y109.381 E6.65742
G1 X95.006 Y108.717 E6.71131
G1 X95.035 Y107.823 E6.78271
G1 X95.03 Y107.702 E6.79238
G1 X95.033 Y107.45 E6.8125
G1 X95.066 Y107.085 E6.84175
G1 X95.162 Y106.519 E6.88758
G1 X95.217 Y106.266 E6.90824
G1 X95.326 Y105.863 E6.94157
G1 X95.371 Y105.713 E6.95407
G1 X95.49 Y105.361 E6.98373
G1 X95.605 Y105.08 E7.00797
G1 X95.726 Y104.832 E7.02999
G1 X95.869 Y104.58 E7.05312
G1 X95.909 Y104.52 E7.05888
G1 X96.24 Y103.933 E7.11267
G1 X96.538 Y103.173 E7.17783
G1 X96.618 Y102.91 E7.19978
G1 X96.719 Y102.64 E7.22279
G1 X96.866 Y102.324 E7.25061
G1 X97.119 Y101.87 E7.2921
G1 X97.22 Y101.705 E7.30754
G1 X97.493 Y101.299 E7.34659
G1 X97.548 Y101.222 E7.35415
G1 X97.804 Y100.889 E7.38768
G1 X97.989 Y100.678 E7.41008
G1 X98.19 Y100.476 E7.43282
G1 X98.411 Y100.281 E7.45635
G1 X98.473 Y100.232 E7.46266
G1 X98.977 Y99.784 E7.51649
G1 X99.485 Y99.187 E7.57906
G1 X99.673 Y98.929 E7.60454
G1 X99.849 Y98.718 E7.62647
G1 X100.088 Y98.468 E7.65408
G0 F12000 X100.8 Y97.866
G1 F1800 X100.8 Y121.981 E9.57905
G0 F12000 X99.2 Y120.785
G1 F1800 X99.2 Y99.521 E11.27643
G0 F12000 X97.6 Y101.154
G1 F1800 X97.6 Y118.678 E12.67527
G0 F12000 X96 Y116.099
G1 F1800 X96 Y104.358 E13.61249
G1 F2700 E8.61249
G0 F12000 X95.275 Y103.478
G0 X95.911 Y101.853
G0 X96.697 Y100.583
G0 X97.46 Y99.701
G0 X99.347 Y97.704
G0 X100.393 Y96.854
G0 X101.497 Y96.187
G0 X102.4 Y96.968
G1 F2700 E13.61249
G1 F1800 X102.4 Y123.264 E15.71155
G0 F12000 X104 Y123.948
G1 F1800 X104 Y96.078 E17.93625
G0 F12000 X105.6 Y95.425
G1 F1800 X105.6 Y124.506 E20.25762
G0 F12000 X107.2 Y125.04
G1 F1800 X107.2 Y95.197 E22.63982
G0 F12000 X108.8 Y94.895
G1 F1800 X108.8 Y125.163 E25.05594
G0 F12000 X110.4 Y125.144
G1 F1800 X110.4 Y94.78 E27.47973
G0 F12000 X112 Y95.044
G1 F1800 X112 Y125.172 E29.88468
G0 F12000 X113.6 Y124.812
G1 F1800 X113.6 Y95.307 E32.23989
G0 F12000 X115.2 Y95.685
G1 F1800 X115.2 Y124.22 E34.51768
G0 F12000 X116.8 Y123.708
G1 F1800 X116.8 Y96.529 E36.68723
G0 F12000 X118.4 Y97.369
G1 F1800 X118.4 Y122.664 E38.70638
G0 F12000 X120 Y121.476
G1 F1800 X120 Y98.535 E40.53763
G0 F12000 X121.6 Y100.365
G1 F1800 X121.6 Y119.911 E42.09788
G0 F12000 X123.2 Y117.573
G1 F1800 X123.2 Y102.375 E43.31105
G0 F12000 X124.8 Y106.272
G1 F1800 X124.8 Y113.215 E43.86527
G1 F2700 E38.86527
G0 F300 X124.8 Y113.215 Z0.54
G0 F12000 X125.964 Y113.152
G0 X126.235 Y111.849
G0 X126.3 Y110.507
G0 X126.059 Y107.101
G0 X125.762 Y105.766
G0 X124.383 Y102.367
G0 X123.663 Y101.083
G0 X122.477 Y101.264
;TIME_ELAPSED:26.954958
;LAYER:-5
;TYPE:SUPPORT
G1 F2700 E43.86527
G1 F1800 X118.794 Y97.581 E44.38498
G1 X118.801 Y97.584 E44.38574
G1 X119.077 Y97.763 E44.41856
G1 X119.25 Y97.889 E44.43992
G1 X119.438 Y98.042 E44.46411
G1 X119.856 Y98.4 E44.51902
G1 X119.935 Y98.471 E44.52962
G1 X120.225 Y98.755 E44.57012
G1 X120.42 Y98.969 E44.59901
G1 X120.594 Y99.187 E44.62684
G1 X121.006 Y99.774 E44.6984
G1 X121.022 Y99.762 E44.70039
G1 X121.077 Y99.835 E44.70951
G1 X121.611 Y100.376 E44.78536
G1 X121.967 Y100.689 E44.83266
G1 X122.154 Y100.875 E44.85898
G1 X122.383 Y101.138 E44.89377
G1 F2700 E39.89377
G0 F12000 X122.937 Y100.152
G0 X120.804 Y97.862
G0 X119.671 Y96.881
G0 X118.794 Y97.581
G1 F2700 E44.89377
G1 F1800 X118.536 Y97.435 E44.92335
G1 X118.272 Y97.307 E44.95263
G1 X117.906 Y97.157 E44.9921
G1 X117.235 Y96.822 E45.06693
G1 X116.678 Y96.447 E45.13393
G1 X116.625 Y96.404 E45.14074
G1 X116.369 Y96.23 E45.17162
G1 X116.122 Y96.084 E45.20025
G1 X115.86 Y95.952 E45.22953
G1 X115.668 Y95.869 E45.2504
G1 X123.817 Y104.018 E46.40031
G1 X123.832 Y104.065 E46.40523
G1 X124.199 Y104.81 E46.4881
G1 X124.319 Y105.012 E46.51154
G1 X124.426 Y105.221 E46.53497
G1 X124.578 Y105.583 E46.57415
G1 X124.742 Y106.071 E46.62552
G1 X124.801 Y106.278 E46.64699
G1 X124.845 Y106.46 E46.66568
G1 X113.698 Y95.313 E48.23864
G1 X113.669 Y95.31 E48.24155
G1 X113.325 Y95.293 E48.27591
G1 X112.555 Y95.194 E48.35338
G1 X112.02 Y95.05 E48.40866
G1 X125.041 Y108.071 E50.24606
G1 X125.041 Y108.103 E50.24926
G1 X125.034 Y108.19 E50.25796
G1 X125.022 Y108.864 E50.32523
G1 X125.109 Y109.552 E50.39442
G1 X110.334 Y94.778 E52.47926
G1 X109.976 Y94.773 E52.51499
G1 X109.81 Y94.778 E52.53156
G1 X109.295 Y94.812 E52.58306
G1 X108.998 Y94.856 E52.61302
G1 X125.23 Y111.088 E54.90353
G1 X125.23 Y111.094 E54.90413
G1 X125.22 Y111.28 E54.92271
G1 X125.176 Y111.727 E54.96753
G1 X125.157 Y111.884 E54.98331
G1 X125.095 Y112.268 E55.02212
G1 X125.077 Y112.35 E55.0305
G1 X107.847 Y95.119 E57.46191
G1 X107.579 Y95.173 E57.48919
G1 X106.908 Y95.216 E57.55628
G1 X106.842 Y95.216 E57.56286
G1 X106.564 Y95.233 E57.59065
G1 X106.549 Y95.235 E57.59216
G1 X124.726 Y113.412 E60.15713
G1 X124.563 Y113.86 E60.2047
G1 X124.424 Y114.525 E60.27249
G1 X105.39 Y95.49 E62.95846
G1 X105.039 Y95.605 E62.99532
G1 X104.852 Y95.675 E63.01524
G1 X104.368 Y95.883 E63.06781
G1 X124.158 Y115.673 E65.86039
G1 X124.104 Y115.835 E65.87743
G1 X124.062 Y115.947 E65.88936
G1 X123.853 Y116.451 E65.94381
G1 X123.814 Y116.538 E65.95332
G1 X123.747 Y116.676 E65.96863
G1 X103.482 Y96.411 E68.82824
G1 X102.904 Y96.758 E68.8955
G1 X102.559 Y96.902 E68.93281
G1 X123.212 Y117.555 E71.84717
G1 X123.159 Y117.625 E71.85593
G1 X122.591 Y118.284 E71.94274
G1 X122.605 Y118.297 E71.94464
G1 X122.579 Y118.336 E71.94932
G1 X101.582 Y97.339 E74.91222
G1 X101.43 Y97.426 E74.9297
G1 X101.105 Y97.64 E74.96853
G1 X100.988 Y97.722 E74.98278
G1 X100.74 Y97.912 E75.01396
G1 X122.048 Y119.22 E78.02075
G1 X122.037 Y119.241 E78.02311
G1 X121.903 Y119.477 E78.05019
G1 X121.73 Y119.739 E78.08152
G1 X121.48 Y120.066 E78.12259
G1 X99.987 Y98.572 E81.15555
G1 X99.848 Y98.718 E81.17567
G1 X99.672 Y98.928 E81.20301
G1 X99.484 Y99.187 E81.23494
G1 X99.347 Y99.347 E81.25596
G1 X120.811 Y120.811 E84.28476
G1 X120.663 Y120.959 E84.30565
G1 X120.45 Y121.145 E84.33386
G1 X120.203 Y121.336 E84.36502
G1 X120.035 Y121.449 E84.38522
G1 X98.655 Y100.069 E87.40217
G1 X98.473 Y100.23 E87.42641
G1 X98.41 Y100.28 E87.43444
G1 X98.19 Y100.475 E87.46377
G1 X97.988 Y100.677 E87.49228
G1 X97.922 Y100.751 E87.50217
G1 X119.17 Y121.999 E90.50049
G1 X119.052 Y122.079 E90.51472
G1 X118.525 Y122.543 E90.58478
G1 X118.414 Y122.656 E90.60058
G1 X97.316 Y101.559 E93.57767
G1 X97.22 Y101.704 E93.59502
G1 X97.118 Y101.869 E93.61438
G1 X96.865 Y102.323 E93.66624
G1 X96.802 Y102.459 E93.68119
G1 X117.603 Y123.26 E96.61644
G1 X117.458 Y123.354 E96.63368
G1 X117.277 Y123.46 E96.65461
G1 X116.886 Y123.663 E96.69857
G1 X116.732 Y123.739 E96.7157
G1 X116.687 Y123.758 E96.72058
G1 X96.414 Y103.485 E99.58132
G1 X96.24 Y103.931 E99.62909
G1 X95.953 Y104.438 E99.68722
G1 X115.636 Y124.121 E102.4647
G1 X115.592 Y124.132 E102.46923
G1 X115.508 Y124.147 E102.47774
G1 X114.852 Y124.299 E102.54493
G1 X114.524 Y124.423 E102.57992
G1 X95.482 Y105.382 E105.26688
G1 X95.371 Y105.711 E105.30153
G1 X95.326 Y105.862 E105.31725
G1 X95.216 Y106.264 E105.35884
G1 X95.169 Y106.483 E105.38118
G1 X113.525 Y124.838 E107.97134
G1 X113.516 Y124.843 E107.97237
G1 X113.2 Y124.941 E108.00538
G1 X112.743 Y125.049 E108.05224
G1 X112.526 Y125.091 E108.07429
G1 X112.384 Y125.112 E108.08862
G1 X95.032 Y107.76 E110.53717
G1 X95.035 Y107.822 E110.54336
G1 X95.005 Y108.716 E110.63262
G1 X94.938 Y109.081 E110.66965
G1 X111.068 Y125.21 E112.94569
G1 X110.981 Y125.208 E112.95438
G1 X110.694 Y125.179 E112.98316
G1 X110.592 Y125.163 E112.99346
G1 X109.923 Y125.097 E113.06054
G1 X109.557 Y125.113 E113.09709
G1 X94.757 Y110.313 E115.18553
G1 X94.757 Y110.32 E115.18623
G1 X94.758 Y110.702 E115.22435
G1 X94.764 Y110.845 E115.23863
G1 X94.796 Y111.31 E115.28514
G1 X94.816 Y111.494 E115.3036
G1 X94.867 Y111.838 E115.3383
G1 X108.194 Y125.164 E117.21882
G1 X107.734 Y125.123 E117.2649
G1 X107.492 Y125.092 E117.28924
G1 X107.05 Y125.012 E117.33406
G1 X106.927 Y124.986 E117.34661
G1 X106.556 Y124.895 E117.38472
G1 X106.489 Y124.874 E117.39173
G1 X95.411 Y113.796 E118.95495
G1 X95.493 Y114.35 E119.01083
G1 X95.499 Y114.426 E119.01844
G1 X95.541 Y114.711 E119.04719
G1 X95.595 Y114.972 E119.07378
G1 X95.677 Y115.261 E119.10375
G1 X95.792 Y115.591 E119.13862
G1 X104.191 Y123.99 E120.32381
G1 X104.004 Y123.949 E120.34292
G1 X103.727 Y123.87 E120.37166
G1 X103.434 Y123.765 E120.40271
G1 X103.091 Y123.616 E120.44003
G1 X102.914 Y123.532 E120.45958
G1 X102.479 Y123.308 E120.5084
