;FLAVOR:Marlin
;TIME:2064
;Filament used: 1.27032m
;Layer height: 0.2
;MINX:97.335
;MINY:77.094
;MINZ:0.2
;MAXX:122.665
;MAXY:142.559
;MAXZ:10
;Generated with Cura_SteamEngine 4.12.1
M140 S50
M105
M190 S50
M104 S200
M105
M109 S200
M82 ;absolute extrusion mode
M201 X500.00 Y500.00 Z100.00 E5000.00 ;Setup machine max acceleration
M203 X500.00 Y500.00 Z10.00 E50.00 ;Setup machine max feedrate
M204 P500.00 R1000.00 T500.00 ;Setup Print/Retract/Travel acceleration
M205 X8.00 Y8.00 Z0.40 E5.00 ;Setup Jerk
M220 S100 ;Reset Feedrate
M221 S100 ;Reset Flowrate

G28 ;Home

G92 E0 ;Reset Extruder
G1 Z2.0 F3000 ;Move Z Axis up
G1 X10.1 Y20 Z0.28 F5000.0 ;Move to start position
G1 X10.1 Y200.0 Z0.28 F1500.0 E15 ;Draw the first line
G1 X10.4 Y200.0 Z0.28 F5000.0 ;Move to side a little
G1 X10.4 Y20 Z0.28 F1500.0 E30 ;Draw the second line
G92 E0 ;Reset Extruder
G1 Z2.0 F3000 ;Move Z Axis up

G92 E0
G92 E0
G1 F2700 E-5
;LAYER_COUNT:50
;LAYER:0
M107
;MESH:hull_rear_plate.obj
G0 F6000 X119.306 Y92.387 Z0.2
;TYPE:WALL-INNER
G1 F2700 E0
G1 F1200 X119.694 Y92.387 E0.0129
G1 X120.07 Y92.294 E0.02579
G1 X120.41 Y92.115 E0.03857
G1 X120.702 Y91.858 E0.05151
G1 X120.92 Y91.54 E0.06433
G1 X121.058 Y91.179 E0.07718
G1 X121.104 Y90.794 E0.09008
G1 X121.058 Y90.41 E0.10294
G1 X120.92 Y90.05 E0.11577
G1 X120.702 Y89.732 E0.12859
G1 X120.411 Y89.473 E0.14155
G1 X120.069 Y89.294 E0.15438
G1 X119.693 Y89.202 E0.16726
G1 X119.307 Y89.202 E0.1801
G1 X118.931 Y89.294 E0.19297
G1 X118.6 Y89.467 E0.20539
G1 X118.6 Y86.294 E0.31093
G1 X101.4 Y86.294 E0.883
G1 X101.4 Y89.467 E0.98854
G1 X101.069 Y89.294 E1.00096
G1 X100.693 Y89.202 E1.01383
G1 X100.307 Y89.202 E1.02667
G1 X99.931 Y89.294 E1.03955
G1 X99.589 Y89.473 E1.05239
G1 X99.298 Y89.732 E1.06534
G1 X99.08 Y90.05 E1.07817
G1 X98.942 Y90.41 E1.09099
G1 X98.896 Y90.794 E1.10385
G1 X98.942 Y91.179 E1.11675
G1 X99.08 Y91.54 E1.1296
G1 X99.298 Y91.858 E1.14243
G1 X99.59 Y92.115 E1.15537
G1 X99.93 Y92.294 E1.16815
G1 X100.306 Y92.387 E1.18103
G1 X100.694 Y92.387 E1.19393
G1 X101.07 Y92.294 E1.20682
G1 X101.4 Y92.12 E1.21922
G1 X101.4 Y95.294 E1.32479
G1 X118.6 Y95.294 E1.89687
G1 X118.6 Y92.12 E2.00243
G1 X118.93 Y92.294 E2.01484
G1 X119.306 Y92.387 E2.02772
G0 F6000 X119.355 Y91.987
;TYPE:WALL-OUTER
G1 F1200 X119.645 Y91.987 E2.03737
G1 X119.927 Y91.917 E2.04703
G1 X120.182 Y91.783 E2.05661
G1 X120.4 Y91.591 E2.06628
G1 X120.563 Y91.353 E2.07587
G1 X120.667 Y91.082 E2.08553
G1 X120.701 Y90.794 E2.09517
G1 X120.667 Y90.507 E2.10478
G1 X120.563 Y90.237 E2.11441
G1 X120.4 Y89.998 E2.12403
G1 X120.182 Y89.805 E2.13371
G1 X119.926 Y89.671 E2.14332
G1 X119.645 Y89.602 E2.15295
G1 X119.355 Y89.602 E2.16259
G1 X119.074 Y89.671 E2.17222
G1 X118.818 Y89.805 E2.18183
G1 X118.6 Y89.998 E2.19151
G1 X118.437 Y90.237 E2.20113
G1 X118.333 Y90.507 E2.21076
G1 X118.299 Y90.794 E2.22037
G1 X118.333 Y91.082 E2.23001
G1 X118.437 Y91.353 E2.23967
G1 X118.6 Y91.591 E2.24926
G1 X118.818 Y91.783 E2.25892
G1 X119.073 Y91.917 E2.26851
G1 X119.355 Y91.987 E2.27817
G0 F6000 X119.302 Y92.423
G1 F2700 E-2.72183
G0 F6000 X118.34 Y92.41
G0 X118.328 Y95.022
G0 X101.672 Y95.022
G0 X101.66 Y92.482
G0 X100.645 Y92.187
G1 F2700 E2.27817
G0 F6000 X100.645 Y91.987
G1 F1200 X100.927 Y91.917 E2.28783
G1 X101.182 Y91.783 E2.29741
G1 X101.4 Y91.591 E2.30708
G1 X101.563 Y91.353 E2.31667
G1 X101.667 Y91.082 E2.32633
G1 X101.701 Y90.794 E2.33597
G1 X101.667 Y90.507 E2.34558
G1 X101.563 Y90.237 E2.35521
G1 X101.4 Y89.998 E2.36483
G1 X101.182 Y89.805 E2.37451
G1 X100.926 Y89.671 E2.38412
G1 X100.645 Y89.602 E2.39375
G1 X100.355 Y89.602 E2.40339
G1 X100.074 Y89.671 E2.41302
G1 X99.818 Y89.805 E2.42263
G1 X99.6 Y89.998 E2.43231
G1 X99.437 Y90.237 E2.44193
G1 X99.333 Y90.507 E2.45156
G1 X99.299 Y90.794 E2.46117
G1 X99.333 Y91.082 E2.47081
G1 X99.437 Y91.353 E2.48047
G1 X99.6 Y91.591 E2.49006
G1 X99.818 Y91.783 E2.49972
G1 X100.073 Y91.917 E2.50931
G1 X100.355 Y91.987 E2.51897
G1 X100.645 Y91.987 E2.52861
G0 F6000 X100.698 Y92.423
G1 F2700 E-2.47139
G0 F6000 X101.21 Y92.434
G0 X101.6 Y94.894
G1 F2700 E2.52861
G0 F6000 X101.8 Y94.894
G1 F1200 X118.2 Y94.894 E3.07408
G1 X118.2 Y86.694 E3.34681
G1 X101.8 Y86.694 E3.89228
G1 X101.8 Y94.894 E4.16501
G1 F2700 E-0.83499
G0 F6000 X101.6 Y94.894
G0 X108.162 Y95.504
G0 X108.162 Y94.029
G0 X108.011 Y115.314
G0 X108.162 Y113.86
G0 X108.967 Y114.887
G0 X109.092 Y115.394
G0 X109.059 Y117.658
G0 X109.007 Y119.006
G0 X109.302 Y119.573
G0 X109.342 Y119.894
G0 X109.302 Y120.218
G0 X108.761 Y121.79
G0 X109.007 Y122.006
G0 X109.302 Y122.573
G0 X109.342 Y122.894
G0 X108.967 Y124.887
G0 X109.092 Y125.394
G0 X109.059 Y127.658
G0 X108.863 Y128.031
G0 X108.162 Y128.739
;TYPE:WALL-INNER
G1 F2700 E4.16501
G1 F1200 X108.481 Y128.661 E4.17594
G1 X108.77 Y128.509 E4.1868
G1 X109.014 Y128.293 E4.19764
G1 X109.199 Y128.024 E4.20849
G1 X109.315 Y127.718 E4.21938
G1 X109.354 Y127.394 E4.23023
G1 X109.315 Y127.071 E4.24105
G1 X109.199 Y126.765 E4.25194
G1 X109.014 Y126.496 E4.2628
G1 X108.9 Y126.394 E4.26788
G1 X109.014 Y126.293 E4.26986
G1 X109.199 Y126.024 E4.28072
G1 X109.315 Y125.718 E4.29161
G1 X109.354 Y125.394 E4.30246
G1 X109.315 Y125.071 E4.31328
G1 X109.199 Y124.765 E4.32417
G1 X109.014 Y124.496 E4.33503
G1 X108.777 Y124.285 E4.34558
G1 X108.91 Y124.215 E4.34646
G1 X109.202 Y123.958 E4.3594
G1 X109.42 Y123.64 E4.37222
G1 X109.558 Y123.279 E4.38508
G1 X109.604 Y122.894 E4.39797
G1 X109.558 Y122.51 E4.41084
G1 X109.42 Y122.15 E4.42366
G1 X109.202 Y121.832 E4.43648
G1 X108.911 Y121.573 E4.44944
G1 X108.57 Y121.394 E4.46225
G1 X108.91 Y121.215 E4.46878
G1 X109.202 Y120.958 E4.48172
G1 X109.42 Y120.64 E4.49454
G1 X109.558 Y120.279 E4.5074
G1 X109.604 Y119.894 E4.52029
G1 X109.558 Y119.51 E4.53316
G1 X109.42 Y119.15 E4.54598
G1 X109.202 Y118.832 E4.5588
G1 X108.911 Y118.573 E4.57176
G1 X108.777 Y118.503 E4.57679
G1 X109.014 Y118.293 E4.58319
G1 X109.199 Y118.024 E4.59405
G1 X109.315 Y117.718 E4.60493
G1 X109.354 Y117.394 E4.61578
G1 X109.315 Y117.071 E4.6266
G1 X109.199 Y116.765 E4.63749
G1 X109.014 Y116.496 E4.64835
G1 X108.9 Y116.394 E4.65344
G1 X109.014 Y116.293 E4.65542
G1 X109.199 Y116.024 E4.66627
G1 X109.315 Y115.718 E4.67716
G1 X109.354 Y115.394 E4.68801
G1 X109.315 Y115.071 E4.69883
G1 X109.199 Y114.765 E4.70972
G1 X109.014 Y114.496 E4.72058
G1 X108.77 Y114.279 E4.73144
G1 X108.479 Y114.128 E4.74234
G1 X108.163 Y114.05 E4.75317
G1 X107.837 Y114.05 E4.76401
G1 X107.521 Y114.128 E4.77484
G1 X107.23 Y114.279 E4.78574
G1 X106.986 Y114.496 E4.7966
G1 X106.801 Y114.765 E4.80746
G1 X106.685 Y115.071 E4.81834
G1 X106.646 Y115.394 E4.82916
G1 X106.685 Y115.718 E4.84002
G1 X106.801 Y116.024 E4.8509
G1 X106.986 Y116.293 E4.86176
G1 X107.1 Y116.394 E4.86683
G1 X106.986 Y116.496 E4.86882
G1 X106.801 Y116.765 E4.87968
G1 X106.685 Y117.071 E4.89056
G1 X106.646 Y117.394 E4.90139
G1 X106.685 Y117.718 E4.91224
G1 X106.801 Y118.024 E4.92312
G1 X106.986 Y118.293 E4.93398
G1 X107.223 Y118.503 E4.94451
G1 X107.089 Y118.573 E4.94541
G1 X106.798 Y118.832 E4.95837
G1 X106.58 Y119.15 E4.97119
G1 X106.442 Y119.51 E4.98402
G1 X106.396 Y119.894 E4.99688
G1 X106.442 Y120.279 E5.00977
G1 X106.58 Y120.64 E5.02263
G1 X106.798 Y120.958 E5.03545
G1 X107.09 Y121.215 E5.04839
G1 X107.431 Y121.394 E5.0612
G1 X107.089 Y121.573 E5.06778
G1 X106.798 Y121.832 E5.08073
G1 X106.58 Y122.15 E5.09356
G1 X106.442 Y122.51 E5.10638
G1 X106.396 Y122.894 E5.11924
G1 X106.442 Y123.279 E5.13214
G1 X106.58 Y123.64 E5.14499
G1 X106.798 Y123.958 E5.15782
G1 X107.09 Y124.215 E5.17075
G1 X107.223 Y124.285 E5.17575
G1 X106.986 Y124.496 E5.1822
G1 X106.801 Y124.765 E5.19305
G1 X106.685 Y125.071 E5.20394
G1 X106.646 Y125.394 E5.21476
G1 X106.685 Y125.718 E5.22561
G1 X106.801 Y126.024 E5.2365
G1 X106.986 Y126.293 E5.24736
G1 X107.1 Y126.394 E5.25242
G1 X106.986 Y126.496 E5.25442
G1 X106.801 Y126.765 E5.26527
G1 X106.685 Y127.071 E5.27616
G1 X106.646 Y127.394 E5.28698
G1 X106.685 Y127.718 E5.29783
G1 X106.801 Y128.024 E5.30872
G1 X106.986 Y128.293 E5.31958
G1 X107.23 Y128.509 E5.33042
G1 X107.519 Y128.661 E5.34128
G1 X107.838 Y128.739 E5.3522
G1 X108.162 Y128.739 E5.36297
G0 F6000 X108.114 Y128.339
;TYPE:WALL-OUTER
G1 F1200 X108.338 Y128.284 E5.37065
G1 X108.541 Y128.177 E5.37828
G1 X108.712 Y128.026 E5.38587
G1 X108.842 Y127.837 E5.3935
G1 X108.924 Y127.622 E5.40115
G1 X108.951 Y127.394 E5.40879
G1 X108.924 Y127.167 E5.41639
G1 X108.842 Y126.952 E5.42404
G1 X108.712 Y126.763 E5.43167
G1 X108.541 Y126.611 E5.43928
G1 X108.337 Y126.505 E5.44693
G1 X108.114 Y126.45 E5.45457
G1 X107.886 Y126.45 E5.46215
G1 X107.663 Y126.505 E5.46979
G1 X107.459 Y126.611 E5.47744
G1 X107.288 Y126.763 E5.48505
G1 X107.158 Y126.952 E5.49268
G1 X107.076 Y127.167 E5.50033
G1 X107.049 Y127.394 E5.50793
G1 X107.076 Y127.622 E5.51557
G1 X107.158 Y127.837 E5.52322
G1 X107.288 Y128.026 E5.53085
G1 X107.459 Y128.177 E5.53844
G1 X107.662 Y128.284 E5.54607
G1 X107.886 Y128.339 E5.55374
G1 X108.114 Y128.339 E5.56133
G0 F6000 X108.166 Y128.775
G1 F2700 E0.56133
G0 F6000 X108.309 Y126.395
G0 X107.992 Y126.351
G1 F2700 E5.56133
G0 F6000 X108.114 Y126.339
G1 F1200 X108.338 Y126.284 E5.569
G1 X108.541 Y126.177 E5.57663
G1 X108.712 Y126.026 E5.58422
G1 X108.842 Y125.837 E5.59185
G1 X108.924 Y125.622 E5.5995
G1 X108.951 Y125.394 E5.60714
G1 X108.924 Y125.167 E5.61474
G1 X108.842 Y124.952 E5.62239
G1 X108.712 Y124.763 E5.63002
G1 X108.541 Y124.611 E5.63763
G1 X108.337 Y124.505 E5.64528
G1 X108.114 Y124.45 E5.65292
G1 X107.886 Y124.45 E5.6605
G1 X107.663 Y124.505 E5.66814
G1 X107.459 Y124.611 E5.67579
G1 X107.288 Y124.763 E5.6834
G1 X107.158 Y124.952 E5.69103
G1 X107.076 Y125.167 E5.69868
G1 X107.049 Y125.394 E5.70628
G1 X107.076 Y125.622 E5.71392
G1 X107.158 Y125.837 E5.72157
G1 X107.288 Y126.026 E5.7292
G1 X107.459 Y126.177 E5.73679
G1 X107.662 Y126.284 E5.74442
G1 X107.886 Y126.339 E5.75209
G1 X108.114 Y126.339 E5.75968
G1 F2700 E0.75968
G0 F6000 X107.992 Y126.351
G0 X108.309 Y126.395
G0 X108.14 Y124.251
G1 F2700 E5.75968
G0 F6000 X108.145 Y124.087
G1 F1200 X108.427 Y124.017 E5.76934
G1 X108.682 Y123.883 E5.77892
G1 X108.9 Y123.691 E5.78858
G1 X109.063 Y123.453 E5.79818
G1 X109.167 Y123.182 E5.80783
G1 X109.201 Y122.894 E5.81748
G1 X109.167 Y122.607 E5.82709
G1 X109.063 Y122.337 E5.83671
G1 X108.9 Y122.098 E5.84634
G1 X108.682 Y121.905 E5.85602
G1 X108.426 Y121.771 E5.86563
G1 X108.145 Y121.702 E5.87525
G1 X107.855 Y121.702 E5.8849
G1 X107.574 Y121.771 E5.89452
G1 X107.318 Y121.905 E5.90413
G1 X107.1 Y122.098 E5.91382
G1 X106.937 Y122.337 E5.92344
G1 X106.833 Y122.607 E5.93306
G1 X106.799 Y122.894 E5.94268
G1 X106.833 Y123.182 E5.95232
G1 X106.937 Y123.453 E5.96198
G1 X107.1 Y123.691 E5.97157
G1 X107.318 Y123.883 E5.98123
G1 X107.573 Y124.017 E5.99081
G1 X107.855 Y124.087 E6.00048
G1 X108.145 Y124.087 E6.01012
G1 F2700 E1.01012
G0 F6000 X108.145 Y124.287
G0 X108.761 Y123.998
G0 X109.004 Y123.785
G0 X109.302 Y123.218
G0 X109.342 Y122.894
G0 X109.187 Y122.271
G0 X108.145 Y121.287
G1 F2700 E6.01012
G0 F6000 X108.145 Y121.087
G1 F1200 X108.427 Y121.017 E6.01979
G1 X108.682 Y120.883 E6.02937
G1 X108.9 Y120.691 E6.03903
G1 X109.063 Y120.453 E6.04862
G1 X109.167 Y120.182 E6.05828
G1 X109.201 Y119.894 E6.06792
G1 X109.167 Y119.607 E6.07754
G1 X109.063 Y119.337 E6.08716
G1 X108.9 Y119.098 E6.09678
G1 X108.682 Y118.905 E6.10647
G1 X108.426 Y118.771 E6.11608
G1 X108.145 Y118.702 E6.1257
G1 X107.855 Y118.702 E6.13535
G1 X107.574 Y118.771 E6.14497
G1 X107.318 Y118.905 E6.15458
G1 X107.1 Y119.098 E6.16426
G1 X106.937 Y119.337 E6.17389
G1 X106.833 Y119.607 E6.18351
G1 X106.799 Y119.894 E6.19312
G1 X106.833 Y120.182 E6.20277
G1 X106.937 Y120.453 E6.21242
G1 X107.1 Y120.691 E6.22202
G1 X107.318 Y120.883 E6.23168
G1 X107.573 Y121.017 E6.24126
G1 X107.855 Y121.087 E6.25092
G1 X108.145 Y121.087 E6.26057
G1 F2700 E1.26057
G0 F6000 X108.145 Y121.287
G0 X108.761 Y120.998
G0 X109.004 Y120.785
G0 X109.302 Y120.218
G0 X109.342 Y119.894
G0 X109.302 Y119.573
G0 X109.007 Y119.006
G0 X108.576 Y118.709
G0 X108.114 Y118.539
G1 F2700 E6.26057
G0 F6000 X108.114 Y118.339
G1 F1200 X108.338 Y118.284 E6.26824
G1 X108.541 Y118.177 E6.27587
G1 X108.712 Y118.026 E6.28346
G1 X108.842 Y117.837 E6.29109
G1 X108.924 Y117.622 E6.29874
G1 X108.951 Y117.394 E6.30638
G1 X108.924 Y117.167 E6.31398
G1 X108.842 Y116.952 E6.32164
G1 X108.712 Y116.763 E6.32926
G1 X108.541 Y116.611 E6.33687
G1 X108.337 Y116.505 E6.34452
G1 X108.114 Y116.45 E6.35216
G1 X107.886 Y116.45 E6.35974
G1 X107.663 Y116.505 E6.36738
G1 X107.459 Y116.611 E6.37503
G1 X107.288 Y116.763 E6.38264
G1 X107.158 Y116.952 E6.39027
G1 X107.076 Y117.167 E6.39792
G1 X107.049 Y117.394 E6.40552
G1 X107.076 Y117.622 E6.41316
G1 X107.158 Y117.837 E6.42081
G1 X107.288 Y118.026 E6.42844
G1 X107.459 Y118.177 E6.43603
G1 X107.662 Y118.284 E6.44366
G1 X107.886 Y118.339 E6.45134
G1 X108.114 Y118.339 E6.45892
G1 F2700 E1.45892
G0 F6000 X108.114 Y118.502
G0 X108.31 Y116.395
G0 X108.016 Y116.357
G1 F2700 E6.45892
G0 F6000 X108.114 Y116.339
G1 F1200 X108.338 Y116.284 E6.46659
G1 X108.541 Y116.177 E6.47422
G1 X108.712 Y116.026 E6.48181
G1 X108.842 Y115.837 E6.48944
G1 X108.924 Y115.622 E6.49709
G1 X108.951 Y115.394 E6.50473
G1 X108.924 Y115.167 E6.51233
G1 X108.842 Y114.952 E6.51999
G1 X108.712 Y114.763 E6.52762
G1 X108.541 Y114.611 E6.53523
G1 X108.337 Y114.505 E6.54287
G1 X108.114 Y114.45 E6.55051
G1 X107.886 Y114.45 E6.55809
G1 X107.663 Y114.505 E6.56573
G1 X107.459 Y114.611 E6.57338
G1 X107.288 Y114.763 E6.58099
G1 X107.158 Y114.952 E6.58862
G1 X107.076 Y115.167 E6.59627
G1 X107.049 Y115.394 E6.60388
G1 X107.076 Y115.622 E6.61151
G1 X107.158 Y115.837 E6.61917
G1 X107.288 Y116.026 E6.6268
G1 X107.459 Y116.177 E6.63438
G1 X107.662 Y116.284 E6.64201
G1 X107.886 Y116.339 E6.64969
G1 X108.114 Y116.339 E6.65727
G1 F2700 E1.65727
G0 F6000 X108.016 Y116.357
G0 X110.499 Y117.024
G0 X111.1 Y116.394
;TYPE:WALL-INNER
G1 F2700 E6.65727
G1 F1200 X110.986 Y116.496 E6.66236
G1 X110.801 Y116.765 E6.67322
G1 X110.685 Y117.071 E6.6841
G1 X110.646 Y117.394 E6.69492
G1 X110.685 Y117.718 E6.70578
G1 X110.801 Y118.024 E6.71666
G1 X110.986 Y118.293 E6.72752
G1 X111.223 Y118.503 E6.73805
G1 X111.089 Y118.573 E6.73895
G1 X110.798 Y118.832 E6.7519
G1 X110.58 Y119.15 E6.76473
G1 X110.442 Y119.51 E6.77755
G1 X110.396 Y119.894 E6.79041
G1 X110.442 Y120.279 E6.80331
G1 X110.58 Y120.64 E6.81617
G1 X110.798 Y120.958 E6.82899
G1 X111.09 Y121.215 E6.84193
G1 X111.431 Y121.394 E6.85474
G1 X111.089 Y121.573 E6.86131
G1 X110.798 Y121.832 E6.87427
G1 X110.58 Y122.15 E6.88709
G1 X110.442 Y122.51 E6.89992
G1 X110.396 Y122.894 E6.91278
G1 X110.442 Y123.279 E6.92567
G1 X110.58 Y123.64 E6.93853
G1 X110.798 Y123.958 E6.95135
G1 X111.09 Y124.215 E6.96429
G1 X111.223 Y124.285 E6.96929
G1 X110.986 Y124.496 E6.97573
G1 X110.801 Y124.765 E6.98659
G1 X110.685 Y125.071 E6.99747
G1 X110.646 Y125.394 E7.0083
G1 X110.685 Y125.718 E7.01915
G1 X110.801 Y126.024 E7.03003
G1 X110.986 Y126.293 E7.04089
G1 X111.1 Y126.394 E7.04596
G1 X110.986 Y126.496 E7.04795
G1 X110.801 Y126.765 E7.05881
G1 X110.685 Y127.071 E7.0697
G1 X110.646 Y127.394 E7.08052
G1 X110.685 Y127.718 E7.09137
G1 X110.801 Y128.024 E7.10225
G1 X110.986 Y128.293 E7.11311
G1 X111.23 Y128.509 E7.12395
G1 X111.519 Y128.661 E7.13481
G1 X111.838 Y128.739 E7.14573
G1 X112.162 Y128.739 E7.15651
G1 X112.481 Y128.661 E7.16743
G1 X112.77 Y128.509 E7.17829
G1 X113.014 Y128.293 E7.18913
G1 X113.199 Y128.024 E7.19999
G1 X113.315 Y127.718 E7.21088
G1 X113.354 Y127.394 E7.22173
G1 X113.315 Y127.071 E7.23255
G1 X113.199 Y126.765 E7.24344
G1 X113.014 Y126.496 E7.25429
G1 X112.9 Y126.394 E7.25938
G1 X113.014 Y126.293 E7.26136
G1 X113.199 Y126.024 E7.27222
G1 X113.315 Y125.718 E7.28311
G1 X113.354 Y125.394 E7.29396
G1 X113.315 Y125.071 E7.30478
G1 X113.199 Y124.765 E7.31566
G1 X113.014 Y124.496 E7.32652
G1 X112.777 Y124.285 E7.33708
G1 X112.91 Y124.215 E7.33796
G1 X113.202 Y123.958 E7.3509
G1 X113.42 Y123.64 E7.36372
G1 X113.558 Y123.279 E7.37658
G1 X113.604 Y122.894 E7.38947
G1 X113.558 Y122.51 E7.40234
G1 X113.42 Y122.15 E7.41516
G1 X113.202 Y121.832 E7.42798
G1 X112.911 Y121.573 E7.44094
G1 X112.57 Y121.394 E7.45375
