;FLAVOR:Marlin
;TIME:3164
;Filament used: 3.28142m
;Layer height: 0.2
;MINX:38.836
;MINY:85.036
;MINZ:0.24
;MAXX:181.131
;MAXY:130.332
;MAXZ:14.09
;Generated with Cura_SteamEngine 4.8.0
M140 S50
M105
M190 S50
M104 S200
M105
M109 S200
M82 ;absolute extrusion mode
M201 X500.00 Y500.00 Z100.00 E5000.00 ;Setup machine max acceleration
M203 X500.00 Y500.00 Z10.00 E50.00 ;Setup machine max feedrate
M204 P500.00 R1000.00 T500.00 ;Setup Print/Retract/Travel acceleration
M205 X8.00 Y8.00 Z0.40 E5.00 ;Setup Jerk
M220 S100 ;Reset Feedrate
M221 S100 ;Reset Flowrate

G28 ;Home

G92 E0 ;Reset Extruder
G1 Z2.0 F3000 ;Move Z Axis up
G1 X10.1 Y20 Z0.28 F5000.0 ;Move to start position
G1 X10.1 Y200.0 Z0.28 F1500.0 E15 ;Draw the first line
G1 X10.4 Y200.0 Z0.28 F5000.0 ;Move to side a little
G1 X10.4 Y20 Z0.28 F1500.0 E30 ;Draw the second line
G92 E0 ;Reset Extruder
G1 Z2.0 F3000 ;Move Z Axis up

G92 E0
G92 E0
G1 F2700 E-5
;LAYER_COUNT:65
;LAYER:-6
M107
G0 F12000 X51.515 Y87.851 Z0.24
;TYPE:SUPPORT-INTERFACE
G1 F2700 E0
G1 F1800 X51.657 Y87.774 E0.01289
G1 X52.489 Y87.365 E0.0869
G1 X52.602 Y87.315 E0.09676
G1 X53.452 Y86.972 E0.16993
G1 X53.625 Y86.91 E0.1846
G1 X54.463 Y86.641 E0.25485
G1 X54.627 Y86.595 E0.26845
G1 X55.499 Y86.383 E0.34008
G1 X55.661 Y86.35 E0.35328
G1 X56.554 Y86.202 E0.42554
G1 X56.731 Y86.179 E0.43978
G1 X57.625 Y86.096 E0.51145
G1 X57.767 Y86.089 E0.5228
G1 X58.508 Y86.068 E0.58198
G1 X161.503 Y86.069 E8.80348
G1 X162.504 Y86.105 E8.88344
G1 X162.627 Y86.114 E8.89328
G1 X163.544 Y86.216 E8.96693
G1 X163.719 Y86.241 E8.98105
G1 X164.608 Y86.405 E9.05321
G1 X164.731 Y86.433 E9.06328
G1 X165.625 Y86.667 E9.13704
G1 X165.788 Y86.716 E9.15063
G1 X166.63 Y87.002 E9.22161
G1 X166.796 Y87.066 E9.23581
G1 X167.599 Y87.407 E9.30545
G1 X167.788 Y87.495 E9.3221
G1 X168.582 Y87.903 E9.39335
G1 X168.699 Y87.97 E9.40412
G1 X169.478 Y88.444 E9.47691
G1 X169.629 Y88.544 E9.49136
G1 X170.343 Y89.055 E9.56145
G1 X170.491 Y89.168 E9.57631
G1 X171.183 Y89.745 E9.64824
G1 X171.291 Y89.841 E9.65977
G1 X171.803 Y90.323 E9.7159
G1 X175.806 Y94.326 E10.1678
G1 X176.488 Y95.059 E10.24772
G1 X176.607 Y95.198 E10.26232
G1 X177.161 Y95.889 E10.33302
G1 X177.265 Y96.028 E10.34688
G1 X177.757 Y96.743 E10.41616
G1 X177.874 Y96.927 E10.43356
G1 X178.314 Y97.676 E10.50291
G1 X178.387 Y97.81 E10.51509
G1 X178.792 Y98.633 E10.58831
G1 X178.853 Y98.77 E10.60028
G1 X179.195 Y99.615 E10.67304
G1 X179.254 Y99.781 E10.68711
G1 X179.525 Y100.623 E10.75771
G1 X179.572 Y100.789 E10.77149
G1 X179.783 Y101.658 E10.84287
G1 X179.817 Y101.821 E10.85616
G1 X179.965 Y102.713 E10.92834
G1 X179.989 Y102.899 E10.94331
G1 X180.07 Y103.783 E11.01417
G1 X180.079 Y103.935 E11.02632
G1 X180.1 Y104.668 E11.08486
G1 X180.1 Y110.654 E11.56268
G1 X180.064 Y111.66 E11.64304
G1 X180.054 Y111.795 E11.65385
G1 X179.952 Y112.712 E11.7275
G1 X179.927 Y112.887 E11.74161
G1 X179.765 Y113.765 E11.81288
G1 X179.735 Y113.899 E11.82384
G1 X179.504 Y114.784 E11.89685
G1 X179.452 Y114.956 E11.91119
G1 X179.166 Y115.798 E11.98218
G1 X179.102 Y115.964 E11.99638
G1 X178.761 Y116.767 E12.06602
G1 X178.68 Y116.942 E12.08141
G1 X178.276 Y117.728 E12.15195
G1 X178.198 Y117.867 E12.16468
G1 X177.724 Y118.646 E12.23747
G1 X177.624 Y118.797 E12.25192
G1 X177.113 Y119.511 E12.32201
G1 X177 Y119.659 E12.33687
G1 X176.423 Y120.351 E12.4088
G1 X176.327 Y120.459 E12.42033
G1 X175.845 Y120.971 E12.47646
G1 X171.805 Y125.01 E12.93248
G1 X171.12 Y125.646 E13.00709
G1 X170.972 Y125.773 E13.02266
G1 X170.279 Y126.329 E13.09358
G1 X170.14 Y126.433 E13.10744
G1 X169.425 Y126.925 E13.17672
G1 X169.241 Y127.042 E13.19412
G1 X168.485 Y127.485 E13.26407
G1 X168.343 Y127.562 E13.27696
G1 X167.515 Y127.969 E13.35061
G1 X167.398 Y128.021 E13.36083
G1 X166.543 Y128.366 E13.43443
G1 X166.38 Y128.424 E13.44824
G1 X165.537 Y128.695 E13.51892
G1 X165.373 Y128.741 E13.53252
G1 X164.501 Y128.953 E13.60415
G1 X164.339 Y128.986 E13.61735
G1 X163.446 Y129.134 E13.6896
G1 X163.269 Y129.157 E13.70385
G1 X162.375 Y129.24 E13.77552
G1 X162.233 Y129.247 E13.78687
G1 X161.492 Y129.268 E13.84604
G1 X58.497 Y129.267 E22.06755
G1 X57.496 Y129.231 E22.14751
G1 X57.373 Y129.222 E22.15735
G1 X56.456 Y129.12 E22.231
G1 X56.281 Y129.095 E22.24511
G1 X55.392 Y128.931 E22.31727
G1 X55.269 Y128.903 E22.32734
G1 X54.375 Y128.669 E22.40111
G1 X54.212 Y128.62 E22.4147
G1 X53.37 Y128.334 E22.48568
G1 X53.204 Y128.27 E22.49988
G1 X52.401 Y127.929 E22.56952
G1 X52.212 Y127.841 E22.58616
G1 X51.418 Y127.433 E22.65742
G1 X51.301 Y127.366 E22.66818
G1 X50.522 Y126.892 E22.74097
G1 X50.371 Y126.792 E22.75543
G1 X49.657 Y126.281 E22.82552
G1 X49.509 Y126.168 E22.84038
G1 X48.817 Y125.591 E22.9123
G1 X48.709 Y125.495 E22.92384
G1 X48.197 Y125.013 E22.97997
G1 X44.154 Y120.969 E23.43643
G1 X43.51 Y120.275 E23.51201
G1 X43.393 Y120.138 E23.52639
G1 X42.843 Y119.452 E23.59658
G1 X42.727 Y119.296 E23.6121
G1 X42.243 Y118.593 E23.68023
G1 X42.126 Y118.409 E23.69763
G1 X41.683 Y117.653 E23.76758
G1 X41.606 Y117.511 E23.78047
G1 X41.197 Y116.679 E23.85447
G1 X41.147 Y116.566 E23.86434
G1 X40.798 Y115.702 E23.93872
G1 X40.742 Y115.544 E23.9521
G1 X40.47 Y114.696 E24.02319
G1 X40.428 Y114.546 E24.03562
G1 X40.212 Y113.658 E24.10857
G1 X40.183 Y113.515 E24.12022
G1 X40.033 Y112.609 E24.19353
G1 X40.011 Y112.437 E24.20737
G1 X39.928 Y111.538 E24.27944
G1 X39.921 Y111.401 E24.29039
G1 X39.9 Y110.668 E24.34892
G1 X39.9 Y104.682 E24.82675
G1 X39.936 Y103.676 E24.9071
G1 X39.946 Y103.541 E24.91791
G1 X40.047 Y102.626 E24.99139
G1 X40.073 Y102.451 E25.00552
G1 X40.235 Y101.571 E25.07694
G1 X40.265 Y101.437 E25.0879
G1 X40.496 Y100.551 E25.16099
G1 X40.548 Y100.38 E25.17526
G1 X40.834 Y99.538 E25.24624
G1 X40.898 Y99.372 E25.26044
G1 X41.239 Y98.569 E25.33008
G1 X41.32 Y98.394 E25.34548
G1 X41.735 Y97.586 E25.41798
G1 X41.802 Y97.469 E25.42875
G1 X42.276 Y96.69 E25.50154
G1 X42.376 Y96.539 E25.51599
G1 X42.892 Y95.818 E25.58677
G1 X43 Y95.677 E25.60094
G1 X43.577 Y94.985 E25.67287
G1 X43.673 Y94.877 E25.6844
G1 X44.155 Y94.365 E25.74053
G1 X48.195 Y90.326 E26.19655
G1 X48.891 Y89.68 E26.27235
G1 X49.03 Y89.561 E26.28695
G1 X49.721 Y89.007 E26.35765
G1 X49.86 Y88.903 E26.37151
G1 X50.575 Y88.411 E26.44079
G1 X50.759 Y88.294 E26.45819
G1 X51.515 Y87.851 E26.52814
G0 F12000 X51.2 Y88.035
G1 F1800 X51.2 Y127.304 E29.66276
G0 F12000 X52.8 Y128.098
G1 F1800 X52.8 Y87.235 E32.92462
G0 F12000 X54.4 Y86.661
G1 F1800 X54.4 Y128.675 E36.27836
G0 F12000 X56 Y129.043
G1 F1800 X56 Y86.293 E39.69085
G0 F12000 X57.6 Y86.098
G1 F1800 X57.6 Y129.234 E43.13415
G0 F12000 X59.2 Y129.267
G1 F1800 X59.2 Y86.069 E46.5824
G0 F12000 X60.8 Y86.069
G1 F1800 X60.8 Y129.267 E50.03065
G0 F12000 X62.4 Y129.267
G1 F1800 X62.4 Y86.069 E53.47891
G0 F12000 X64 Y86.069
G1 F1800 X64 Y129.267 E56.92716
G0 F12000 X65.6 Y129.267
G1 F1800 X65.6 Y86.069 E60.37541
G0 F12000 X67.2 Y86.069
G1 F1800 X67.2 Y129.267 E63.82366
G0 F12000 X68.8 Y129.267
G1 F1800 X68.8 Y86.069 E67.27191
G0 F12000 X70.4 Y86.069
G1 F1800 X70.4 Y129.267 E70.72016
G0 F12000 X72 Y129.267
G1 F1800 X72 Y86.069 E74.16841
G0 F12000 X73.6 Y86.069
G1 F1800 X73.6 Y129.267 E77.61666
G0 F12000 X75.2 Y129.267
G1 F1800 X75.2 Y86.069 E81.06492
G0 F12000 X76.8 Y86.069
G1 F1800 X76.8 Y129.267 E84.51317
G0 F12000 X78.4 Y129.267
G1 F1800 X78.4 Y86.069 E87.96142
G0 F12000 X80 Y86.069
G1 F1800 X80 Y129.267 E91.40967
G0 F12000 X81.6 Y129.267
G1 F1800 X81.6 Y86.069 E94.85792
G0 F12000 X83.2 Y86.069
G1 F1800 X83.2 Y129.267 E98.30617
G0 F12000 X84.8 Y129.267
G1 F1800 X84.8 Y86.069 E101.75442
G0 F12000 X86.4 Y86.069
G1 F1800 X86.4 Y129.267 E105.20267
G0 F12000 X88 Y129.267
G1 F1800 X88 Y86.069 E108.65092
G0 F12000 X89.6 Y86.069
G1 F1800 X89.6 Y129.267 E112.09918
G0 F12000 X91.2 Y129.267
G1 F1800 X91.2 Y86.069 E115.54743
G0 F12000 X92.8 Y86.069
G1 F1800 X92.8 Y129.267 E118.99568
G0 F12000 X94.4 Y129.267
G1 F1800 X94.4 Y86.069 E122.44393
G0 F12000 X96 Y86.069
G1 F1800 X96 Y129.267 E125.89218
G0 F12000 X97.6 Y129.267
G1 F1800 X97.6 Y86.069 E129.34043
G0 F12000 X99.2 Y86.069
G1 F1800 X99.2 Y129.267 E132.78868
G0 F12000 X100.8 Y129.267
G1 F1800 X100.8 Y86.069 E136.23693
G0 F12000 X102.4 Y86.069
G1 F1800 X102.4 Y129.267 E139.68518
G0 F12000 X104 Y129.267
G1 F1800 X104 Y86.069 E143.13344
G0 F12000 X105.6 Y86.069
G1 F1800 X105.6 Y129.267 E146.58169
G0 F12000 X107.2 Y129.267
G1 F1800 X107.2 Y86.069 E150.02994
G0 F12000 X108.8 Y86.069
G1 F1800 X108.8 Y129.267 E153.47819
G0 F12000 X110.4 Y129.267
G1 F1800 X110.4 Y86.069 E156.92644
G0 F12000 X112 Y86.069
G1 F1800 X112 Y129.267 E160.37469
G0 F12000 X113.6 Y129.267
G1 F1800 X113.6 Y86.069 E163.82294
G0 F12000 X115.2 Y86.069
G1 F1800 X115.2 Y129.267 E167.27119
G0 F12000 X116.8 Y129.267
G1 F1800 X116.8 Y86.069 E170.71945
G0 F12000 X118.4 Y86.069
G1 F1800 X118.4 Y129.267 E174.1677
G0 F12000 X120 Y129.267
G1 F1800 X120 Y86.069 E177.61595
G0 F12000 X121.6 Y86.069
G1 F1800 X121.6 Y129.267 E181.0642
G0 F12000 X123.2 Y129.267
G1 F1800 X123.2 Y86.069 E184.51245
G0 F12000 X124.8 Y86.069
G1 F1800 X124.8 Y129.267 E187.9607
G0 F12000 X126.4 Y129.267
G1 F1800 X126.4 Y86.069 E191.40895
G0 F12000 X128 Y86.069
G1 F1800 X128 Y129.267 E194.8572
G0 F12000 X129.6 Y129.267
G1 F1800 X129.6 Y86.069 E198.30545
G0 F12000 X131.2 Y86.069
G1 F1800 X131.2 Y129.267 E201.75371
G0 F12000 X132.8 Y129.267
G1 F1800 X132.8 Y86.069 E205.20196
G0 F12000 X134.4 Y86.069
G1 F1800 X134.4 Y129.267 E208.65021
G0 F12000 X136 Y129.267
G1 F1800 X136 Y86.069 E212.09846
G0 F12000 X137.6 Y86.069
G1 F1800 X137.6 Y129.267 E215.54671
G0 F12000 X139.2 Y129.267
G1 F1800 X139.2 Y86.069 E218.99496
G0 F12000 X140.8 Y86.069
G1 F1800 X140.8 Y129.267 E222.44321
G0 F12000 X142.4 Y129.267
G1 F1800 X142.4 Y86.069 E225.89146
G0 F12000 X144 Y86.069
G1 F1800 X144 Y129.267 E229.33971
G0 F12000 X145.6 Y129.267
G1 F1800 X145.6 Y86.069 E232.78797
G0 F12000 X147.2 Y86.069
G1 F1800 X147.2 Y129.267 E236.23622
G0 F12000 X148.8 Y129.267
G1 F1800 X148.8 Y86.069 E239.68447
G0 F12000 X150.4 Y86.069
G1 F1800 X150.4 Y129.267 E243.13272
G0 F12000 X152 Y129.267
G1 F1800 X152 Y86.069 E246.58097
G0 F12000 X153.6 Y86.069
G1 F1800 X153.6 Y129.267 E250.02922
G0 F12000 X155.2 Y129.267
G1 F1800 X155.2 Y86.069 E253.47747
G0 F12000 X156.8 Y86.069
G1 F1800 X156.8 Y129.267 E256.92572
G0 F12000 X158.4 Y129.267
G1 F1800 X158.4 Y86.069 E260.37398
G0 F12000 X160 Y86.069
G1 F1800 X160 Y129.267 E263.82223
G0 F12000 X161.6 Y129.265
G1 F1800 X161.6 Y86.073 E267.27
G0 F12000 X163.2 Y86.178
G1 F1800 X163.2 Y129.164 E270.70133
G0 F12000 X164.8 Y128.881
G1 F1800 X164.8 Y86.452 E274.08819
G0 F12000 X166.4 Y86.924
G1 F1800 X166.4 Y128.417 E277.40034
G0 F12000 X168 Y127.731
G1 F1800 X168 Y87.604 E280.60345
G0 F12000 X169.6 Y88.525
G1 F1800 X169.6 Y126.805 E283.65913
G0 F12000 X171.2 Y125.572
G1 F1800 X171.2 Y89.761 E286.51772
G0 F12000 X172.8 Y91.32
G1 F1800 X172.8 Y124.016 E289.12765
G0 F12000 X174.4 Y122.416
G1 F1800 X174.4 Y92.92 E291.48215
G0 F12000 X176 Y94.535
G1 F1800 X176 Y120.807 E293.5793
G0 F12000 X177.6 Y118.831
G1 F1800 X177.6 Y96.515 E295.36066
G0 F12000 X179.2 Y99.63
G1 F1800 X179.2 Y115.698 E296.64327
G1 F2700 E291.64327
G0 F12000 X180.169 Y116.153
G0 X179.632 Y117.417
G0 X178.626 Y119.211
G0 X177.838 Y120.316
G0 X176.56 Y121.761
G0 X171.824 Y126.444
G0 X170.754 Y127.302
G0 X169.002 Y128.415
G0 X167.807 Y129.003
G0 X165.842 Y129.715
G0 X164.533 Y130.034
G0 X162.456 Y130.3
G0 X57.443 Y130.294
G0 X56.117 Y130.147
G0 X54.09 Y129.695
G0 X52.8 Y129.255
G0 X50.92 Y128.373
G0 X50.592 Y128.173
G0 X49.019 Y127.134
G0 X49.6 Y126.237
G1 F2700 E296.64327
G1 F1800 X49.6 Y89.104 E299.60739
G0 F12000 X48 Y90.52
G1 F1800 X48 Y124.815 E302.34497
G0 F12000 X46.4 Y123.215
G1 F1800 X46.4 Y92.12 E304.8271
G0 F12000 X44.8 Y93.72
G1 F1800 X44.8 Y121.615 E307.0538
G0 F12000 X43.2 Y119.897
G1 F1800 X43.2 Y95.437 E309.00631
G0 F12000 X41.6 Y97.848
G1 F1800 X41.6 Y117.498 E310.57485
G1 F2700 E305.57485
G0 F12000 X40.645 Y117.968
G0 X39.806 Y116.088
G0 X39.396 Y114.81
G0 X38.981 Y112.77
G0 X40 Y112.317
G1 F2700 E310.57485
G1 F1800 X40 Y103.051 E311.31451
G1 F2700 E306.31451
G0 F300 X40 Y103.051 Z0.54
G0 F12000 X38.887 Y103.437
G0 X38.836 Y104.657
G0 X38.868 Y111.624
G0 X39.134 Y113.7
G0 X39.453 Y115.01
G0 X40.165 Y116.975
G0 X40.753 Y118.17
G0 X41.851 Y119.899
G0 X42.726 Y119.295
;TIME_ELAPSED:149.451573
;LAYER:-5
;TYPE:SUPPORT
G1 F2700 E311.31451
G1 F1800 X42.842 Y119.45 E311.33382
G1 X43.393 Y120.136 E311.42162
G1 X43.509 Y120.274 E311.43961
G1 X44.153 Y120.968 E311.53408
G1 X48.196 Y125.012 E312.10466
G1 X48.709 Y125.493 E312.17483
G1 X48.817 Y125.59 E312.18931
G1 X49.508 Y126.167 E312.27914
G1 X49.656 Y126.28 E312.29772
G1 X50.371 Y126.791 E312.38541
G1 X50.522 Y126.891 E312.40348
G0 F12000 X50.525 Y126.893
G1 F1800 X42.283 Y118.651 E313.56651
G1 X42.243 Y118.592 E313.57362
G1 X42.125 Y118.408 E313.59544
G1 X41.683 Y117.651 E313.6829
G1 X41.606 Y117.509 E313.69902
G1 X41.197 Y116.678 E313.79144
G1 X41.146 Y116.565 E313.80381
G1 X40.831 Y115.784 E313.88784
G1 X53.385 Y128.338 E315.65934
G1 X54.211 Y128.619 E315.7464
G1 X54.375 Y128.667 E315.76345
G1 X55.268 Y128.902 E315.85559
G1 X55.39 Y128.929 E315.86805
G1 X40.241 Y113.78 E318.00574
G1 X40.211 Y113.657 E318.01837
G1 X40.182 Y113.513 E318.03303
G1 X40.033 Y112.608 E318.12455
G1 X40.011 Y112.436 E318.14185
G1 X39.98 Y112.105 E318.17502
G1 X57.061 Y129.186 E320.58533
G1 X57.373 Y129.22 E320.61665
G1 X57.495 Y129.23 E320.62886
G1 X58.497 Y129.266 E320.72891
G1 X58.555 Y129.266 E320.7347
G1 X39.899 Y110.61 E323.36726
G1 X39.899 Y109.196 E323.50835
G1 X59.969 Y129.266 E326.34044
G1 X61.383 Y129.266 E326.48153
G1 X39.899 Y107.782 E329.51316
G1 X39.899 Y106.367 E329.65435
G1 X62.798 Y129.266 E332.88564
G1 X64.212 Y129.266 E333.02673
G1 X39.899 Y104.953 E336.45756
G1 X39.899 Y104.68 E336.4848
G1 X39.936 Y103.675 E336.58515
G1 X39.942 Y103.581 E336.59454
G1 X65.626 Y129.266 E340.2189
G1 X67.04 Y129.266 E340.35999
G1 X40.096 Y102.321 E344.16215
G1 X40.234 Y101.57 E344.23834
G1 X40.264 Y101.436 E344.25205
G1 X40.339 Y101.15 E344.28155
G1 X68.455 Y129.266 E348.24902
G1 X69.869 Y129.266 E348.39011
G1 X40.657 Y100.054 E352.51224
G1 X40.834 Y99.536 E352.56686
G1 X40.897 Y99.371 E352.58448
G1 X41.044 Y99.026 E352.6219
G1 X71.283 Y129.266 E356.88902
G1 X72.697 Y129.266 E357.03011
G1 X41.49 Y98.059 E361.43375
G1 X41.734 Y97.584 E361.48704
G1 X41.802 Y97.468 E361.50045
G1 X41.995 Y97.149 E361.53766
G1 X74.111 Y129.266 E366.06964
G1 X75.526 Y129.266 E366.21083
G1 X42.551 Y96.291 E370.86396
G1 X42.891 Y95.817 E370.92216
G1 X42.999 Y95.676 E370.93989
G1 X43.158 Y95.484 E370.96476
G1 X76.94 Y129.266 E375.73177
G1 X78.354 Y129.266 E375.87285
G1 X43.813 Y94.725 E380.74696
G1 X44.155 Y94.364 E380.79658
G1 X44.511 Y94.009 E380.84675
G1 X79.768 Y129.266 E385.82189
G1 X81.182 Y129.266 E385.96298
G1 X45.218 Y93.302 E391.03789
G1 X45.925 Y92.594 E391.13772
G1 X82.597 Y129.266 E396.31254
G1 X84.011 Y129.266 E396.45363
G1 X46.632 Y91.887 E401.72821
G1 X47.34 Y91.18 E401.82805
G1 X85.425 Y129.266 E407.20232
G1 X86.839 Y129.266 E407.34341
G1 X48.047 Y90.473 E412.81745
G1 X48.194 Y90.325 E412.83827
G1 X48.775 Y89.787 E412.91728
G1 X88.253 Y129.266 E418.48812
G1 X89.668 Y129.266 E418.62931
G1 X49.547 Y89.145 E424.29081
G1 X49.72 Y89.006 E424.31296
G1 X49.86 Y88.902 E424.33036
G1 X50.368 Y88.552 E424.39191
G1 X91.082 Y129.266 E430.1371
G1 X92.496 Y129.266 E430.27819
G1 X51.241 Y88.01 E436.09979
G1 X51.514 Y87.85 E436.13136
G1 X51.656 Y87.773 E436.14748
G1 X52.167 Y87.522 E436.20428
G1 X93.911 Y129.266 E442.09481
G1 X95.325 Y129.266 E442.2359
G1 X53.151 Y87.092 E448.18711
G1 X53.451 Y86.971 E448.21939
G1 X53.624 Y86.909 E448.23772
G1 X54.199 Y86.725 E448.29796
G1 X96.739 Y129.266 E454.30089
G1 X98.154 Y129.266 E454.44208
G1 X55.314 Y86.427 E460.48719
G1 X55.498 Y86.382 E460.50609
G1 X55.66 Y86.349 E460.52259
G1 X56.51 Y86.209 E460.60855
G1 X99.568 Y129.266 E466.68442
G1 X100.982 Y129.266 E466.82551
G1 X57.803 Y86.087 E472.91854
G1 X58.508 Y86.066 E472.98891
G1 X59.197 Y86.067 E473.05766
G1 X102.396 Y129.266 E479.15351
G1 X103.811 Y129.266 E479.2947
G1 X60.611 Y86.067 E485.39061
G1 X62.025 Y86.067 E485.5317
