;FLAVOR:Marlin
;TIME:2491
;Filament used: 2.32165m
;Layer height: 0.2
;MINX:97.336
;MINY:54.836
;MINZ:0.24
;MAXX:122.664
;MAXY:177.165
;MAXZ:14.09
;Generated with Cura_SteamEngine 4.8.0
M140 S50
M105
M190 S50
M104 S200
M105
M109 S200
M82 ;absolute extrusion mode
M201 X500.00 Y500.00 Z100.00 E5000.00 ;Setup machine max acceleration
M203 X500.00 Y500.00 Z10.00 E50.00 ;Setup machine max feedrate
M204 P500.00 R1000.00 T500.00 ;Setup Print/Retract/Travel acceleration
M205 X8.00 Y8.00 Z0.40 E5.00 ;Setup Jerk
M220 S100 ;Reset Feedrate
M221 S100 ;Reset Flowrate

G28 ;Home

G92 E0 ;Reset Extruder
G1 Z2.0 F3000 ;Move Z Axis up
G1 X10.1 Y20 Z0.28 F5000.0 ;Move to start position
G1 X10.1 Y200.0 Z0.28 F1500.0 E15 ;Draw the first line
G1 X10.4 Y200.0 Z0.28 F5000.0 ;Move to side a little
G1 X10.4 Y20 Z0.28 F1500.0 E30 ;Draw the second line
G92 E0 ;Reset Extruder
G1 Z2.0 F3000 ;Move Z Axis up

G92 E0
G92 E0
G1 F2700 E-5
;LAYER_COUNT:65
;LAYER:-6
M107
G0 F12000 X99.052 Y62.155 Z0.24
;TYPE:SUPPORT-INTERFACE
G1 F2700 E0
G1 F1800 X99.204 Y61.917 E0.02254
G1 X99.394 Y61.661 E0.04799
G1 X99.698 Y61.307 E0.08524
G1 X99.816 Y61.178 E0.09919
G1 X103.685 Y57.309 E0.53596
G1 X103.792 Y57.209 E0.54765
G1 X104.087 Y56.95 E0.57899
G1 X104.302 Y56.783 E0.60072
G1 X104.533 Y56.627 E0.62297
G1 X104.801 Y56.469 E0.6478
G1 X105.058 Y56.339 E0.67079
G1 X105.328 Y56.223 E0.69425
G1 X105.584 Y56.131 E0.71596
G1 X105.876 Y56.047 E0.74022
G1 X106.137 Y55.991 E0.76153
G1 X106.457 Y55.943 E0.78736
G1 X106.925 Y55.907 E0.82482
G1 X107.117 Y55.9 E0.84016
G1 X112.924 Y55.9 E1.3037
G1 X113.05 Y55.904 E1.31376
G1 X113.427 Y55.928 E1.34392
G1 X113.725 Y55.965 E1.36789
G1 X114.009 Y56.02 E1.39098
G1 X114.3 Y56.096 E1.41499
G1 X114.558 Y56.18 E1.43665
G1 X114.837 Y56.291 E1.46062
G1 X115.095 Y56.413 E1.4834
G1 X115.354 Y56.557 E1.50705
G1 X115.573 Y56.696 E1.52776
G1 X115.839 Y56.894 E1.55423
G1 X116.193 Y57.198 E1.59147
G1 X116.322 Y57.316 E1.60543
G1 X120.191 Y61.185 E2.0422
G1 X120.291 Y61.292 E2.05389
G1 X120.55 Y61.587 E2.08522
G1 X120.717 Y61.802 E2.10695
G1 X120.873 Y62.033 E2.1292
G1 X121.031 Y62.301 E2.15404
G1 X121.163 Y62.56 E2.17724
G1 X121.266 Y62.799 E2.19802
G1 X121.371 Y63.091 E2.22279
G1 X121.452 Y63.373 E2.24621
G1 X121.508 Y63.627 E2.26697
G1 X121.557 Y63.957 E2.2936
G1 X121.593 Y64.418 E2.33051
G1 X121.6 Y64.603 E2.34529
G1 X121.6 Y167.424 E10.55291
G1 X121.596 Y167.55 E10.56297
G1 X121.572 Y167.927 E10.59312
G1 X121.535 Y168.225 E10.61709
G1 X121.48 Y168.509 E10.64019
G1 X121.404 Y168.8 E10.66419
G1 X121.32 Y169.058 E10.68585
G1 X121.209 Y169.337 E10.70982
G1 X121.087 Y169.595 E10.7326
G1 X120.943 Y169.854 E10.75626
G1 X120.804 Y170.073 E10.77696
G1 X120.606 Y170.339 E10.80343
G1 X120.302 Y170.693 E10.84068
G1 X120.184 Y170.822 E10.85464
G1 X116.315 Y174.691 E11.2914
G1 X116.208 Y174.791 E11.30309
G1 X115.915 Y175.048 E11.3342
G1 X115.698 Y175.217 E11.35616
G1 X115.467 Y175.373 E11.37841
G1 X115.199 Y175.531 E11.40324
G1 X114.942 Y175.661 E11.42623
G1 X114.673 Y175.776 E11.44959
G1 X114.416 Y175.869 E11.4714
G1 X114.124 Y175.953 E11.49566
G1 X113.863 Y176.009 E11.51697
G1 X113.543 Y176.057 E11.5428
G1 X113.075 Y176.093 E11.58026
G1 X112.883 Y176.1 E11.5956
G1 X107.076 Y176.1 E12.05914
G1 X106.95 Y176.096 E12.0692
G1 X106.573 Y176.072 E12.09936
G1 X106.275 Y176.035 E12.12333
G1 X105.991 Y175.98 E12.14642
G1 X105.7 Y175.904 E12.17043
G1 X105.44 Y175.819 E12.19226
G1 X105.163 Y175.709 E12.21605
G1 X104.904 Y175.586 E12.23894
G1 X104.646 Y175.443 E12.26249
G1 X104.427 Y175.304 E12.28319
G1 X104.161 Y175.106 E12.30966
G1 X103.807 Y174.802 E12.34691
G1 X103.678 Y174.684 E12.36087
G1 X99.809 Y170.815 E12.79763
G1 X99.701 Y170.699 E12.81028
G1 X99.45 Y170.413 E12.84066
G1 X99.283 Y170.198 E12.86239
G1 X99.124 Y169.962 E12.8851
G1 X98.969 Y169.699 E12.90947
G1 X98.839 Y169.442 E12.93246
G1 X98.723 Y169.172 E12.95592
G1 X98.631 Y168.916 E12.97764
G1 X98.547 Y168.624 E13.00189
G1 X98.491 Y168.363 E13.0232
G1 X98.443 Y168.043 E13.04903
G1 X98.406 Y167.565 E13.0873
G1 X98.4 Y167.397 E13.10072
G1 X98.4 Y64.576 E21.30833
G1 X98.404 Y64.45 E21.3184
G1 X98.428 Y64.073 E21.34855
G1 X98.465 Y63.775 E21.37252
G1 X98.52 Y63.491 E21.39561
G1 X98.596 Y63.2 E21.41962
G1 X98.68 Y62.942 E21.44128
G1 X98.791 Y62.663 E21.46525
G1 X98.913 Y62.405 E21.48803
G1 X99.052 Y62.155 E21.51086
G0 F12000 X99.2 Y61.923
G1 F1800 X99.2 Y170.074 E30.14394
G0 F12000 X100.8 Y171.806
G1 F1800 X100.8 Y60.194 E39.0533
G0 F12000 X102.4 Y58.594
G1 F1800 X102.4 Y173.406 E48.21809
G0 F12000 X104 Y174.967
G1 F1800 X104 Y57.026 E57.63265
G0 F12000 X105.6 Y56.126
G1 F1800 X105.6 Y175.871 E67.19121
G0 F12000 X107.2 Y176.1
G1 F1800 X107.2 Y55.9 E76.78609
G0 F12000 X108.8 Y55.9
G1 F1800 X108.8 Y176.1 E86.38098
G0 F12000 X110.4 Y176.1
G1 F1800 X110.4 Y55.9 E95.97586
G0 F12000 X112 Y55.9
G1 F1800 X112 Y176.1 E105.57074
G0 F12000 X113.6 Y176.049
G1 F1800 X113.6 Y55.95 E115.15757
G0 F12000 X115.2 Y56.472
G1 F1800 X115.2 Y175.531 E124.66137
G0 F12000 X116.8 Y174.206
G1 F1800 X116.8 Y57.794 E133.95388
G0 F12000 X118.4 Y59.394
G1 F1800 X118.4 Y172.606 E142.99095
G0 F12000 X120 Y171.006
G1 F1800 X120 Y60.994 E151.77258
G0 F300 X120 Y60.994 Z0.54
G0 F12000 X121.451 Y63.373
;TIME_ELAPSED:69.965658
;LAYER:-5
;TYPE:SUPPORT
G1 F1800 X121.37 Y63.09 E151.80196
G1 X121.265 Y62.798 E151.83292
G1 X121.162 Y62.559 E151.85889
G1 X121.03 Y62.301 E151.8878
G1 X120.872 Y62.033 E151.91885
G1 X120.716 Y61.801 E151.94674
G1 X120.549 Y61.586 E151.97391
G1 X120.29 Y61.292 E152.013
G1 X120.19 Y61.185 E152.02761
G1 X116.321 Y57.315 E152.57364
G1 X116.191 Y57.197 E152.59116
G1 X115.838 Y56.893 E152.63764
G1 X115.572 Y56.695 E152.67073
G1 X115.353 Y56.557 E152.69656
G1 X115.094 Y56.412 E152.72618
G1 X114.836 Y56.29 E152.75465
G1 X114.556 Y56.179 E152.78471
G1 X114.299 Y56.096 E152.81166
G1 X114.008 Y56.019 E152.84169
G1 X114.001 Y56.019 E152.84239
G1 X121.479 Y63.496 E153.89755
G1 F2700 E148.89755
G0 F12000 X122.387 Y62.77
G0 X121.965 Y61.789
G0 X121.363 Y60.9
G0 X116.895 Y56.398
G0 X115.892 Y55.638
G0 X115.621 Y55.51
G0 X114.596 Y55.073
G0 X114.001 Y56.019
G1 F2700 E153.89755
G1 F1800 X113.723 Y55.964 E153.92582
G1 X113.426 Y55.928 E153.95567
G1 X113.049 Y55.903 E153.99337
G1 X112.923 Y55.899 E154.00595
G1 X112.468 Y55.9 E154.05135
G1 X121.599 Y65.031 E155.33984
G1 X121.599 Y66.445 E155.48092
G1 X111.054 Y55.9 E156.96894
G1 X109.64 Y55.9 E157.11003
G1 X121.599 Y67.859 E158.79757
G1 X121.599 Y69.273 E158.93866
G1 X108.226 Y55.9 E160.82574
G1 X107.116 Y55.9 E160.93649
G1 X106.924 Y55.906 E160.95566
G1 X106.826 Y55.914 E160.96547
G1 X121.599 Y70.688 E163.05017
G1 X121.599 Y72.102 E163.19126
G1 X105.618 Y56.12 E165.44642
G1 X105.583 Y56.13 E165.45005
G1 X105.327 Y56.222 E165.4772
G1 X105.056 Y56.338 E165.50661
G1 X104.8 Y56.469 E165.53531
G1 X104.644 Y56.561 E165.55338
G1 X121.599 Y73.516 E167.94591
G1 X121.599 Y74.93 E168.087
G1 X103.837 Y57.168 E170.59341
G1 X103.791 Y57.208 E170.59949
G1 X103.683 Y57.308 E170.61418
G1 X103.123 Y57.868 E170.6932
G1 X121.599 Y76.344 E173.30036
G1 X121.599 Y77.759 E173.44155
G1 X102.416 Y58.576 E176.14848
G1 X101.709 Y59.283 E176.24825
G1 X121.599 Y79.173 E179.05494
G1 X121.599 Y80.587 E179.19603
G1 X101.002 Y59.99 E182.10249
G1 X100.295 Y60.697 E182.20225
G1 X121.599 Y82.001 E185.20848
G1 X121.599 Y83.415 E185.34957
G1 X99.601 Y61.417 E188.45372
G1 X99.393 Y61.661 E188.48572
G1 X99.202 Y61.917 E188.51759
G1 X99.051 Y62.154 E188.54563
G1 X99.005 Y62.236 E188.55501
G1 X121.599 Y84.83 E191.74327
G1 X121.599 Y86.244 E191.88435
G1 X98.586 Y63.231 E195.13174
G1 X98.519 Y63.491 E195.15853
G1 X98.464 Y63.775 E195.18739
G1 X98.427 Y64.073 E195.21736
G1 X98.403 Y64.449 E195.25495
G1 X98.403 Y64.461 E195.25615
G1 X121.599 Y87.658 E198.52942
G1 X121.599 Y89.072 E198.67051
G1 X98.399 Y65.872 E201.94428
G1 X98.399 Y67.286 E202.08537
G1 X121.599 Y90.487 E205.35921
G1 X121.599 Y91.901 E205.5003
G1 X98.399 Y68.701 E208.77407
G1 X98.399 Y70.115 E208.91516
G1 X121.599 Y93.315 E212.18893
G1 X121.599 Y94.729 E212.33002
G1 X98.399 Y71.529 E215.60379
G1 X98.399 Y72.943 E215.74488
G1 X121.599 Y96.143 E219.01865
G1 X121.599 Y97.558 E219.15984
G1 X98.399 Y74.357 E222.43368
G1 X98.399 Y75.772 E222.57487
G1 X121.599 Y98.972 E225.84864
G1 X121.599 Y100.386 E225.98973
G1 X98.399 Y77.186 E229.2635
G1 X98.399 Y78.6 E229.40459
G1 X121.599 Y101.8 E232.67836
G1 X121.599 Y103.214 E232.81945
G1 X98.399 Y80.014 E236.09322
G1 X98.399 Y81.429 E236.23441
G1 X121.599 Y104.629 E239.50818
G1 X121.599 Y106.043 E239.64927
G1 X98.399 Y82.843 E242.92304
G1 X98.399 Y84.257 E243.06413
G1 X121.599 Y107.457 E246.3379
G1 X121.599 Y108.871 E246.47899
G1 X98.399 Y85.671 E249.75277
G1 X98.399 Y87.085 E249.89385
G1 X121.599 Y110.286 E253.1677
G1 X121.599 Y111.7 E253.30879
G1 X98.399 Y88.5 E256.58256
G1 X98.399 Y89.914 E256.72365
G1 X121.599 Y113.114 E259.99742
G1 X121.599 Y114.528 E260.13851
G1 X98.399 Y91.328 E263.41228
G1 X98.399 Y92.742 E263.55337
G1 X121.599 Y115.942 E266.82714
G1 X121.599 Y117.357 E266.96833
G1 X98.399 Y94.156 E270.24217
G1 X98.399 Y95.571 E270.38336
G1 X121.599 Y118.771 E273.65713
G1 X121.599 Y120.185 E273.79822
G1 X98.399 Y96.985 E277.07199
G1 X98.399 Y98.399 E277.21308
G1 X121.599 Y121.599 E280.48685
G1 X121.599 Y123.013 E280.62794
G1 X98.399 Y99.813 E283.90171
G1 X98.399 Y101.227 E284.0428
G1 X121.599 Y124.428 E287.31664
G1 X121.599 Y125.842 E287.45773
G1 X98.399 Y102.642 E290.7315
G1 X98.399 Y104.056 E290.87259
G1 X121.599 Y127.256 E294.14636
G1 X121.599 Y128.67 E294.28745
G1 X98.399 Y105.47 E297.56122
G1 X98.399 Y106.884 E297.70231
G1 X121.599 Y130.085 E300.97615
G1 X121.599 Y131.499 E301.11724
G1 X98.399 Y108.299 E304.39101
G1 X98.399 Y109.713 E304.5321
G1 X121.599 Y132.913 E307.80587
G1 X121.599 Y134.327 E307.94696
G1 X98.399 Y111.127 E311.22073
G1 X98.399 Y112.541 E311.36182
G1 X121.599 Y135.741 E314.63559
G1 X121.599 Y137.156 E314.77678
G1 X98.399 Y113.955 E318.05062
G1 X98.399 Y115.37 E318.19181
G1 X121.599 Y138.57 E321.46558
G1 X121.599 Y139.984 E321.60667
G1 X98.399 Y116.784 E324.88044
G1 X98.399 Y118.198 E325.02153
G1 X121.599 Y141.398 E328.2953
G1 X121.599 Y142.812 E328.43639
G1 X98.399 Y119.612 E331.71016
G1 X98.399 Y121.026 E331.85125
G1 X121.599 Y144.227 E335.12509
G1 X121.599 Y145.641 E335.26618
G1 X98.399 Y122.441 E338.53995
G1 X98.399 Y123.855 E338.68104
G1 X121.599 Y147.055 E341.95481
G1 X121.599 Y148.469 E342.0959
G1 X98.399 Y125.269 E345.36967
G1 X98.399 Y126.683 E345.51076
G1 X121.599 Y149.884 E348.7846
G1 X121.599 Y151.298 E348.92569
G1 X98.399 Y128.098 E352.19946
G1 X98.399 Y129.512 E352.34055
G1 X121.599 Y152.712 E355.61432
G1 X121.599 Y154.126 E355.75541
G1 X98.399 Y130.926 E359.02918
G1 X98.399 Y132.34 E359.17027
G1 X121.599 Y155.54 E362.44404
G1 X121.599 Y156.955 E362.58523
G1 X98.399 Y133.754 E365.85907
G1 X98.399 Y135.169 E366.00026
G1 X121.599 Y158.369 E369.27403
G1 X121.599 Y159.783 E369.41512
G1 X98.399 Y136.583 E372.68889
G1 X98.399 Y137.997 E372.82998
G1 X121.599 Y161.197 E376.10375
G1 X121.599 Y162.611 E376.24484
G1 X98.399 Y139.411 E379.51861
G1 X98.399 Y140.825 E379.6597
G1 X121.599 Y164.026 E382.93354
G1 X121.599 Y165.44 E383.07463
G1 X98.399 Y142.24 E386.3484
G1 X98.399 Y143.654 E386.48949
G1 X121.599 Y166.854 E389.76326
G1 X121.599 Y167.423 E389.82004
G1 X121.596 Y167.549 E389.83261
G1 X121.572 Y167.925 E389.87021
G1 X121.538 Y168.207 E389.89855
G1 X98.399 Y145.068 E393.16371
G1 X98.399 Y146.482 E393.3048
G1 X121.222 Y169.305 E396.52537
G1 X121.209 Y169.336 E396.52873
G1 X121.087 Y169.594 E396.5572
G1 X120.942 Y169.853 E396.58682
G1 X120.804 Y170.072 E396.61265
G1 X120.706 Y170.204 E396.62905
G1 X98.399 Y147.897 E399.77681
G1 X98.399 Y149.311 E399.9179
G1 X120.046 Y170.958 E402.97253
G1 X119.339 Y171.665 E403.07229
G1 X98.399 Y150.725 E406.02715
G1 X98.399 Y152.139 E406.16824
G1 X118.632 Y172.372 E409.02334
G1 X117.925 Y173.079 E409.1231
G1 X98.399 Y153.553 E411.87843
G1 X98.399 Y154.968 E412.01962
G1 X117.218 Y173.787 E414.67519
G1 X116.511 Y174.494 E414.77495
G1 X98.399 Y156.382 E417.33075
G1 X98.399 Y157.796 E417.47184
G1 X115.765 Y175.162 E419.92237
G1 X115.697 Y175.216 E419.93103
G1 X115.467 Y175.371 E419.95871
G1 X115.199 Y175.53 E419.9898
G1 X114.942 Y175.66 E420.01854
G1 X114.876 Y175.687 E420.02565
G1 X98.399 Y159.21 E422.35074
G1 X98.399 Y160.624 E422.49183
G1 X113.793 Y176.018 E424.66409
G1 X113.542 Y176.056 E424.68942
G1 X113.074 Y176.092 E424.73625
G1 X112.882 Y176.099 E424.75542
G1 X112.459 Y176.099 E424.79763
G1 X98.399 Y162.039 E426.78165
G1 X98.399 Y163.453 E426.92274
G1 X111.045 Y176.099 E428.70722
G1 X109.631 Y176.099 E428.84831
G1 X98.399 Y164.867 E430.43327
G1 X98.399 Y166.281 E430.57436
G1 X108.217 Y176.099 E431.95979
G1 X107.075 Y176.099 E432.07374
G1 X106.949 Y176.095 E432.08631
G1 X106.787 Y176.084 E432.10252
G1 X98.417 Y167.713 E433.28368
G1 X98.443 Y168.042 E433.31661
G1 X98.491 Y168.362 E433.3489
G1 X98.547 Y168.623 E433.37554
G1 X98.63 Y168.915 E433.40583
G1 X98.723 Y169.171 E433.433
G1 X98.839 Y169.441 E433.46232
G1 X98.949 Y169.66 E433.48678
G1 X104.837 Y175.548 E434.31764
G1 X104.645 Y175.442 E434.33952
G1 X104.426 Y175.303 E434.3654
G1 X104.161 Y175.105 E434.39841
G1 X103.806 Y174.801 E434.44505
G1 X103.678 Y174.682 E434.46249
G1 X99.809 Y170.814 E435.00837
G1 X99.7 Y170.698 E435.02426
G1 X99.449 Y170.412 E435.06222
G1 X99.282 Y170.197 E435.08939
G1 X99.123 Y169.961 E435.11778
G1 X98.968 Y169.697 E435.14833
G0 F300 X98.968 Y169.697 Z0.74
G0 F12000 X98.293 Y168.402
;TIME_ELAPSED:171.162547
;LAYER:-4
;TYPE:SUPPORT-INTERFACE
G1 F2400 X98.351 Y168.671 E435.15748
G1 X98.387 Y168.8 E435.16194
G1 X121.61 Y168.8 E435.93434
G1 X121.598 Y168.847 E435.93595
G1 X121.505 Y169.132 E435.94592
G1 X121.478 Y169.2 E435.94835
G1 X98.52 Y169.2 E436.71194
G1 X98.538 Y169.25 E436.71371
G1 X98.66 Y169.535 E436.72402
G1 X98.692 Y169.6 E436.72643
G1 X121.304 Y169.6 E437.47851
G1 X121.256 Y169.702 E437.48226
G1 X121.121 Y169.945 E437.4915
G1 X121.086 Y170 E437.49367
G1 X98.912 Y170 E438.23118
G1 X98.945 Y170.055 E438.23331
G1 X99.122 Y170.318 E438.24386
G1 X99.185 Y170.4 E438.2473
G1 X120.809 Y170.4 E438.96651
G1 X120.762 Y170.464 E438.96915
G1 X120.473 Y170.8 E438.9839
G1 X99.521 Y170.8 E439.68076
G1 X99.553 Y170.836 E439.68236
G1 X99.656 Y170.947 E439.6874
G1 X99.909 Y171.2 E439.6993
G1 X120.089 Y171.2 E440.37049
G1 X119.689 Y171.6 E440.3893
G1 X100.309 Y171.6 E441.03389
G1 X100.709 Y172 E441.0527
G1 X119.289 Y172 E441.67067
G1 X118.889 Y172.4 E441.68949
G1 X101.109 Y172.4 E442.28085
G1 X101.509 Y172.8 E442.29967
G1 X118.489 Y172.8 E442.86443
G1 X118.089 Y173.2 E442.88324
G1 X101.909 Y173.2 E443.42139
G1 X102.309 Y173.6 E443.4402
G1 X117.689 Y173.6 E443.95175
G1 X117.289 Y174 E443.97056
G1 X102.709 Y174 E444.45549
G1 X103.109 Y174.4 E444.47431
G1 X116.889 Y174.4 E444.93263
G1 X116.489 Y174.8 E444.95145
G1 X103.509 Y174.8 E445.38316
G1 X103.529 Y174.82 E445.3841
G1 X103.675 Y174.954 E445.3907
G1 X103.961 Y175.2 E445.40324
G1 X116.044 Y175.2 E445.80513
G1 X115.817 Y175.377 E445.8147
G1 X115.558 Y175.551 E445.82508
G1 X115.475 Y175.6 E445.82828
G1 X104.519 Y175.6 E446.19268
G1 X104.548 Y175.618 E446.19382
G1 X104.796 Y175.756 E446.20326
G1 X105.097 Y175.899 E446.21434
G1 X105.35 Y176 E446.2234
G1 X114.641 Y176 E446.53242
G1 X114.461 Y176.065 E446.53878
G1 X114.176 Y176.146 E446.54864
G1 X113.902 Y176.206 E446.55797
G1 X113.56 Y176.257 E446.56947
G1 X113.088 Y176.293 E446.58521
G1 X112.889 Y176.3 E446.59184
G1 X107.068 Y176.3 E446.78544
G1 X106.949 Y176.296 E446.7894
G1 X106.545 Y176.271 E446.80287
G1 X106.242 Y176.233 E446.81302
G1 X105.947 Y176.176 E446.82302
G1 X105.65 Y176.098 E446.83323
G1 X105.366 Y176.006 E446.84316
G1 F2700 E441.84316
G0 F12000 X104.75 Y176.69
G0 X103.818 Y176.177
G0 X102.935 Y175.446
G0 X98.637 Y171.1
G0 X98.035 Y170.211
G0 X97.916 Y169.934
G0 X97.516 Y168.888
G0 X98.292 Y168.4
G1 F2700 E446.84316
G1 F2400 X121.704 Y168.4 E447.62185
G1 X121.733 Y168.251 E447.62689
G1 X121.764 Y168 E447.63531
G1 X98.237 Y168 E448.41782
G1 X98.206 Y167.6 E448.43116
G1 X121.791 Y167.6 E449.2156
G1 X121.795 Y167.55 E449.21727
G1 X121.799 Y167.431 E449.22123
