;FLAVOR:Marlin
;TIME:2159
;Filament used: 1.2501m
;Layer height: 0.2
;MINX:93.2
;MINY:89.2
;MINZ:0.2
;MAXX:127.653
;MAXY:122.8
;MAXZ:25
;Generated with Cura_SteamEngine 4.12.1
M140 S55
M105
M190 S55
M104 S205
M105
M109 S205
M82 ;absolute extrusion mode
M201 X500.00 Y500.00 Z100.00 E5000.00 ;Setup machine max acceleration
M203 X500.00 Y500.00 Z10.00 E50.00 ;Setup machine max feedrate
M204 P500.00 R1000.00 T500.00 ;Setup Print/Retract/Travel acceleration
M205 X8.00 Y8.00 Z0.40 E5.00 ;Setup Jerk
M220 S100 ;Reset Feedrate
M221 S100 ;Reset Flowrate

G28 ;Home

G92 E0 ;Reset Extruder
G1 Z2.0 F3000 ;Move Z Axis up
G1 X10.1 Y20 Z0.28 F5000.0 ;Move to start position
G1 X10.1 Y200.0 Z0.28 F1500.0 E15 ;Draw the first line
G1 X10.4 Y200.0 Z0.28 F5000.0 ;Move to side a little
G1 X10.4 Y20 Z0.28 F1500.0 E30 ;Draw the second line
G92 E0 ;Reset Extruder
G1 Z2.0 F3000 ;Move Z Axis up

G92 E0
G92 E0
G1 F2700 E-5
;LAYER_COUNT:125
;LAYER:0
M107
;MESH:motor_cover.obj
G0 F6000 X108.993 Y116.6 Z0.2
;TYPE:WALL-INNER
G1 F2700 E0
G1 F600 X106.39 Y95.4 E0.71041
G1 X125.6 Y95.4 E1.34934
G1 X125.6 Y116.6 E2.05445
G1 X108.993 Y116.6 E2.6068
G0 F6000 X108.639 Y117
G1 F600 X105.938 Y95 E3.34402
G1 X126 Y95 E4.01128
G1 X126 Y117 E4.74301
G1 X108.639 Y117 E5.32044
G0 F6000 X108.285 Y117.4
G1 F600 X105.486 Y94.6 E6.08446
G1 X126.4 Y94.6 E6.78006
G1 X126.4 Y117.4 E7.53839
G1 X108.285 Y117.4 E8.1409
G0 F6000 X107.931 Y117.8
;TYPE:WALL-OUTER
G1 F600 X105.034 Y94.2 E8.93173
G1 X126.8 Y94.2 E9.65567
G1 X126.8 Y117.8 E10.44061
G1 X107.931 Y117.8 E11.0682
G0 F6000 X108.174 Y117.526
G0 X109.339 Y116.49
G0 X109.339 Y116.21
;TYPE:SKIN
G1 F600 X106.832 Y95.79 E11.75247
G1 X125.21 Y95.79 E12.36372
G1 X125.21 Y116.21 E13.0429
G1 X109.339 Y116.21 E13.57077
G0 F6000 X109.826 Y116.048
G1 F600 X109.432 Y115.655 E13.58928
G0 F6000 X109.353 Y115.01
G1 F600 X110.392 Y116.048 E13.63812
G0 F6000 X110.957 Y116.048
G1 F600 X109.274 Y114.365 E13.71729
G0 F6000 X109.194 Y113.72
G1 F600 X111.523 Y116.048 E13.82681
G0 F6000 X112.089 Y116.048
G1 F600 X109.115 Y113.075 E13.96668
G0 F6000 X109.036 Y112.43
G1 F600 X112.654 Y116.048 E14.13686
G0 F6000 X113.22 Y116.048
G1 F600 X108.957 Y111.785 E14.33738
G0 F6000 X108.878 Y111.14
G1 F600 X113.786 Y116.048 E14.56823
G0 F6000 X114.351 Y116.048
G1 F600 X108.798 Y110.496 E14.82941
G0 F6000 X108.719 Y109.851
G1 F600 X114.917 Y116.048 E15.12092
G0 F6000 X115.483 Y116.048
G1 F600 X108.64 Y109.206 E15.44277
G0 F6000 X108.561 Y108.561
G1 F600 X116.048 Y116.048 E15.79493
G0 F6000 X116.614 Y116.048
G1 F600 X108.482 Y107.916 E16.17744
G0 F6000 X108.403 Y107.272
G1 F600 X117.18 Y116.048 E16.59026
G0 F6000 X117.746 Y116.049
G1 F600 X108.324 Y106.627 E17.03344
G0 F6000 X108.245 Y105.982
G1 F600 X118.312 Y116.049 E17.50696
G0 F6000 X118.878 Y116.049
G1 F600 X108.166 Y105.337 E18.01082
G0 F6000 X108.086 Y104.692
G1 F600 X119.443 Y116.049 E18.54502
G0 F6000 X120.009 Y116.049
G1 F600 X108.007 Y104.047 E19.10955
G0 F6000 X107.928 Y103.403
G1 F600 X120.575 Y116.049 E19.70441
G0 F6000 X121.14 Y116.049
G1 F600 X107.849 Y102.758 E20.32958
G0 F6000 X107.77 Y102.113
G1 F600 X121.706 Y116.049 E20.98508
G0 F6000 X122.272 Y116.049
G1 F600 X107.69 Y101.468 E21.67095
G0 F6000 X107.611 Y100.823
G1 F600 X122.837 Y116.049 E22.38714
G0 F6000 X123.403 Y116.049
G1 F600 X107.532 Y100.178 E23.13366
G0 F6000 X107.453 Y99.533
G1 F600 X123.969 Y116.049 E23.91052
G0 F6000 X124.534 Y116.049
G1 F600 X107.374 Y98.888 E24.7177
G0 F6000 X107.294 Y98.244
G1 F600 X125.049 Y115.998 E25.55282
G0 F6000 X125.049 Y115.432
G1 F600 X107.215 Y97.599 E26.39165
G0 F6000 X107.136 Y96.954
G1 F600 X125.049 Y114.866 E27.2342
G0 F6000 X125.049 Y114.3
G1 F600 X107.057 Y96.309 E28.08046
G0 F6000 X107.263 Y95.95
G1 F600 X125.049 Y113.735 E28.91704
G0 F6000 X125.049 Y113.169
G1 F600 X107.829 Y95.95 E29.72699
G0 F6000 X108.395 Y95.95
G1 F600 X125.049 Y112.603 E30.51032
G0 F6000 X125.049 Y112.038
G1 F600 X108.96 Y95.95 E31.26707
G0 F6000 X109.526 Y95.95
G1 F600 X125.049 Y111.472 E31.9972
G0 F6000 X125.049 Y110.906
G1 F600 X110.092 Y95.95 E32.70071
G0 F6000 X110.657 Y95.95
G1 F600 X125.049 Y110.341 E33.37764
G0 F6000 X125.049 Y109.775
G1 F600 X111.223 Y95.95 E34.02795
G0 F6000 X111.789 Y95.95
G1 F600 X125.049 Y109.209 E34.65164
G0 F6000 X125.049 Y108.644
G1 F600 X112.355 Y95.95 E35.24873
G0 F6000 X112.92 Y95.95
G1 F600 X125.049 Y108.078 E35.81921
G0 F6000 X125.049 Y107.512
G1 F600 X113.486 Y95.95 E36.36308
G0 F6000 X114.052 Y95.95
G1 F600 X125.049 Y106.947 E36.88034
G0 F6000 X125.049 Y106.381
G1 F600 X114.617 Y95.95 E37.37101
G0 F6000 X115.183 Y95.95
G1 F600 X125.049 Y105.815 E37.83505
G0 F6000 X125.049 Y105.25
G1 F600 X115.749 Y95.95 E38.2725
G0 F6000 X116.314 Y95.95
G1 F600 X125.049 Y104.684 E38.68334
G0 F6000 X125.049 Y104.118
G1 F600 X116.88 Y95.95 E39.06756
G0 F6000 X117.446 Y95.95
G1 F600 X125.049 Y103.552 E39.42516
G0 F6000 X125.049 Y102.987
G1 F600 X118.011 Y95.95 E39.75618
G0 F6000 X118.577 Y95.95
G1 F600 X125.049 Y102.421 E40.06058
G0 F6000 X125.049 Y101.855
G1 F600 X119.143 Y95.95 E40.33836
G0 F6000 X119.708 Y95.95
G1 F600 X125.049 Y101.29 E40.58956
G0 F6000 X125.049 Y100.724
G1 F600 X120.274 Y95.95 E40.81414
G0 F6000 X120.84 Y95.95
G1 F600 X125.049 Y100.158 E41.01209
G0 F6000 X125.049 Y99.593
G1 F600 X121.405 Y95.95 E41.18347
G0 F6000 X121.971 Y95.95
G1 F600 X125.049 Y99.027 E41.32823
G0 F6000 X125.049 Y98.461
G1 F600 X122.537 Y95.95 E41.44636
G0 F6000 X123.103 Y95.95
G1 F600 X125.049 Y97.896 E41.53789
G0 F6000 X125.049 Y97.33
G1 F600 X123.668 Y95.95 E41.60283
G0 F6000 X124.234 Y95.95
G1 F600 X125.049 Y96.764 E41.64114
G0 F6000 X125.049 Y96.199
G1 F600 X124.8 Y95.95 E41.65285
G0 F6000 X124.8 Y95.21
G1 F2700 E36.65285
G0 F6000 X106.598 Y95.584
G0 X107.231 Y100.755
G0 X107.794 Y115.041
G0 X106.738 Y115.17
G0 X97.138 Y116.349
G0 X96.081 Y116.478
G0 X95.089 Y116.6
;TYPE:WALL-INNER
G1 F2700 E41.65285
G1 F600 X94.4 Y116.6 E41.67577
G1 X94.4 Y114.25 E41.75393
G1 X94.4 Y110.989 E41.86239
M104 S240
G1 X94.797 Y114.225 E41.9167
G1 X95.089 Y116.6 E41.99629
G0 F6000 X95.541 Y117
G1 F600 X94 Y117 E42.04754
G1 X94 Y107.71 E42.35653
G1 X94 Y104.448 E42.46502
G1 X94.397 Y107.685 E42.51935
G1 X95.541 Y117 E42.8315
G0 F6000 X95.993 Y117.4
G1 F600 X93.6 Y117.4 E42.91109
G1 X93.6 Y101.169 E43.45093
G1 X93.6 Y97.907 E43.55943
G1 X93.997 Y101.144 E43.61375
G1 X95.993 Y117.4 E44.15849
G0 F6000 X96.445 Y117.8
;TYPE:WALL-OUTER
G1 F600 X93.2 Y117.8 E44.26642
G1 X93.2 Y94.2 E45.05136
G1 X93.548 Y94.2 E45.06293
G1 X96.445 Y117.8 E45.85376
G0 F6000 X96.145 Y117.534
G0 X94.926 Y116.456
G0 X94.901 Y116.397
;TYPE:SKIN
G1 F600 X94.559 Y116.056 E45.86983
G0 F6000 X94.823 Y115.753
G1 F600 X94.559 Y115.49 E45.88222
G0 F6000 X94.743 Y115.108
G1 F600 X94.559 Y114.924 E45.89088
G0 F6000 X94.665 Y114.464
G1 F600 X94.559 Y114.358 E45.89586
G0 F6000 X94.605 Y114.32
G0 X94.422 Y110.826
G0 X94.298 Y110.702
;TYPE:SKIN
G1 F600 X94.383 Y110.505 E45.90125
G1 X94.225 Y108.085 E45.96211
G0 F6000 X94.174 Y108.033
G0 X93.831 Y104.296
G0 X93.803 Y104.268
G1 F600 X93.936 Y104.118 E45.96642
G1 X93.939 Y103.272 E45.9846
G1 X93.82 Y101.456 E46.02372
G0 F6000 X93.775 Y101.411
G0 X93.509 Y97.751
G0 X93.441 Y97.684
G1 F600 X93.574 Y97.534 E46.0285
G1 X93.433 Y95.13 E46.08582
G0 F6000 X93.454 Y94.868
G1 F600 X93.422 Y94.837 E46.08656
G1 F2700 E41.08656
;MESH:NONMESH
G0 F300 X93.422 Y94.837 Z0.4
G0 F6000 X93.5 Y95.46
G0 X96.205 Y117.587
G0 X97.274 Y117.456
G0 X106.874 Y116.277
G0 X107.93 Y116.148
G0 X108.993 Y116.6
;TIME_ELAPSED:151.293014
;LAYER:1
M140 S70
M106 S42.5
;TYPE:WALL-INNER
;MESH:motor_cover.obj
G1 F2700 E46.08656
G1 F1500 X106.39 Y95.4 E46.79697
G1 X125.6 Y95.4 E47.43589
G1 X125.6 Y116.6 E48.14101
G1 X108.993 Y116.6 E48.69336
G0 F9000 X108.639 Y117
G1 F1500 X105.938 Y95 E49.43058
G1 X126 Y95 E50.09784
G1 X126 Y117 E50.82956
G1 X108.639 Y117 E51.40699
G0 F9000 X108.285 Y117.4
G1 F1500 X105.486 Y94.6 E52.17102
G1 X126.4 Y94.6 E52.86662
G1 X126.4 Y117.4 E53.62495
G1 X108.285 Y117.4 E54.22746
G0 F9000 X107.931 Y117.8
;TYPE:WALL-OUTER
G1 F1500 X105.034 Y94.2 E55.01829
G1 X126.8 Y94.2 E55.74223
G1 X126.8 Y117.8 E56.52717
G1 X107.931 Y117.8 E57.15475
G0 F9000 X108.174 Y117.526
G0 X109.339 Y116.49
G0 X109.339 Y116.21
;TYPE:SKIN
G1 F1500 X106.832 Y95.79 E57.83903
G1 X125.21 Y95.79 E58.45028
G1 X125.21 Y116.21 E59.12945
G1 X109.339 Y116.21 E59.65732
G0 F9000 X109.339 Y116.49
G0 X125.418 Y116.418
G0 X125.49 Y115.932
G0 X125.049 Y115.932
G1 F1500 X124.931 Y116.05 E59.66287
G0 F9000 X124.365 Y116.05
G1 F1500 X125.049 Y115.367 E59.69502
G0 F9000 X125.049 Y114.801
G1 F1500 X123.8 Y116.05 E59.75377
G0 F9000 X123.234 Y116.05
G1 F1500 X125.049 Y114.235 E59.83915
G0 F9000 X125.049 Y113.67
G1 F1500 X122.668 Y116.05 E59.95112
G0 F9000 X122.103 Y116.05
G1 F1500 X125.049 Y113.104 E60.08969
G0 F9000 X125.049 Y112.538
G1 F1500 X121.537 Y116.05 E60.25488
G0 F9000 X120.971 Y116.05
G1 F1500 X125.049 Y111.973 E60.44667
G0 F9000 X125.049 Y111.407
G1 F1500 X120.406 Y116.05 E60.66507
G0 F9000 X119.84 Y116.05
G1 F1500 X125.049 Y110.841 E60.91008
G0 F9000 X125.049 Y110.276
G1 F1500 X119.274 Y116.05 E61.1817
G0 F9000 X118.709 Y116.05
G1 F1500 X125.049 Y109.71 E61.47991
G0 F9000 X125.049 Y109.144
G1 F1500 X118.143 Y116.05 E61.80475
G0 F9000 X117.577 Y116.05
G1 F1500 X125.049 Y108.579 E62.15618
G0 F9000 X125.049 Y108.013
G1 F1500 X117.012 Y116.049 E62.5342
G0 F9000 X116.447 Y116.049
G1 F1500 X125.049 Y107.447 E62.93881
G0 F9000 X125.049 Y106.882
G1 F1500 X115.881 Y116.049 E63.37002
G0 F9000 X115.315 Y116.049
G1 F1500 X125.049 Y106.316 E63.82785
G0 F9000 X125.049 Y105.75
G1 F1500 X114.749 Y116.049 E64.31231
G0 F9000 X114.184 Y116.049
G1 F1500 X125.049 Y105.184 E64.82337
G0 F9000 X125.049 Y104.619
G1 F1500 X113.618 Y116.049 E65.36102
G0 F9000 X113.052 Y116.049
G1 F1500 X125.049 Y104.053 E65.9253
G0 F9000 X125.049 Y103.487
G1 F1500 X112.487 Y116.049 E66.51618
G0 F9000 X111.921 Y116.049
G1 F1500 X125.049 Y102.922 E67.13366
G0 F9000 X125.049 Y102.356
G1 F1500 X111.355 Y116.049 E67.77776
G0 F9000 X110.79 Y116.049
G1 F1500 X125.049 Y101.79 E68.44846
G0 F9000 X125.049 Y101.225
G1 F1500 X110.224 Y116.049 E69.14576
G0 F9000 X109.658 Y116.049
G1 F1500 X125.049 Y100.659 E69.86968
G0 F9000 X125.049 Y100.093
G1 F1500 X109.439 Y115.703 E70.60392
G0 F9000 X109.377 Y115.199
G1 F1500 X125.049 Y99.528 E71.34106
G0 F9000 X125.049 Y98.962
G1 F1500 X109.315 Y114.695 E72.08112
G0 F9000 X109.253 Y114.192
G1 F1500 X125.049 Y98.396 E72.82411
G0 F9000 X125.049 Y97.831
G1 F1500 X109.192 Y113.687 E73.56996
G0 F9000 X109.129 Y113.184
G1 F1500 X125.049 Y97.265 E74.31876
G0 F9000 X125.049 Y96.699
G1 F1500 X109.068 Y112.68 E75.07046
G0 F9000 X109.006 Y112.176
G1 F1500 X125.049 Y96.133 E75.82507
G0 F9000 X124.667 Y95.95
G1 F1500 X108.944 Y111.672 E76.56461
G0 F9000 X108.882 Y111.169
G1 F1500 X124.101 Y95.95 E77.28046
G0 F9000 X123.535 Y95.95
G1 F1500 X108.82 Y110.665 E77.97261
G0 F9000 X108.758 Y110.161
G1 F1500 X122.97 Y95.95 E78.64108
G0 F9000 X122.404 Y95.95
G1 F1500 X108.697 Y109.657 E79.28581
G0 F9000 X108.634 Y109.153
G1 F1500 X121.838 Y95.95 E79.90687
G0 F9000 X121.273 Y95.95
G1 F1500 X108.573 Y108.649 E80.50421
G0 F9000 X108.511 Y108.146
G1 F1500 X120.707 Y95.95 E81.07787
G0 F9000 X120.141 Y95.95
G1 F1500 X108.449 Y107.642 E81.62783
G0 F9000 X108.387 Y107.138
G1 F1500 X119.575 Y95.95 E82.15408
G0 F9000 X119.01 Y95.95
G1 F1500 X108.325 Y106.634 E82.65664
G0 F9000 X108.263 Y106.131
G1 F1500 X118.444 Y95.95 E83.13553
G0 F9000 X117.878 Y95.95
G1 F1500 X108.202 Y105.626 E83.59066
G0 F9000 X108.139 Y105.123
G1 F1500 X117.313 Y95.95 E84.02215
G0 F9000 X116.747 Y95.95
G1 F1500 X108.078 Y104.619 E84.42991
G0 F9000 X108.016 Y104.115
G1 F1500 X116.181 Y95.95 E84.81397
G0 F9000 X115.616 Y95.95
G1 F1500 X107.954 Y103.611 E85.17434
G0 F9000 X107.892 Y103.108
G1 F1500 X115.05 Y95.95 E85.51103
G0 F9000 X114.484 Y95.95
G1 F1500 X107.83 Y102.604 E85.82402
G0 F9000 X107.768 Y102.1
G1 F1500 X113.919 Y95.95 E86.11332
G0 F9000 X113.353 Y95.95
G1 F1500 X107.707 Y101.596 E86.37889
G0 F9000 X107.645 Y101.092
G1 F1500 X112.787 Y95.95 E86.62075
G0 F9000 X112.222 Y95.95
G1 F1500 X107.583 Y100.588 E86.83893
G0 F9000 X107.521 Y100.084
G1 F1500 X111.656 Y95.95 E87.03341
G0 F9000 X111.09 Y95.95
G1 F1500 X107.459 Y99.581 E87.2042
G0 F9000 X107.398 Y99.076
G1 F1500 X110.525 Y95.95 E87.35126
G0 F9000 X109.959 Y95.95
G1 F1500 X107.335 Y98.573 E87.47466
G0 F9000 X107.274 Y98.069
G1 F1500 X109.393 Y95.95 E87.57433
G0 F9000 X108.827 Y95.95
G1 F1500 X107.212 Y97.565 E87.6503
G0 F9000 X107.15 Y97.061
G1 F1500 X108.262 Y95.95 E87.70258
G0 F9000 X107.696 Y95.95
G1 F1500 X107.088 Y96.558 E87.73118
G0 F9000 X107.026 Y96.054
G1 F1500 X107.13 Y95.95 E87.73607
G0 F9000 X107.13 Y95.21
G1 F2700 E82.73607
G0 F9000 X106.598 Y95.584
G0 X107.337 Y101.432
G0 X107.794 Y115.041
G0 X106.738 Y115.17
G0 X97.138 Y116.349
G0 X96.081 Y116.478
G0 X95.089 Y116.6
;TYPE:WALL-INNER
G1 F2700 E87.73607
G1 F1500 X94.4 Y116.6 E87.75899
G1 X94.4 Y114.25 E87.83715
G1 X94.4 Y110.989 E87.94561
G1 X94.797 Y114.225 E87.99992
G1 X95.089 Y116.6 E88.07951
G0 F9000 X95.541 Y117
G1 F1500 X94 Y117 E88.13076
G1 X94 Y107.71 E88.43975
G1 X94 Y104.448 E88.54824
G1 X94.397 Y107.685 E88.60257
G1 X95.541 Y117 E88.91471
G0 F9000 X95.993 Y117.4
G1 F1500 X93.6 Y117.4 E88.9943
G1 X93.6 Y101.169 E89.53415
G1 X93.6 Y97.907 E89.64264
G1 X93.997 Y101.144 E89.69697
G1 X95.993 Y117.4 E90.24171
G0 F9000 X96.445 Y117.8
;TYPE:WALL-OUTER
G1 F1500 X93.2 Y117.8 E90.34964
G1 X93.2 Y94.2 E91.13458
G1 X93.548 Y94.2 E91.14615
G1 X96.445 Y117.8 E91.93698
G0 F9000 X96.145 Y117.534
G0 X94.921 Y116.126
G0 X94.868 Y116.132
;TYPE:SKIN
G1 F1500 X94.561 Y116.439 E91.95142
G0 F9000 X94.559 Y115.875
G1 F1500 X94.806 Y115.628 E91.96304
G0 F9000 X94.559 Y115.309
G1 F1500 X94.745 Y115.124 E91.97177
G0 F9000 X94.559 Y114.743
G1 F1500 X94.683 Y114.619 E91.9776
G0 F9000 X94.735 Y114.613
G0 X94.522 Y110.821
G0 X94.559 Y110.784
;TYPE:SKIN
G1 F1500 X94.393 Y110.666 E91.98198
G1 X94.216 Y108.016 E92.03919
G0 F9000 X94.257 Y107.975
G0 X93.984 Y104.288
G0 X94.083 Y104.188
G1 F1500 X93.963 Y104.025 E92.04408
G1 X93.824 Y101.619 E92.10228
G0 F9000 X93.873 Y101.57
G0 X93.68 Y97.744
G0 X93.772 Y97.71
G1 F1500 X93.606 Y97.594 E92.10693
G1 X93.478 Y96.025 E92.14304
G1 X93.432 Y95.222 E92.16149
G0 F9000 X93.375 Y94.997
G1 F1500 X93.459 Y94.914 E92.16345
G1 F2700 E87.16345
;MESH:NONMESH
G0 F300 X93.459 Y94.914 Z0.6
G0 F9000 X93.5 Y95.46
G0 X96.205 Y117.587
G0 X97.274 Y117.456
G0 X106.874 Y116.277
G0 X107.93 Y116.148
G0 X108.993 Y116.6
;TIME_ELAPSED:217.345277
;LAYER:2
M106 S85
;TYPE:WALL-INNER
;MESH:motor_cover.obj
G1 F2700 E92.16345
G1 F2400 X106.39 Y95.4 E92.87386
G1 X125.6 Y95.4 E93.51279
G1 X125.6 Y116.6 E94.21791
G1 X108.993 Y116.6 E94.77026
G0 F12000 X108.639 Y117
G1 F2400 X105.938 Y95 E95.50747
G1 X126 Y95 E96.17474
G1 X126 Y117 E96.90646
G1 X108.639 Y117 E97.48389
G0 F12000 X108.285 Y117.4
G1 F2400 X105.486 Y94.6 E98.24792
G1 X126.4 Y94.6 E98.94352
G1 X126.4 Y117.4 E99.70185
G1 X108.285 Y117.4 E100.30436
G0 F12000 X107.931 Y117.8
;TYPE:WALL-OUTER
G1 F2400 X105.034 Y94.2 E101.09519
G1 X126.8 Y94.2 E101.81913
G1 X126.8 Y117.8 E102.60407
G1 X107.931 Y117.8 E103.23165
G0 F12000 X108.174 Y117.526
G0 X109.339 Y116.49
G0 X109.339 Y116.21
;TYPE:SKIN
G1 F2400 X106.832 Y95.79 E103.91592
G1 X125.21 Y95.79 E104.52718
G1 X125.21 Y116.21 E105.20635
G1 X109.339 Y116.21 E105.73422
G0 F12000 X109.826 Y116.048
G1 F2400 X109.432 Y115.655 E105.75273
G0 F12000 X109.353 Y115.01
G1 F2400 X110.392 Y116.048 E105.80158
G0 F12000 X110.957 Y116.048
G1 F2400 X109.274 Y114.365 E105.88074
G0 F12000 X109.194 Y113.72
G1 F2400 X111.523 Y116.048 E105.99027
G0 F12000 X112.089 Y116.048
G1 F2400 X109.115 Y113.075 E106.13013
G0 F12000 X109.036 Y112.43
G1 F2400 X112.654 Y116.048 E106.30031
G0 F12000 X113.22 Y116.048
G1 F2400 X108.957 Y111.785 E106.50083
G0 F12000 X108.878 Y111.14
G1 F2400 X113.786 Y116.048 E106.73169
G0 F12000 X114.351 Y116.048
G1 F2400 X108.798 Y110.496 E106.99286
G0 F12000 X108.719 Y109.851
G1 F2400 X114.917 Y116.048 E107.28437
G0 F12000 X115.483 Y116.048
G1 F2400 X108.64 Y109.206 E107.60622
G0 F12000 X108.561 Y108.561
