;FLAVOR:Marlin
;TIME:2775
;Filament used: 2.55043m
;Layer height: 0.2
;MINX:89.335
;MINY:74.835
;MINZ:0.2
;MAXX:130.665
;MAXY:145.165
;MAXZ:4
;Generated with Cura_SteamEngine 4.12.1
M140 S55
M105
M190 S55
M104 S205
M105
M109 S205
M82 ;absolute extrusion mode
M201 X500.00 Y500.00 Z100.00 E5000.00 ;Setup machine max acceleration
M203 X500.00 Y500.00 Z10.00 E50.00 ;Setup machine max feedrate
M204 P500.00 R1000.00 T500.00 ;Setup Print/Retract/Travel acceleration
M205 X8.00 Y8.00 Z0.40 E5.00 ;Setup Jerk
M220 S100 ;Reset Feedrate
M221 S100 ;Reset Flowrate

G28 ;Home

G92 E0 ;Reset Extruder
G1 Z2.0 F3000 ;Move Z Axis up
G1 X10.1 Y20 Z0.28 F5000.0 ;Move to start position
G1 X10.1 Y200.0 Z0.28 F1500.0 E15 ;Draw the first line
G1 X10.4 Y200.0 Z0.28 F5000.0 ;Move to side a little
G1 X10.4 Y20 Z0.28 F1500.0 E30 ;Draw the second line
G92 E0 ;Reset Extruder
G1 Z2.0 F3000 ;Move Z Axis up

G92 E0
G92 E0
G1 F2700 E-5
;LAYER_COUNT:20
;LAYER:0
M107
;MESH:motor_mount.obj
G0 F6000 X95.044 Y107.033 Z0.2
;TYPE:WALL-INNER
G1 F2700 E0
G1 F600 X95.551 Y106.822 E0.01826
G1 X95.988 Y106.488 E0.03656
G1 X96.322 Y106.051 E0.05485
G1 X96.533 Y105.544 E0.07312
G1 X96.602 Y105.008 E0.09109
G1 X96.533 Y104.457 E0.10956
G1 X96.322 Y103.948 E0.12789
G1 X95.985 Y103.508 E0.14632
G1 X95.547 Y103.175 E0.16462
G1 X95.044 Y102.967 E0.18273
G1 X94.494 Y102.897 E0.20117
G1 X93.951 Y102.968 E0.21938
G1 X93.443 Y103.181 E0.2377
G1 X93.011 Y103.512 E0.2558
G1 X92.675 Y103.953 E0.27424
G1 X92.467 Y104.456 E0.29235
G1 X92.397 Y105 E0.31059
G1 X92.467 Y105.544 E0.32883
G1 X92.681 Y106.057 E0.34732
G1 X93.015 Y106.492 E0.36556
G1 X93.453 Y106.825 E0.38386
G1 X93.956 Y107.033 E0.40196
G1 X94.5 Y107.103 E0.42021
G1 X95.044 Y107.033 E0.43845
G0 F6000 X94.94 Y106.643
;TYPE:WALL-OUTER
G1 F600 X95.35 Y106.473 E0.45321
G1 X95.703 Y106.203 E0.46799
G1 X95.973 Y105.85 E0.48277
G1 X96.143 Y105.44 E0.49754
G1 X96.199 Y105.007 E0.51206
G1 X96.143 Y104.56 E0.52704
G1 X95.973 Y104.15 E0.5418
G1 X95.7 Y103.794 E0.55673
G1 X95.346 Y103.525 E0.57151
G1 X94.94 Y103.357 E0.58613
G1 X94.495 Y103.3 E0.60105
G1 X94.056 Y103.358 E0.61578
G1 X93.645 Y103.53 E0.6306
G1 X93.297 Y103.797 E0.64519
G1 X93.025 Y104.154 E0.66011
G1 X92.857 Y104.56 E0.67473
G1 X92.8 Y105 E0.68948
G1 X92.857 Y105.44 E0.70424
G1 X93.03 Y105.855 E0.71919
G1 X93.3 Y106.206 E0.73392
G1 X93.654 Y106.475 E0.74871
G1 X94.06 Y106.643 E0.76332
G1 X94.5 Y106.7 E0.77808
G1 X94.94 Y106.643 E0.79284
G0 F6000 X95.053 Y107.068
G1 F2700 E-4.20716
G0 F6000 X96.719 Y105.594
G0 X95.326 Y105.113
G0 X115.883 Y94.683
G0 X115.213 Y95.978
G0 X115.879 Y96.026
;TYPE:WALL-INNER
G1 F2700 E0.79284
G1 F600 X116.196 Y96.082 E0.80355
G1 X116.508 Y96.101 E0.81394
G1 X116.815 Y96.082 E0.82417
G1 X117.131 Y96.023 E0.83486
G1 X117.422 Y95.932 E0.845
G1 X117.709 Y95.803 E0.85547
G1 X117.984 Y95.636 E0.86617
G1 X118.225 Y95.447 E0.87636
G1 X118.447 Y95.225 E0.8868
G1 X118.641 Y94.976 E0.8973
G1 X118.807 Y94.701 E0.90798
G1 X118.932 Y94.422 E0.91815
G1 X119.026 Y94.123 E0.92858
G1 X119.082 Y93.813 E0.93905
G1 X119.101 Y93.5 E0.94948
G1 X119.082 Y93.187 E0.95991
G1 X119.026 Y92.877 E0.97039
G1 X118.931 Y92.577 E0.98086
G1 X118.803 Y92.291 E0.99128
G1 X118.636 Y92.016 E1.00198
G1 X118.447 Y91.775 E1.01217
G1 X118.224 Y91.552 E1.02265
G1 X117.969 Y91.355 E1.03337
G1 X117.709 Y91.198 E1.04347
G1 X117.422 Y91.067 E1.05397
G1 X117.113 Y90.973 E1.06471
G1 X116.813 Y90.918 E1.07485
G1 X116.491 Y90.899 E1.08558
G1 X116.187 Y90.918 E1.09571
G1 X115.877 Y90.974 E1.10619
G1 X115.568 Y91.072 E1.11697
G1 X115.284 Y91.202 E1.12736
G1 X115.023 Y91.359 E1.13749
G1 X114.775 Y91.553 E1.14796
G1 X114.547 Y91.782 E1.15871
G1 X114.359 Y92.024 E1.1689
G1 X114.193 Y92.299 E1.17959
G1 X114.068 Y92.578 E1.18976
G1 X113.974 Y92.877 E1.20018
G1 X113.918 Y93.188 E1.21069
G1 X113.899 Y93.509 E1.22139
G1 X113.918 Y93.815 E1.23158
G1 X113.977 Y94.132 E1.24231
G1 X114.072 Y94.431 E1.25274
G1 X114.197 Y94.708 E1.26285
G1 X114.359 Y94.977 E1.27329
G1 X114.553 Y95.225 E1.28377
G1 X114.775 Y95.447 E1.29421
G1 X115.024 Y95.641 E1.30471
G1 X115.301 Y95.808 E1.31547
G1 X115.585 Y95.934 E1.3258
G1 X115.879 Y96.026 E1.33605
G0 F6000 X115.974 Y95.637
;TYPE:WALL-OUTER
G1 F600 X116.243 Y95.684 E1.34513
G1 X116.508 Y95.7 E1.35396
G1 X116.766 Y95.684 E1.36256
G1 X117.034 Y95.634 E1.37162
G1 X117.28 Y95.557 E1.3802
G1 X117.522 Y95.448 E1.38902
G1 X117.756 Y95.306 E1.39813
G1 X117.959 Y95.147 E1.4067
G1 X118.147 Y94.959 E1.41555
G1 X118.311 Y94.749 E1.42441
G1 X118.452 Y94.515 E1.4335
G1 X118.557 Y94.28 E1.44206
G1 X118.637 Y94.027 E1.45088
G1 X118.684 Y93.765 E1.45974
G1 X118.7 Y93.5 E1.46857
G1 X118.684 Y93.235 E1.4774
G1 X118.637 Y92.973 E1.48625
G1 X118.557 Y92.72 E1.49507
G1 X118.448 Y92.478 E1.5039
G1 X118.306 Y92.244 E1.51301
G1 X118.147 Y92.041 E1.52158
G1 X117.959 Y91.853 E1.53043
G1 X117.742 Y91.685 E1.53955
G1 X117.522 Y91.552 E1.5481
G1 X117.28 Y91.442 E1.55694
G1 X117.018 Y91.362 E1.56606
G1 X116.765 Y91.316 E1.57461
G1 X116.492 Y91.3 E1.5837
G1 X116.235 Y91.316 E1.59227
G1 X115.973 Y91.363 E1.60112
G1 X115.712 Y91.446 E1.61023
G1 X115.471 Y91.556 E1.61904
G1 X115.25 Y91.689 E1.62762
G1 X115.041 Y91.853 E1.63646
G1 X114.848 Y92.047 E1.64556
G1 X114.689 Y92.251 E1.65416
G1 X114.548 Y92.485 E1.66325
G1 X114.443 Y92.72 E1.67181
G1 X114.363 Y92.973 E1.68063
G1 X114.316 Y93.235 E1.68949
G1 X114.3 Y93.508 E1.69858
G1 X114.316 Y93.766 E1.70718
G1 X114.366 Y94.035 E1.71628
G1 X114.446 Y94.288 E1.72511
G1 X114.552 Y94.522 E1.73365
G1 X114.689 Y94.75 E1.7425
G1 X114.853 Y94.959 E1.75133
G1 X115.041 Y95.147 E1.76018
G1 X115.251 Y95.311 E1.76904
G1 X115.486 Y95.452 E1.77815
G1 X115.727 Y95.559 E1.78692
G1 X115.974 Y95.637 E1.79554
G0 F6000 X115.87 Y96.064
G1 F2700 E-3.20446
G0 F6000 X116.839 Y96.272
G0 X116.66 Y94.824
G0 X123.776 Y104.586
G0 X122.508 Y103.856
G0 X122.624 Y105.502
G0 X122.821 Y105.976
G0 X123.071 Y106.3
G0 X123.956 Y107.033
;TYPE:WALL-INNER
G1 F2700 E1.79554
G1 F600 X124.5 Y107.103 E1.81378
G1 X125.044 Y107.033 E1.83203
G1 X125.551 Y106.822 E1.85029
G1 X125.988 Y106.488 E1.86858
G1 X126.322 Y106.051 E1.88688
G1 X126.533 Y105.544 E1.90514
G1 X126.602 Y105.008 E1.92312
G1 X126.533 Y104.457 E1.94159
G1 X126.322 Y103.948 E1.95991
G1 X125.985 Y103.508 E1.97835
G1 X125.547 Y103.175 E1.99665
G1 X125.044 Y102.967 E2.01475
G1 X124.494 Y102.897 E2.03319
G1 X123.951 Y102.968 E2.05141
G1 X123.443 Y103.181 E2.06973
G1 X123.011 Y103.512 E2.08783
G1 X122.675 Y103.953 E2.10627
G1 X122.467 Y104.456 E2.12437
G1 X122.397 Y105 E2.14261
G1 X122.467 Y105.544 E2.16086
G1 X122.681 Y106.057 E2.17934
G1 X123.015 Y106.492 E2.19759
G1 X123.453 Y106.825 E2.21589
G1 X123.956 Y107.033 E2.23399
G0 F6000 X124.06 Y106.643
;TYPE:WALL-OUTER
G1 F600 X124.5 Y106.7 E2.24875
G1 X124.94 Y106.643 E2.2635
G1 X125.35 Y106.473 E2.27827
G1 X125.703 Y106.203 E2.29305
G1 X125.973 Y105.85 E2.30783
G1 X126.143 Y105.44 E2.32259
G1 X126.199 Y105.007 E2.33711
G1 X126.143 Y104.56 E2.3521
G1 X125.973 Y104.15 E2.36686
G1 X125.7 Y103.794 E2.38178
G1 X125.346 Y103.525 E2.39657
G1 X124.94 Y103.357 E2.41118
G1 X124.495 Y103.3 E2.4261
G1 X124.056 Y103.358 E2.44083
G1 X123.645 Y103.53 E2.45565
G1 X123.297 Y103.797 E2.47024
G1 X123.025 Y104.154 E2.48517
G1 X122.857 Y104.56 E2.49978
G1 X122.8 Y105 E2.51454
G1 X122.857 Y105.44 E2.52929
G1 X123.03 Y105.855 E2.54425
G1 X123.3 Y106.206 E2.55898
G1 X123.654 Y106.475 E2.57376
G1 X124.06 Y106.643 E2.58838
G0 F6000 X123.947 Y107.068
G1 F2700 E-2.41162
G0 F6000 X124.694 Y107.29
G0 X124.717 Y105.806
G0 X130.665 Y107.29
G0 X129.19 Y107.29
G0 X129.4 Y143.9
;TYPE:WALL-INNER
G1 F2700 E2.58838
G1 F600 X90.6 Y143.9 E3.87887
G1 X90.6 Y76.1 E6.13391
G1 X129.4 Y76.1 E7.4244
G1 X129.4 Y143.9 E9.67944
G0 F6000 X129.8 Y144.3
;TYPE:WALL-OUTER
G1 F600 X90.2 Y144.3 E10.99654
G1 X90.2 Y75.7 E13.27819
G1 X129.8 Y75.7 E14.59529
G1 X129.8 Y144.3 E16.87693
G0 F6000 X129.53 Y144.03
G0 X129.29 Y143.51
G0 X129.01 Y143.51
;TYPE:SKIN
G1 F600 X90.99 Y143.51 E18.14148
G1 X90.99 Y76.49 E20.37058
G1 X129.01 Y76.49 E21.63513
G1 X129.01 Y143.51 E23.86422
G1 F2700 E18.86422
G0 F6000 X129.29 Y143.51
G0 X129.19 Y107.14
G0 X126.488 Y106.147
G0 X125.074 Y107.14
G1 F2700 E23.86422
G0 F6000 X125.145 Y107.413
G1 F600 X125.748 Y107.163 E23.88593
G1 X126.267 Y106.767 E23.90765
G1 X126.663 Y106.248 E23.92936
G1 X126.913 Y105.645 E23.95107
G1 X126.996 Y105.008 E23.97244
G1 X126.913 Y104.356 E23.9943
G1 X126.663 Y103.751 E24.01607
G1 X126.262 Y103.229 E24.03796
G1 X125.742 Y102.834 E24.05968
G1 X125.145 Y102.587 E24.08117
G1 X124.494 Y102.503 E24.103
G1 X123.848 Y102.588 E24.12467
G1 X123.246 Y102.841 E24.14639
G1 X122.732 Y103.235 E24.16793
G1 X122.334 Y103.758 E24.18979
G1 X122.087 Y104.355 E24.21128
G1 X122.003 Y105 E24.23291
G1 X122.087 Y105.646 E24.25458
G1 X122.34 Y106.254 E24.27648
G1 X122.738 Y106.771 E24.29818
G1 X123.258 Y107.166 E24.3199
G1 X123.855 Y107.413 E24.34139
G1 X124.5 Y107.497 E24.36303
G1 X125.145 Y107.413 E24.38466
G1 F2700 E19.38466
G0 F6000 X125.074 Y107.14
G0 X123.998 Y106.876
G0 X123.535 Y106.684
G0 X123.13 Y106.377
G0 X122.821 Y105.976
G0 X122.624 Y105.502
G0 X122.558 Y105
G0 X122.875 Y103.376
G0 X123.91 Y104.41
G0 X117.119 Y94.682
G0 X117.798 Y95.972
G0 X117.159 Y96.13
G1 F2700 E24.38466
G0 F6000 X117.225 Y96.402
G1 F600 X117.561 Y96.297 E24.39637
G1 X117.89 Y96.149 E24.40837
G1 X118.206 Y95.958 E24.42065
G1 X118.484 Y95.739 E24.43242
G1 X118.74 Y95.484 E24.44444
G1 X118.963 Y95.198 E24.4565
G1 X119.154 Y94.882 E24.46878
G1 X119.297 Y94.561 E24.48047
G1 X119.406 Y94.217 E24.49247
G1 X119.47 Y93.86 E24.50453
G1 X119.491 Y93.5 E24.51653
G1 X119.47 Y93.14 E24.52852
G1 X119.406 Y92.783 E24.54059
G1 X119.296 Y92.438 E24.55263
G1 X119.149 Y92.11 E24.56458
G1 X118.958 Y91.794 E24.57686
G1 X118.739 Y91.516 E24.58864
G1 X118.482 Y91.259 E24.60072
G1 X118.19 Y91.033 E24.61301
G1 X117.892 Y90.853 E24.62458
G1 X117.56 Y90.702 E24.63672
G1 X117.205 Y90.593 E24.64907
G1 X116.86 Y90.53 E24.66073
G1 X116.491 Y90.509 E24.67302
G1 X116.14 Y90.53 E24.68472
G1 X115.783 Y90.594 E24.69678
G1 X115.427 Y90.707 E24.70921
G1 X115.102 Y90.857 E24.72111
G1 X114.801 Y91.037 E24.73278
G1 X114.515 Y91.261 E24.74486
G1 X114.254 Y91.524 E24.75718
G1 X114.037 Y91.803 E24.76894
G1 X113.846 Y92.118 E24.78119
G1 X113.703 Y92.439 E24.79288
G1 X113.594 Y92.783 E24.80488
G1 X113.53 Y93.142 E24.81701
G1 X113.509 Y93.509 E24.82924
G1 X113.53 Y93.863 E24.84103
G1 X113.598 Y94.227 E24.85335
G1 X113.707 Y94.571 E24.86535
G1 X113.851 Y94.889 E24.87696
G1 X114.037 Y95.199 E24.88898
G1 X114.26 Y95.484 E24.90102
G1 X114.516 Y95.74 E24.91306
G1 X114.803 Y95.963 E24.92515
G1 X115.12 Y96.155 E24.93748
G1 X115.447 Y96.299 E24.94936
G1 X115.787 Y96.406 E24.96121
G1 X116.15 Y96.47 E24.97347
G1 X116.508 Y96.491 E24.9854
G1 X116.863 Y96.47 E24.99723
G1 X117.225 Y96.402 E25.00948
G1 F2700 E20.00948
G0 F6000 X117.159 Y96.13
G0 X115.213 Y95.978
G0 X115.883 Y94.683
G0 X95.326 Y105.113
G0 X96.719 Y105.594
G0 X96.068 Y106.567
G1 F2700 E25.00948
G0 F6000 X96.267 Y106.767
G1 F600 X96.663 Y106.248 E25.03119
G1 X96.913 Y105.645 E25.05291
G1 X96.996 Y105.008 E25.07427
G1 X96.913 Y104.356 E25.09613
G1 X96.663 Y103.751 E25.1179
G1 X96.262 Y103.229 E25.1398
G1 X95.742 Y102.834 E25.16152
G1 X95.145 Y102.587 E25.18301
G1 X94.494 Y102.503 E25.20484
G1 X93.848 Y102.588 E25.22651
G1 X93.246 Y102.841 E25.24823
G1 X92.732 Y103.235 E25.26977
G1 X92.334 Y103.758 E25.29163
G1 X92.087 Y104.355 E25.31312
G1 X92.003 Y105 E25.33475
G1 X92.087 Y105.646 E25.35642
G1 X92.34 Y106.254 E25.37832
G1 X92.738 Y106.771 E25.40002
G1 X93.258 Y107.166 E25.42174
G1 X93.855 Y107.413 E25.44323
G1 X94.5 Y107.497 E25.46486
G1 X95.145 Y107.413 E25.4865
G1 X95.748 Y107.163 E25.50821
G1 X96.267 Y106.767 E25.52992
G1 F2700 E20.52992
G0 F6000 X96.068 Y106.567
G0 X95.094 Y107.219
G0 X94.717 Y105.806
G0 X95.094 Y145.165
G0 X95.094 Y143.69
G0 X91.305 Y143.79
G1 F2700 E25.52992
G0 F6000 X91.305 Y143.348
G1 F600 X91.149 Y143.192 E25.53726
G0 F6000 X91.149 Y142.626
G1 F600 X91.871 Y143.348 E25.57122
G0 F6000 X92.437 Y143.348
G1 F600 X91.149 Y142.061 E25.63178
G0 F6000 X91.149 Y141.495
G1 F600 X93.002 Y143.348 E25.71894
G0 F6000 X93.568 Y143.348
G1 F600 X91.149 Y140.929 E25.83272
G0 F6000 X91.149 Y140.364
G1 F600 X94.134 Y143.348 E25.9731
G0 F6000 X94.699 Y143.348
G1 F600 X91.149 Y139.798 E26.14008
G0 F6000 X91.149 Y139.232
G1 F600 X95.265 Y143.348 E26.33369
G0 F6000 X95.831 Y143.348
G1 F600 X91.149 Y138.667 E26.55389
G0 F6000 X91.149 Y138.101
G1 F600 X96.397 Y143.348 E26.80072
G0 F6000 X96.962 Y143.348
G1 F600 X91.149 Y137.535 E27.07414
G0 F6000 X91.149 Y136.97
G1 F600 X97.528 Y143.348 E27.37417
G0 F6000 X98.094 Y143.348
G1 F600 X91.149 Y136.404 E27.70082
G0 F6000 X91.149 Y135.838
G1 F600 X98.659 Y143.348 E28.05406
G0 F6000 X99.225 Y143.348
G1 F600 X91.149 Y135.273 E28.43391
G0 F6000 X91.149 Y134.707
G1 F600 X99.791 Y143.348 E28.84038
G0 F6000 X100.356 Y143.348
G1 F600 X91.149 Y134.141 E29.27345
G0 F6000 X91.149 Y133.576
G1 F600 X100.922 Y143.348 E29.73312
G0 F6000 X101.488 Y143.348
G1 F600 X91.149 Y133.01 E30.21941
G0 F6000 X91.149 Y132.444
G1 F600 X102.053 Y143.348 E30.7323
G0 F6000 X102.619 Y143.348
G1 F600 X91.149 Y131.878 E31.27181
G0 F6000 X91.149 Y131.313
G1 F600 X103.185 Y143.348 E31.83793
G0 F6000 X103.75 Y143.348
G1 F600 X91.149 Y130.747 E32.43064
G0 F6000 X91.149 Y130.181
G1 F600 X104.316 Y143.348 E33.04997
G0 F6000 X104.882 Y143.348
G1 F600 X91.149 Y129.616 E33.69591
G0 F6000 X91.149 Y129.05
G1 F600 X105.448 Y143.348 E34.36847
G0 F6000 X106.013 Y143.348
G1 F600 X91.149 Y128.484 E35.06762
G0 F6000 X91.149 Y127.919
G1 F600 X106.579 Y143.348 E35.79338
G0 F6000 X107.145 Y143.348
G1 F600 X91.149 Y127.353 E36.54576
G0 F6000 X91.149 Y126.787
G1 F600 X107.71 Y143.348 E37.32474
G0 F6000 X108.276 Y143.348
G1 F600 X91.149 Y126.222 E38.13032
G0 F6000 X91.149 Y125.656
G1 F600 X108.842 Y143.348 E38.96252
G0 F6000 X109.407 Y143.348
G1 F600 X91.149 Y125.09 E39.82132
G0 F6000 X91.149 Y124.525
G1 F600 X109.973 Y143.348 E40.70672
G0 F6000 X110.539 Y143.348
G1 F600 X91.149 Y123.959 E41.61874
G0 F6000 X91.149 Y123.393
G1 F600 X111.104 Y143.348 E42.55736
G0 F6000 X111.67 Y143.348
G1 F600 X91.149 Y122.827 E43.52261
G0 F6000 X91.149 Y122.262
G1 F600 X112.236 Y143.348 E44.51445
G0 F6000 X112.801 Y143.348
G1 F600 X91.149 Y121.696 E45.53289
G0 F6000 X91.149 Y121.13
G1 F600 X113.367 Y143.348 E46.57796
G0 F6000 X113.933 Y143.348
G1 F600 X91.149 Y120.565 E47.64963
G0 F6000 X91.149 Y119.999
G1 F600 X114.498 Y143.348 E48.74789
G0 F6000 X115.064 Y143.348
G1 F600 X91.149 Y119.433 E49.87278
G0 F6000 X91.149 Y118.868
G1 F600 X115.63 Y143.348 E51.02427
G0 F6000 X116.196 Y143.348
G1 F600 X91.149 Y118.302 E52.20238
G0 F6000 X91.149 Y117.736
G1 F600 X116.761 Y143.348 E53.40709
G0 F6000 X117.327 Y143.348
G1 F600 X91.149 Y117.171 E54.6384
G0 F6000 X91.149 Y116.605
G1 F600 X117.893 Y143.348 E55.89633
G0 F6000 X118.458 Y143.348
G1 F600 X91.149 Y116.039 E57.18086
G0 F6000 X91.149 Y115.474
G1 F600 X119.024 Y143.348 E58.49199
G0 F6000 X119.59 Y143.348
G1 F600 X91.149 Y114.908 E59.82975
G0 F6000 X91.149 Y114.342
G1 F600 X120.155 Y143.348 E61.1941
G0 F6000 X120.721 Y143.348
G1 F600 X91.149 Y113.777 E62.58505
G0 F6000 X91.149 Y113.211
G1 F600 X121.287 Y143.348 E64.00263
G0 F6000 X121.852 Y143.348
G1 F600 X91.149 Y112.645 E65.4468
G0 F6000 X91.149 Y112.079
G1 F600 X122.418 Y143.348 E66.9176
G0 F6000 X122.984 Y143.348
G1 F600 X91.149 Y111.514 E68.415
G0 F6000 X91.149 Y110.948
G1 F600 X123.549 Y143.348 E69.93899
G0 F6000 X124.115 Y143.348
G1 F600 X91.149 Y110.382 E71.48961
G0 F6000 X91.149 Y109.817
G1 F600 X124.681 Y143.348 E73.06683
G0 F6000 X125.246 Y143.348
G1 F600 X91.149 Y109.251 E74.67065
G0 F6000 X91.149 Y108.685
G1 F600 X125.812 Y143.348 E76.30109
G0 F6000 X126.378 Y143.348
G1 F600 X91.149 Y108.12 E77.95813
G0 F6000 X91.149 Y107.554
G1 F600 X126.944 Y143.348 E79.6418
G0 F6000 X127.509 Y143.348
G1 F600 X91.149 Y106.988 E81.35206
G0 F6000 X91.149 Y106.423
G1 F600 X128.075 Y143.348 E83.08892
G0 F6000 X128.641 Y143.348
G1 F600 X91.149 Y105.857 E84.85241
G0 F6000 X91.149 Y105.291
G1 F600 X92.228 Y106.37 E84.90316
G0 F6000 X91.904 Y105.48
