;FLAVOR:Marlin
;TIME:2193
;Filament used: 1.49018m
;Layer height: 0.2
;MINX:103.2
;MINY:71.867
;MINZ:0.2
;MAXX:116.8
;MAXY:182.467
;MAXZ:12
;Generated with Cura_SteamEngine 4.12.1
M140 S55
M105
M190 S55
M104 S205
M105
M109 S205
M82 ;absolute extrusion mode
M201 X500.00 Y500.00 Z100.00 E5000.00 ;Setup machine max acceleration
M203 X500.00 Y500.00 Z10.00 E50.00 ;Setup machine max feedrate
M204 P500.00 R1000.00 T500.00 ;Setup Print/Retract/Travel acceleration
M205 X8.00 Y8.00 Z0.40 E5.00 ;Setup Jerk
M220 S100 ;Reset Feedrate
M221 S100 ;Reset Flowrate

G28 ;Home

G92 E0 ;Reset Extruder
G1 Z2.0 F3000 ;Move Z Axis up
G1 X10.1 Y20 Z0.28 F5000.0 ;Move to start position
G1 X10.1 Y200.0 Z0.28 F1500.0 E15 ;Draw the first line
G1 X10.4 Y200.0 Z0.28 F5000.0 ;Move to side a little
G1 X10.4 Y20 Z0.28 F1500.0 E30 ;Draw the second line
G92 E0 ;Reset Extruder
G1 Z2.0 F3000 ;Move Z Axis up

G92 E0
G92 E0
G1 F2700 E-5
;LAYER_COUNT:60
;LAYER:0
M107
;MESH:bump_plate.obj
G0 F6000 X112.42 Y181.267 Z0.2
;TYPE:WALL-INNER
G1 F2700 E0
G1 F600 X107.58 Y181.267 E0.16098
G1 X104.4 Y178.087 E0.31056
G1 X104.4 Y76.247 E3.69777
G1 X107.58 Y73.067 E3.84735
G1 X112.42 Y73.067 E4.00833
G1 X115.6 Y76.247 E4.1579
G1 X115.6 Y178.087 E7.54511
G1 X112.42 Y181.267 E7.69469
G0 F6000 X112.586 Y181.667
G1 F600 X107.414 Y181.667 E7.86671
G1 X104 Y178.253 E8.0273
G1 X104 Y76.081 E11.42555
G1 X107.414 Y72.667 E11.58614
G1 X112.586 Y72.667 E11.75816
G1 X116 Y76.081 E11.91874
G1 X116 Y178.253 E15.317
G1 X112.586 Y181.667 E15.47758
G0 F6000 X112.752 Y182.067
G1 F600 X107.248 Y182.067 E15.66064
G1 X103.6 Y178.419 E15.83223
G1 X103.6 Y75.915 E19.24153
G1 X107.248 Y72.267 E19.41312
G1 X112.752 Y72.267 E19.59619
G1 X116.4 Y75.915 E19.76778
G1 X116.4 Y178.419 E23.17707
G1 X112.752 Y182.067 E23.34866
G0 F6000 X112.918 Y182.467
;TYPE:WALL-OUTER
G1 F600 X107.082 Y182.467 E23.54277
G1 X103.2 Y178.585 E23.72537
G1 X103.2 Y75.749 E27.14571
G1 X107.082 Y71.867 E27.3283
G1 X112.918 Y71.867 E27.52241
G1 X116.8 Y75.749 E27.70501
G1 X116.8 Y178.585 E31.12535
G1 X112.918 Y182.467 E31.30795
G0 F6000 X112.75 Y182.061
G0 X112.457 Y181.074
G0 X112.26 Y180.877
;TYPE:SKIN
G1 F600 X107.74 Y180.877 E31.45828
G1 X104.79 Y177.927 E31.59704
G1 X104.79 Y76.407 E34.97361
G1 X107.74 Y73.457 E35.11237
G1 X112.26 Y73.457 E35.2627
G1 X115.21 Y76.407 E35.40146
G1 X115.21 Y177.927 E38.77803
G1 X112.26 Y180.877 E38.91679
G0 F6000 X112.457 Y181.074
G0 X107.651 Y181.093
G0 X104.574 Y178.016
G0 X104.51 Y177.357
G0 X104.949 Y177.357
G1 F600 X108.308 Y180.715 E39.07476
G0 F6000 X108.873 Y180.715
G1 F600 X104.949 Y176.791 E39.25934
G0 F6000 X104.949 Y176.225
G1 F600 X109.439 Y180.715 E39.47053
G0 F6000 X110.005 Y180.715
G1 F600 X104.949 Y175.66 E39.70833
G0 F6000 X104.949 Y175.094
G1 F600 X110.57 Y180.715 E39.97272
G0 F6000 X111.136 Y180.715
G1 F600 X104.949 Y174.528 E40.26374
G0 F6000 X104.949 Y173.963
G1 F600 X111.702 Y180.715 E40.58136
G0 F6000 X112.231 Y180.679
G1 F600 X104.949 Y173.397 E40.92388
G0 F6000 X104.949 Y172.831
G1 F600 X112.514 Y180.397 E41.27974
G0 F6000 X112.797 Y180.114
G1 F600 X104.949 Y172.266 E41.64888
G0 F6000 X104.949 Y171.7
G1 F600 X113.08 Y179.831 E42.03134
G0 F6000 X113.363 Y179.548
G1 F600 X104.949 Y171.134 E42.42711
G0 F6000 X104.949 Y170.569
G1 F600 X113.646 Y179.265 E42.83617
G0 F6000 X113.929 Y178.982
G1 F600 X104.949 Y170.003 E43.25853
G0 F6000 X104.949 Y169.437
G1 F600 X114.211 Y178.7 E43.69421
G0 F6000 X114.494 Y178.417
G1 F600 X104.949 Y168.871 E44.14321
G0 F6000 X104.949 Y168.306
G1 F600 X114.777 Y178.134 E44.60548
G0 F6000 X115.05 Y177.841
G1 F600 X104.949 Y167.74 E45.0806
G0 F6000 X104.949 Y167.174
G1 F600 X115.05 Y177.275 E45.55572
G0 F6000 X115.05 Y176.71
G1 F600 X104.949 Y166.609 E46.03084
G0 F6000 X104.949 Y166.043
G1 F600 X115.05 Y176.144 E46.50596
G0 F6000 X115.05 Y175.578
G1 F600 X104.949 Y165.477 E46.98108
G0 F6000 X104.949 Y164.912
G1 F600 X115.05 Y175.013 E47.4562
G0 F6000 X115.05 Y174.447
G1 F600 X104.949 Y164.346 E47.93132
G0 F6000 X104.949 Y163.78
G1 F600 X115.05 Y173.881 E48.40644
G0 F6000 X115.05 Y173.316
G1 F600 X104.949 Y163.215 E48.88156
G0 F6000 X104.949 Y162.649
G1 F600 X115.05 Y172.75 E49.35668
G0 F6000 X115.05 Y172.184
G1 F600 X104.949 Y162.083 E49.8318
G0 F6000 X104.949 Y161.518
G1 F600 X115.05 Y171.619 E50.30693
G0 F6000 X115.05 Y171.053
G1 F600 X104.949 Y160.952 E50.78205
G0 F6000 X104.949 Y160.386
G1 F600 X115.05 Y170.487 E51.25717
G0 F6000 X115.05 Y169.922
G1 F600 X104.949 Y159.82 E51.73231
G0 F6000 X104.949 Y159.255
G1 F600 X115.05 Y169.356 E52.20743
G0 F6000 X115.05 Y168.79
G1 F600 X104.949 Y158.689 E52.68255
G0 F6000 X104.949 Y158.123
G1 F600 X115.05 Y168.224 E53.15767
G0 F6000 X115.05 Y167.659
G1 F600 X104.949 Y157.558 E53.63279
G0 F6000 X104.949 Y156.992
G1 F600 X115.05 Y167.093 E54.10791
G0 F6000 X115.05 Y166.527
G1 F600 X104.949 Y156.426 E54.58303
G0 F6000 X104.949 Y155.861
G1 F600 X115.05 Y165.962 E55.05815
G0 F6000 X115.05 Y165.396
G1 F600 X104.949 Y155.295 E55.53327
G0 F6000 X104.949 Y154.729
G1 F600 X115.05 Y164.83 E56.00839
G0 F6000 X115.05 Y164.265
G1 F600 X104.949 Y154.164 E56.48351
G0 F6000 X104.949 Y153.598
G1 F600 X115.05 Y163.699 E56.95863
G0 F6000 X115.05 Y163.133
G1 F600 X104.949 Y153.032 E57.43375
G0 F6000 X104.949 Y152.467
G1 F600 X115.05 Y162.568 E57.90887
G0 F6000 X115.05 Y162.002
G1 F600 X104.949 Y151.901 E58.38399
G0 F6000 X104.949 Y151.335
G1 F600 X115.05 Y161.436 E58.85911
G0 F6000 X115.05 Y160.871
G1 F600 X104.949 Y150.77 E59.33423
G0 F6000 X104.949 Y150.204
G1 F600 X115.05 Y160.305 E59.80935
G0 F6000 X115.05 Y159.739
G1 F600 X104.949 Y149.638 E60.28447
G0 F6000 X104.949 Y149.072
G1 F600 X115.05 Y159.173 E60.75959
G0 F6000 X115.05 Y158.608
G1 F600 X104.949 Y148.507 E61.23471
G0 F6000 X104.949 Y147.941
G1 F600 X115.05 Y158.042 E61.70983
G0 F6000 X115.05 Y157.476
G1 F600 X104.949 Y147.375 E62.18495
G0 F6000 X104.949 Y146.81
G1 F600 X115.05 Y156.911 E62.66007
G0 F6000 X115.05 Y156.345
G1 F600 X104.949 Y146.244 E63.13519
G0 F6000 X104.949 Y145.678
G1 F600 X115.05 Y155.779 E63.61031
G0 F6000 X115.05 Y155.214
G1 F600 X104.949 Y145.113 E64.08543
G0 F6000 X104.949 Y144.547
G1 F600 X115.05 Y154.648 E64.56055
G0 F6000 X115.05 Y154.082
G1 F600 X104.949 Y143.981 E65.03567
G0 F6000 X104.949 Y143.416
G1 F600 X115.05 Y153.517 E65.51079
G0 F6000 X115.05 Y152.951
G1 F600 X104.949 Y142.85 E65.98591
G0 F6000 X104.949 Y142.284
G1 F600 X115.05 Y152.385 E66.46103
G0 F6000 X115.05 Y151.82
G1 F600 X104.949 Y141.719 E66.93615
G0 F6000 X104.949 Y141.153
G1 F600 X115.05 Y151.254 E67.41127
G0 F6000 X115.05 Y150.688
G1 F600 X104.949 Y140.587 E67.88639
G0 F6000 X104.949 Y140.021
G1 F600 X115.05 Y150.123 E68.36153
G0 F6000 X115.05 Y149.557
G1 F600 X104.949 Y139.456 E68.83665
G0 F6000 X104.949 Y138.89
G1 F600 X115.05 Y148.991 E69.31177
G0 F6000 X115.05 Y148.425
G1 F600 X104.949 Y138.324 E69.78689
G0 F6000 X104.949 Y137.759
G1 F600 X115.05 Y147.86 E70.26202
G0 F6000 X115.05 Y147.294
G1 F600 X104.949 Y137.193 E70.73714
G0 F6000 X104.949 Y136.627
G1 F600 X115.05 Y146.728 E71.21226
G0 F6000 X115.05 Y146.163
G1 F600 X104.949 Y136.062 E71.68738
G0 F6000 X104.949 Y135.496
G1 F600 X115.05 Y145.597 E72.1625
G0 F6000 X115.05 Y145.031
G1 F600 X104.949 Y134.93 E72.63762
G0 F6000 X104.949 Y134.365
G1 F600 X115.05 Y144.466 E73.11274
G0 F6000 X115.05 Y143.9
G1 F600 X104.949 Y133.799 E73.58786
G0 F6000 X104.949 Y133.233
G1 F600 X115.05 Y143.334 E74.06298
G0 F6000 X115.05 Y142.769
G1 F600 X104.949 Y132.668 E74.5381
G0 F6000 X104.949 Y132.102
G1 F600 X115.05 Y142.203 E75.01322
G0 F6000 X115.05 Y141.637
G1 F600 X104.949 Y131.536 E75.48834
G0 F6000 X104.949 Y130.971
G1 F600 X115.05 Y141.072 E75.96346
G0 F6000 X115.05 Y140.506
G1 F600 X104.949 Y130.405 E76.43858
G0 F6000 X104.949 Y129.839
G1 F600 X115.05 Y139.94 E76.9137
G0 F6000 X115.05 Y139.374
G1 F600 X104.949 Y129.273 E77.38882
G0 F6000 X104.949 Y128.708
G1 F600 X115.05 Y138.809 E77.86394
G0 F6000 X115.05 Y138.243
G1 F600 X104.949 Y128.142 E78.33906
G0 F6000 X104.949 Y127.576
G1 F600 X115.05 Y137.677 E78.81418
G0 F6000 X115.05 Y137.112
G1 F600 X104.948 Y127.01 E79.28934
G0 F6000 X104.948 Y126.444
G1 F600 X115.05 Y136.546 E79.76451
G0 F6000 X115.05 Y135.98
G1 F600 X104.948 Y125.879 E80.23965
G0 F6000 X104.948 Y125.313
G1 F600 X115.05 Y135.415 E80.71482
G0 F6000 X115.05 Y134.849
G1 F600 X104.948 Y124.747 E81.18999
G0 F6000 X104.948 Y124.182
G1 F600 X115.05 Y134.283 E81.66513
G0 F6000 X115.05 Y133.718
G1 F600 X104.948 Y123.616 E82.1403
G0 F6000 X104.948 Y123.05
G1 F600 X115.05 Y133.152 E82.61547
G0 F6000 X115.05 Y132.586
G1 F600 X104.948 Y122.485 E83.09061
G0 F6000 X104.948 Y121.919
G1 F600 X115.05 Y132.021 E83.56578
G0 F6000 X115.05 Y131.455
G1 F600 X104.948 Y121.353 E84.04094
G0 F6000 X104.948 Y120.787
G1 F600 X115.05 Y130.889 E84.51611
G0 F6000 X115.05 Y130.324
G1 F600 X104.948 Y120.222 E84.99128
G0 F6000 X104.948 Y119.656
G1 F600 X115.05 Y129.758 E85.46645
G0 F6000 X115.05 Y129.192
G1 F600 X104.948 Y119.09 E85.94161
G0 F6000 X104.948 Y118.525
G1 F600 X115.05 Y128.626 E86.41676
G0 F6000 X115.05 Y128.061
G1 F600 X104.948 Y117.959 E86.89192
G0 F6000 X104.948 Y117.393
G1 F600 X115.05 Y127.495 E87.36709
G0 F6000 X115.049 Y126.929
G1 F600 X104.948 Y116.828 E87.84221
G0 F6000 X104.948 Y116.262
G1 F600 X115.049 Y126.363 E88.31733
G0 F6000 X115.049 Y125.797
G1 F600 X104.948 Y115.696 E88.79245
G0 F6000 X104.948 Y115.131
G1 F600 X115.049 Y125.232 E89.26757
G0 F6000 X115.049 Y124.666
G1 F600 X104.948 Y114.565 E89.74269
G0 F6000 X104.948 Y113.999
G1 F600 X115.049 Y124.1 E90.21781
G0 F6000 X115.049 Y123.535
G1 F600 X104.948 Y113.434 E90.69293
G0 F6000 X104.948 Y112.868
G1 F600 X115.049 Y122.969 E91.16805
G0 F6000 X115.049 Y122.403
G1 F600 X104.948 Y112.302 E91.64317
G0 F6000 X104.948 Y111.737
G1 F600 X115.049 Y121.838 E92.11829
G0 F6000 X115.049 Y121.272
G1 F600 X104.948 Y111.171 E92.59341
G0 F6000 X104.948 Y110.605
G1 F600 X115.049 Y120.706 E93.06853
G0 F6000 X115.049 Y120.14
G1 F600 X104.948 Y110.039 E93.54365
G0 F6000 X104.948 Y109.474
G1 F600 X115.049 Y119.575 E94.01877
G0 F6000 X115.049 Y119.009
G1 F600 X104.948 Y108.908 E94.49389
G0 F6000 X104.948 Y108.342
G1 F600 X115.049 Y118.443 E94.96901
G0 F6000 X115.049 Y117.878
G1 F600 X104.948 Y107.777 E95.44413
G0 F6000 X104.948 Y107.211
G1 F600 X115.049 Y117.312 E95.91925
G0 F6000 X115.049 Y116.746
G1 F600 X104.948 Y106.645 E96.39437
G0 F6000 X104.948 Y106.08
G1 F600 X115.049 Y116.181 E96.86949
G0 F6000 X115.049 Y115.615
G1 F600 X104.948 Y105.514 E97.34461
G0 F6000 X104.948 Y104.948
G1 F600 X115.049 Y115.049 E97.81973
G0 F6000 X115.049 Y114.484
G1 F600 X104.948 Y104.383 E98.29485
G0 F6000 X104.948 Y103.817
G1 F600 X115.049 Y113.918 E98.76997
G0 F6000 X115.049 Y113.352
G1 F600 X104.948 Y103.251 E99.24509
G0 F6000 X104.948 Y102.686
G1 F600 X115.049 Y112.787 E99.72021
G0 F6000 X115.049 Y112.221
G1 F600 X104.948 Y102.12 E100.19533
G0 F6000 X104.948 Y101.554
G1 F600 X115.049 Y111.655 E100.67045
G0 F6000 X115.049 Y111.09
G1 F600 X104.948 Y100.988 E101.1456
G0 F6000 X104.948 Y100.423
G1 F600 X115.049 Y110.524 E101.62072
G0 F6000 X115.049 Y109.958
G1 F600 X104.948 Y99.857 E102.09584
G0 F6000 X104.948 Y99.291
G1 F600 X115.049 Y109.392 E102.57096
G0 F6000 X115.049 Y108.827
G1 F600 X104.948 Y98.726 E103.04608
G0 F6000 X104.948 Y98.16
G1 F600 X115.049 Y108.261 E103.5212
G0 F6000 X115.049 Y107.695
G1 F600 X104.948 Y97.594 E103.99632
G0 F6000 X104.948 Y97.029
G1 F600 X115.049 Y107.13 E104.47144
G0 F6000 X115.049 Y106.564
G1 F600 X104.948 Y96.463 E104.94656
G0 F6000 X104.948 Y95.897
G1 F600 X115.049 Y105.998 E105.42168
G0 F6000 X115.049 Y105.433
G1 F600 X104.948 Y95.332 E105.8968
G0 F6000 X104.948 Y94.766
G1 F600 X115.049 Y104.867 E106.37192
G0 F6000 X115.049 Y104.301
G1 F600 X104.948 Y94.2 E106.84704
G0 F6000 X104.948 Y93.635
G1 F600 X115.049 Y103.736 E107.32216
G0 F6000 X115.049 Y103.17
G1 F600 X104.948 Y93.069 E107.79728
G0 F6000 X104.948 Y92.503
G1 F600 X115.049 Y102.604 E108.2724
G0 F6000 X115.049 Y102.039
G1 F600 X104.948 Y91.938 E108.74752
G0 F6000 X104.948 Y91.372
G1 F600 X115.049 Y101.473 E109.22264
G0 F6000 X115.049 Y100.907
G1 F600 X104.948 Y90.806 E109.69776
G0 F6000 X104.948 Y90.24
G1 F600 X115.049 Y100.341 E110.17288
G0 F6000 X115.049 Y99.776
G1 F600 X104.948 Y89.675 E110.648
G0 F6000 X104.948 Y89.109
G1 F600 X115.049 Y99.21 E111.12312
G0 F6000 X115.049 Y98.644
G1 F600 X104.948 Y88.543 E111.59824
G0 F6000 X104.948 Y87.978
G1 F600 X115.049 Y98.079 E112.07336
G0 F6000 X115.049 Y97.513
G1 F600 X104.948 Y87.412 E112.54848
G0 F6000 X104.948 Y86.846
G1 F600 X115.049 Y96.947 E113.0236
G0 F6000 X115.049 Y96.382
G1 F600 X104.948 Y86.281 E113.49872
G0 F6000 X104.948 Y85.715
G1 F600 X115.049 Y95.816 E113.97384
G0 F6000 X115.049 Y95.25
G1 F600 X104.948 Y85.149 E114.44896
G0 F6000 X104.948 Y84.584
G1 F600 X115.049 Y94.685 E114.92408
G0 F6000 X115.049 Y94.119
G1 F600 X104.948 Y84.018 E115.3992
G0 F6000 X104.948 Y83.452
G1 F600 X115.049 Y93.553 E115.87432
G0 F6000 X115.049 Y92.988
G1 F600 X104.948 Y82.887 E116.34944
G0 F6000 X104.948 Y82.321
G1 F600 X115.049 Y92.422 E116.82456
G0 F6000 X115.049 Y91.856
G1 F600 X104.948 Y81.755 E117.29968
G0 F6000 X104.948 Y81.19
G1 F600 X115.049 Y91.291 E117.7748
G0 F6000 X115.049 Y90.725
G1 F600 X104.948 Y80.624 E118.24992
G0 F6000 X104.948 Y80.058
G1 F600 X115.049 Y90.159 E118.72504
G0 F6000 X115.049 Y89.593
G1 F600 X104.948 Y79.492 E119.20016
G0 F6000 X104.948 Y78.927
G1 F600 X115.049 Y89.028 E119.67528
G0 F6000 X115.049 Y88.462
G1 F600 X104.948 Y78.361 E120.1504
G0 F6000 X104.948 Y77.795
G1 F600 X115.049 Y87.896 E120.62552
G0 F6000 X115.049 Y87.331
G1 F600 X104.948 Y77.23 E121.10064
G0 F6000 X104.948 Y76.664
G1 F600 X115.049 Y86.765 E121.57576
G0 F6000 X115.049 Y86.199
G1 F600 X105.135 Y76.285 E122.04208
G0 F6000 X105.418 Y76.002
G1 F600 X115.049 Y85.634 E122.49512
G0 F6000 X115.049 Y85.068
G1 F600 X105.701 Y75.719 E122.93484
G0 F6000 X105.983 Y75.436
M104 S240
G1 F600 X115.049 Y84.502 E123.36128
G0 F6000 X115.049 Y83.937
G1 F600 X106.266 Y75.154 E123.77441
G0 F6000 X106.549 Y74.871
G1 F600 X115.049 Y83.371 E124.17422
G0 F6000 X115.049 Y82.805
G1 F600 X106.832 Y74.588 E124.56072
G0 F6000 X107.115 Y74.305
G1 F600 X115.049 Y82.24 E124.93394
G0 F6000 X115.049 Y81.674
G1 F600 X107.398 Y74.022 E125.29384
G0 F6000 X107.681 Y73.739
G1 F600 X115.049 Y81.108 E125.64043
G0 F6000 X115.049 Y80.542
G1 F600 X108.123 Y73.616 E125.96621
G0 F6000 X108.689 Y73.616
G1 F600 X115.049 Y79.977 E126.26539
G0 F6000 X115.049 Y79.411
G1 F600 X109.255 Y73.616 E126.53794
G0 F6000 X109.82 Y73.616
G1 F600 X115.049 Y78.845 E126.7839
G0 F6000 X115.049 Y78.28
G1 F600 X110.386 Y73.616 E127.00326
G0 F6000 X110.952 Y73.616
G1 F600 X115.049 Y77.714 E127.19599
G0 F6000 X115.049 Y77.148
G1 F600 X111.517 Y73.616 E127.36212
G0 F6000 X112.083 Y73.616
G1 F600 X115.049 Y76.583 E127.50166
G0 F6000 X115.79 Y76.583
G1 F2700 E122.50166
;MESH:NONMESH
G0 F300 X115.79 Y76.583 Z0.4
G0 F6000 X115.426 Y178.016
G0 X112.42 Y181.267
;TIME_ELAPSED:401.856172
;LAYER:1
M140 S70
M106 S42.5
;TYPE:WALL-INNER
;MESH:bump_plate.obj
G1 F2700 E127.50166
G1 F1500 X107.58 Y181.267 E127.66264
G1 X104.4 Y178.087 E127.81222
G1 X104.4 Y76.247 E131.19943
G1 X107.58 Y73.067 E131.34901
G1 X112.42 Y73.067 E131.50999
G1 X115.6 Y76.247 E131.65956
G1 X115.6 Y178.087 E135.04677
G1 X112.42 Y181.267 E135.19635
G0 F9000 X112.586 Y181.667
G1 F1500 X107.414 Y181.667 E135.36837
G1 X104 Y178.253 E135.52896
G1 X104 Y76.081 E138.92721
G1 X107.414 Y72.667 E139.0878
G1 X112.586 Y72.667 E139.25982
G1 X116 Y76.081 E139.4204
G1 X116 Y178.253 E142.81866
G1 X112.586 Y181.667 E142.97924
G0 F9000 X112.752 Y182.067
G1 F1500 X107.248 Y182.067 E143.1623
G1 X103.6 Y178.419 E143.33389
G1 X103.6 Y75.915 E146.74319
G1 X107.248 Y72.267 E146.91478
G1 X112.752 Y72.267 E147.09785
G1 X116.4 Y75.915 E147.26944
G1 X116.4 Y178.419 E150.67873
G1 X112.752 Y182.067 E150.85032
G0 F9000 X112.918 Y182.467
;TYPE:WALL-OUTER
G1 F1500 X107.082 Y182.467 E151.04443
G1 X103.2 Y178.585 E151.22703
G1 X103.2 Y75.749 E154.64737
G1 X107.082 Y71.867 E154.82996
G1 X112.918 Y71.867 E155.02407
G1 X116.8 Y75.749 E155.20667
G1 X116.8 Y178.585 E158.62701
