;FLAVOR:Marlin
;TIME:1202
;Filament used: 1.25347m
;Layer height: 0.2
;MINX:84.335
;MINY:94.336
;MINZ:0.24
;MAXX:135.664
;MAXY:125.665
;MAXZ:5.09
;Generated with Cura_SteamEngine 4.8.0
M140 S50
M105
M190 S50
M104 S200
M105
M109 S200
M82 ;absolute extrusion mode
M201 X500.00 Y500.00 Z100.00 E5000.00 ;Setup machine max acceleration
M203 X500.00 Y500.00 Z10.00 E50.00 ;Setup machine max feedrate
M204 P500.00 R1000.00 T500.00 ;Setup Print/Retract/Travel acceleration
M205 X8.00 Y8.00 Z0.40 E5.00 ;Setup Jerk
M220 S100 ;Reset Feedrate
M221 S100 ;Reset Flowrate

G28 ;Home

G92 E0 ;Reset Extruder
G1 Z2.0 F3000 ;Move Z Axis up
G1 X10.1 Y20 Z0.28 F5000.0 ;Move to start position
G1 X10.1 Y200.0 Z0.28 F1500.0 E15 ;Draw the first line
G1 X10.4 Y200.0 Z0.28 F5000.0 ;Move to side a little
G1 X10.4 Y20 Z0.28 F1500.0 E30 ;Draw the second line
G92 E0 ;Reset Extruder
G1 Z2.0 F3000 ;Move Z Axis up

G92 E0
G92 E0
G1 F2700 E-5
;LAYER_COUNT:20
;LAYER:-6
M107
G0 F12000 X86.981 Y96.54 Z0.24
;TYPE:SUPPORT-INTERFACE
G1 F2700 E0
G1 F1800 X87.211 Y96.352 E0.02371
G1 X87.439 Y96.188 E0.04613
G1 X87.698 Y96.026 E0.07052
G1 X87.937 Y95.898 E0.09216
G1 X88.212 Y95.771 E0.11634
G1 X88.473 Y95.669 E0.13871
G1 X88.776 Y95.574 E0.16405
G1 X88.997 Y95.52 E0.18222
G1 X89.353 Y95.46 E0.21103
G1 X89.907 Y95.41 E0.25544
G1 X90.129 Y95.4 E0.27317
G1 X129.924 Y95.4 E3.44978
G1 X130.05 Y95.404 E3.45985
G1 X130.427 Y95.428 E3.49
G1 X130.725 Y95.465 E3.51397
G1 X131.009 Y95.52 E3.53706
G1 X131.3 Y95.596 E3.56107
G1 X131.558 Y95.68 E3.58273
G1 X131.837 Y95.791 E3.6067
G1 X132.095 Y95.913 E3.62948
G1 X132.353 Y96.056 E3.65303
G1 X132.592 Y96.208 E3.67564
G1 X132.839 Y96.39 E3.70013
G1 X133.04 Y96.559 E3.72109
G1 X133.273 Y96.779 E3.74667
G1 X133.46 Y96.981 E3.76864
G1 X133.648 Y97.211 E3.79235
G1 X133.812 Y97.439 E3.81477
G1 X133.974 Y97.698 E3.83916
G1 X134.102 Y97.937 E3.8608
G1 X134.229 Y98.212 E3.88498
G1 X134.331 Y98.473 E3.90735
G1 X134.426 Y98.776 E3.9327
G1 X134.48 Y98.997 E3.95086
G1 X134.54 Y99.353 E3.97968
G1 X134.59 Y99.907 E4.02408
G1 X134.6 Y100.129 E4.04182
G1 X134.6 Y119.924 E5.62194
G1 X134.596 Y120.05 E5.632
G1 X134.572 Y120.427 E5.66216
G1 X134.535 Y120.725 E5.68613
G1 X134.48 Y121.009 E5.70922
G1 X134.404 Y121.3 E5.73323
G1 X134.32 Y121.558 E5.75489
G1 X134.209 Y121.837 E5.77885
G1 X134.087 Y122.095 E5.80164
G1 X133.944 Y122.353 E5.82518
G1 X133.792 Y122.592 E5.84779
G1 X133.619 Y122.827 E5.87108
G1 X133.438 Y123.044 E5.89364
G1 X133.224 Y123.27 E5.91849
G1 X133.019 Y123.46 E5.9408
G1 X132.789 Y123.648 E5.96451
G1 X132.561 Y123.812 E5.98693
G1 X132.302 Y123.974 E6.01132
G1 X132.063 Y124.102 E6.03296
G1 X131.788 Y124.229 E6.05714
G1 X131.527 Y124.331 E6.07951
G1 X131.224 Y124.426 E6.10485
G1 X131.003 Y124.48 E6.12301
G1 X130.647 Y124.54 E6.15183
G1 X130.093 Y124.59 E6.19623
G1 X129.871 Y124.6 E6.21397
G1 X90.076 Y124.6 E9.39058
G1 X89.95 Y124.596 E9.40064
G1 X89.573 Y124.572 E9.4308
G1 X89.275 Y124.535 E9.45477
G1 X88.991 Y124.48 E9.47786
G1 X88.7 Y124.404 E9.50187
G1 X88.44 Y124.319 E9.5237
G1 X88.163 Y124.209 E9.5475
G1 X87.904 Y124.086 E9.57038
G1 X87.647 Y123.944 E9.59382
G1 X87.408 Y123.792 E9.61643
G1 X87.161 Y123.61 E9.64092
G1 X86.96 Y123.441 E9.66188
G1 X86.727 Y123.221 E9.68746
G1 X86.54 Y123.019 E9.70944
G1 X86.348 Y122.784 E9.73366
G1 X86.188 Y122.561 E9.75557
G1 X86.026 Y122.302 E9.77995
G1 X85.898 Y122.063 E9.8016
G1 X85.771 Y121.788 E9.82578
G1 X85.669 Y121.527 E9.84814
G1 X85.574 Y121.224 E9.87349
G1 X85.518 Y120.995 E9.89231
G1 X85.46 Y120.647 E9.92047
G1 X85.41 Y120.093 E9.96487
G1 X85.4 Y119.871 E9.98261
G1 X85.4 Y100.076 E11.56274
G1 X85.404 Y99.95 E11.5728
G1 X85.428 Y99.573 E11.60295
G1 X85.465 Y99.275 E11.62692
G1 X85.52 Y98.991 E11.65002
G1 X85.596 Y98.7 E11.67402
G1 X85.68 Y98.442 E11.69568
G1 X85.791 Y98.163 E11.71965
G1 X85.913 Y97.905 E11.74243
G1 X86.059 Y97.642 E11.76644
G1 X86.208 Y97.408 E11.78859
G1 X86.39 Y97.161 E11.81308
G1 X86.559 Y96.96 E11.83404
G1 X86.779 Y96.727 E11.85962
G1 X86.981 Y96.54 E11.88159
G0 F12000 X86.4 Y97.149
G1 F1800 X86.4 Y122.847 E13.93292
G0 F12000 X88 Y124.131
G1 F1800 X88 Y95.868 E16.18899
G0 F12000 X89.6 Y95.437
G1 F1800 X89.6 Y124.573 E18.51476
G0 F12000 X91.2 Y124.6
G1 F1800 X91.2 Y95.4 E20.84563
G0 F12000 X92.8 Y95.4
G1 F1800 X92.8 Y124.6 E23.1765
G0 F12000 X94.4 Y124.6
G1 F1800 X94.4 Y95.4 E25.50737
G0 F12000 X96 Y95.4
G1 F1800 X96 Y124.6 E27.83824
G0 F12000 X97.6 Y124.6
G1 F1800 X97.6 Y95.4 E30.16911
G0 F12000 X99.2 Y95.4
G1 F1800 X99.2 Y124.6 E32.49998
G0 F12000 X100.8 Y124.6
G1 F1800 X100.8 Y95.4 E34.83085
G0 F12000 X102.4 Y95.4
G1 F1800 X102.4 Y124.6 E37.16172
G0 F12000 X104 Y124.6
G1 F1800 X104 Y95.4 E39.49259
G0 F12000 X105.6 Y95.4
G1 F1800 X105.6 Y124.6 E41.82346
G0 F12000 X107.2 Y124.6
G1 F1800 X107.2 Y95.4 E44.15433
G0 F12000 X108.8 Y95.4
G1 F1800 X108.8 Y124.6 E46.4852
G0 F12000 X110.4 Y124.6
G1 F1800 X110.4 Y95.4 E48.81607
G0 F12000 X112 Y95.4
G1 F1800 X112 Y124.6 E51.14694
G0 F12000 X113.6 Y124.6
G1 F1800 X113.6 Y95.4 E53.47781
G0 F12000 X115.2 Y95.4
G1 F1800 X115.2 Y124.6 E55.80868
G0 F12000 X116.8 Y124.6
G1 F1800 X116.8 Y95.4 E58.13955
G0 F12000 X118.4 Y95.4
G1 F1800 X118.4 Y124.6 E60.47042
G0 F12000 X120 Y124.6
G1 F1800 X120 Y95.4 E62.80129
G0 F12000 X121.6 Y95.4
G1 F1800 X121.6 Y124.6 E65.13216
G0 F12000 X123.2 Y124.6
G1 F1800 X123.2 Y95.4 E67.46303
G0 F12000 X124.8 Y95.4
G1 F1800 X124.8 Y124.6 E69.7939
G0 F12000 X126.4 Y124.6
G1 F1800 X126.4 Y95.4 E72.12477
G0 F12000 X128 Y95.4
G1 F1800 X128 Y124.6 E74.45564
G0 F12000 X129.6 Y124.6
G1 F1800 X129.6 Y95.4 E76.78651
G0 F12000 X131.2 Y95.57
G1 F1800 X131.2 Y124.432 E79.0904
G0 F12000 X132.8 Y123.64
G1 F1800 X132.8 Y96.362 E81.26785
G0 F12000 X134.4 Y98.694
G1 F1800 X134.4 Y121.313 E83.0734
G1 F2700 E78.0734
G0 F300 X134.4 Y121.313 Z0.54
G0 F12000 X135.317 Y121.932
G0 X134.862 Y122.892
G0 X134.233 Y123.752
G0 X133.441 Y124.49
G0 X132.539 Y125.054
G0 X131.522 Y125.448
G0 X130.155 Y125.653
G0 X129.87 Y124.599
;TIME_ELAPSED:43.944763
;LAYER:-5
;TYPE:SUPPORT
G1 F2700 E83.0734
G1 F1800 X130.092 Y124.59 E83.09557
G1 X130.233 Y124.576 E83.1097
G1 X101.056 Y95.4 E87.22682
G1 X102.471 Y95.4 E87.36801
G1 X131.431 Y124.36 E91.45458
G1 X131.526 Y124.33 E91.46452
G1 X131.787 Y124.228 E91.49248
G1 X132.062 Y124.102 E91.52267
G1 X132.301 Y123.974 E91.54972
G1 X132.397 Y123.912 E91.56112
G1 X103.885 Y95.4 E95.58447
G1 X105.299 Y95.4 E95.72556
G1 X133.194 Y123.295 E99.66185
G1 X133.223 Y123.269 E99.66573
G1 X133.437 Y123.044 E99.69672
G1 X133.618 Y122.826 E99.72499
G1 X133.79 Y122.591 E99.75405
G1 X133.836 Y122.522 E99.76232
G1 X106.713 Y95.4 E103.5896
G1 X108.127 Y95.4 E103.73069
G1 X134.31 Y121.582 E107.42532
G1 X134.319 Y121.558 E107.42788
G1 X134.403 Y121.3 E107.45495
G1 X134.479 Y121.009 E107.48496
G1 X134.534 Y120.725 E107.51383
G1 X134.571 Y120.429 E107.54359
G1 X109.542 Y95.4 E111.07546
G1 X110.956 Y95.4 E111.21655
G1 X134.599 Y119.042 E114.55276
G1 X134.599 Y117.628 E114.69385
G1 X112.37 Y95.4 E117.83053
G1 X113.784 Y95.4 E117.97162
G1 X134.599 Y116.214 E120.90877
G1 X134.599 Y114.8 E121.04986
G1 X115.199 Y95.4 E123.78741
G1 X116.613 Y95.4 E123.9285
G1 X134.599 Y113.385 E126.46645
G1 X134.599 Y111.971 E126.60753
G1 X118.027 Y95.4 E128.94595
G1 X119.441 Y95.4 E129.08704
G1 X134.599 Y110.557 E131.22593
G1 X134.599 Y109.143 E131.36702
G1 X120.855 Y95.4 E133.30637
G1 X122.27 Y95.4 E133.44756
G1 X134.599 Y107.729 E135.18732
G1 X134.599 Y106.314 E135.32851
G1 X123.684 Y95.4 E136.86866
G1 X125.098 Y95.4 E137.00975
G1 X134.599 Y104.9 E138.35038
G1 X134.599 Y103.486 E138.49146
G1 X126.512 Y95.4 E139.63256
G1 X127.926 Y95.4 E139.77365
G1 X134.599 Y102.072 E140.71521
G1 X134.599 Y100.658 E140.8563
G1 X129.341 Y95.4 E141.59826
G1 X129.923 Y95.4 E141.65633
G1 X130.049 Y95.404 E141.66891
G1 X130.426 Y95.427 E141.7066
G1 X130.724 Y95.465 E141.73657
G1 X130.843 Y95.488 E141.74867
G1 X134.505 Y99.149 E142.26534
G0 F12000 X134.479 Y98.997
G1 F1800 X134.425 Y98.775 E142.28814
G1 X134.33 Y98.473 E142.31973
G1 X134.227 Y98.212 E142.34773
G1 X134.101 Y97.937 E142.37791
G1 X133.973 Y97.697 E142.40505
G1 X133.811 Y97.439 E142.43545
G1 X133.646 Y97.21 E142.46361
G1 X133.459 Y96.981 E142.49311
G1 X133.272 Y96.778 E142.52065
G1 X133.039 Y96.559 E142.55256
G1 X132.838 Y96.389 E142.57882
G1 X132.591 Y96.208 E142.60938
G1 X132.352 Y96.056 E142.63764
G1 X132.094 Y95.913 E142.66707
G1 X131.836 Y95.791 E142.69555
G1 X131.557 Y95.68 E142.72551
G1 X131.299 Y95.595 E142.75262
G1 X131.008 Y95.52 E142.7826
G1 X130.843 Y95.488 E142.79937
G1 F2700 E137.79937
G0 F12000 X131.044 Y94.442
G0 X132.25 Y94.81
G0 X133.194 Y95.33
G0 X134.02 Y96.02
G0 X134.697 Y96.846
G0 X135.21 Y97.798
G0 X135.524 Y98.783
G0 X135.664 Y100.097
G0 X135.632 Y120.529
G0 X135.427 Y121.596
G0 X135.028 Y122.593
G0 X134.449 Y123.494
G0 X133.715 Y124.266
G0 X132.834 Y124.896
G0 X131.876 Y125.337
G0 X130.99 Y125.546
G0 X129.917 Y125.664
G0 X129.87 Y124.599
G1 F2700 E142.79937
G1 F1800 X128.841 Y124.599 E142.90204
G1 X99.642 Y95.4 E147.02234
G1 X98.228 Y95.4 E147.16343
G1 X127.427 Y124.599 E151.28372
G1 X126.013 Y124.599 E151.42481
G1 X96.814 Y95.4 E155.54511
G1 X95.4 Y95.4 E155.6862
G1 X124.599 Y124.599 E159.80649
G1 X123.185 Y124.599 E159.94758
G1 X93.985 Y95.4 E164.06794
G1 X92.571 Y95.4 E164.20903
G1 X121.77 Y124.599 E168.32933
G1 X120.356 Y124.599 E168.47042
G1 X91.157 Y95.4 E172.59071
G1 X90.128 Y95.399 E172.69339
G1 X89.906 Y95.409 E172.71556
G1 X89.765 Y95.422 E172.72969
G1 X118.942 Y124.599 E176.84688
G1 X117.528 Y124.599 E176.98797
G1 X88.567 Y95.639 E181.07461
G1 X88.473 Y95.668 E181.08442
G1 X88.211 Y95.77 E181.11248
G1 X87.936 Y95.897 E181.1427
G1 X87.698 Y96.025 E181.16967
G1 X87.601 Y96.086 E181.1811
G1 X116.114 Y124.599 E185.20459
G1 X114.699 Y124.599 E185.34578
G1 X86.804 Y96.703 E189.28214
G1 X86.778 Y96.726 E189.2856
G1 X86.559 Y96.959 E189.31751
G1 X86.39 Y97.16 E189.34371
G1 X86.208 Y97.407 E189.37432
G1 X86.163 Y97.476 E189.38254
G1 X113.285 Y124.599 E193.20982
G1 X111.871 Y124.599 E193.35091
G1 X85.688 Y98.416 E197.04562
G1 X85.679 Y98.441 E197.04827
G1 X85.595 Y98.698 E197.07524
G1 X85.519 Y98.989 E197.10525
G1 X85.464 Y99.274 E197.13422
G1 X85.427 Y99.569 E197.16388
G1 X110.457 Y124.599 E200.69589
G1 X109.042 Y124.599 E200.83708
G1 X85.4 Y100.956 E204.17329
G1 X85.4 Y102.37 E204.31438
G1 X107.628 Y124.599 E207.45106
G1 X106.214 Y124.599 E207.59215
G1 X85.4 Y103.784 E210.5293
G1 X85.4 Y105.199 E210.67049
G1 X104.8 Y124.599 E213.40804
G1 X103.386 Y124.599 E213.54913
G1 X85.4 Y106.613 E216.08715
G1 X85.4 Y108.027 E216.22824
G1 X101.971 Y124.599 E218.56665
G1 X100.557 Y124.599 E218.70774
G1 X85.4 Y109.441 E220.84663
G1 X85.4 Y110.855 E220.98772
G1 X99.143 Y124.599 E222.92708
G1 X97.729 Y124.599 E223.06816
G1 X85.4 Y112.27 E224.80792
G1 X85.4 Y113.684 E224.94901
G1 X96.315 Y124.599 E226.48923
G1 X94.9 Y124.599 E226.63042
G1 X85.4 Y115.098 E227.97105
G1 X85.4 Y116.512 E228.11214
G1 X93.486 Y124.599 E229.25323
G1 X92.072 Y124.599 E229.39432
G1 X85.4 Y117.927 E230.33581
G1 X85.4 Y119.341 E230.4769
G1 X90.658 Y124.599 E231.21886
G1 X90.075 Y124.599 E231.27703
G1 X89.949 Y124.595 E231.28961
G1 X89.572 Y124.571 E231.3273
G1 X89.275 Y124.534 E231.35717
G1 X89.155 Y124.51 E231.36938
G1 X85.493 Y120.848 E231.88613
G0 F12000 X85.517 Y120.994
G1 F1800 X85.574 Y121.223 E231.90967
G1 X85.668 Y121.526 E231.94133
G1 X85.771 Y121.787 E231.96932
G1 X85.897 Y122.062 E231.99951
G1 X86.025 Y122.301 E232.02656
G1 X86.187 Y122.559 E232.05696
G1 X86.347 Y122.783 E232.08442
G1 X86.539 Y123.018 E232.1147
G1 X86.726 Y123.22 E232.14217
G1 X86.959 Y123.439 E232.17408
G1 X87.16 Y123.609 E232.20034
G1 X87.407 Y123.791 E232.23096
G1 X87.647 Y123.943 E232.2593
G1 X87.903 Y124.085 E232.28851
G1 X88.162 Y124.208 E232.31712
G1 X88.439 Y124.318 E232.34686
G1 X88.7 Y124.403 E232.37425
G1 X88.99 Y124.479 E232.40416
G1 X89.155 Y124.51 E232.42092
G0 F300 X89.155 Y124.51 Z0.74
G0 F12000 X88.366 Y124.506
;TIME_ELAPSED:98.452155
;LAYER:-4
;TYPE:SUPPORT-INTERFACE
G1 F2400 X88.65 Y124.598 E232.43085
G1 X88.947 Y124.676 E232.44106
G1 X89.242 Y124.733 E232.45105
G1 X89.545 Y124.771 E232.46121
G1 X89.949 Y124.796 E232.47467
G1 X90.068 Y124.8 E232.47863
G1 X129.879 Y124.799 E233.80275
G1 X130.101 Y124.789 E233.81014
G1 X130.67 Y124.738 E233.82914
G1 X131.04 Y124.675 E233.84163
G1 X131.285 Y124.616 E233.85001
G1 X131.596 Y124.518 E233.86085
G1 X131.863 Y124.415 E233.87037
G1 X131.895 Y124.4 E233.87155
G1 X88.099 Y124.4 E235.32821
G1 F2700 E230.32821
G0 F12000 X87.407 Y125.028
G0 X86.505 Y124.449
G0 X85.734 Y123.715
G0 X85.224 Y123.003
G0 X84.79 Y122.202
G0 X85.481 Y121.6
G1 F2700 E235.32821
G1 F2400 X134.516 Y121.6 E236.95912
G1 X134.506 Y121.631 E236.9602
G1 X134.4 Y121.898 E236.96976
G1 X134.351 Y122 E236.97352
G1 X85.646 Y122 E238.59346
G1 X85.715 Y122.147 E238.59886
G1 X85.848 Y122.394 E238.60819
G1 X85.851 Y122.4 E238.60841
G1 X134.146 Y122.4 E240.21471
G1 X134.122 Y122.444 E240.21638
G1 X133.96 Y122.699 E240.22642
G1 X133.885 Y122.8 E240.23061
G1 X86.112 Y122.8 E241.81954
G1 X86.191 Y122.909 E241.82402
G1 X86.386 Y123.148 E241.83428
G1 X86.434 Y123.2 E241.83663
G1 X133.565 Y123.2 E243.40422
G1 X133.376 Y123.4 E243.41337
G1 X133.16 Y123.6 E243.42316
G1 X86.837 Y123.6 E244.96387
G1 X87.034 Y123.765 E244.97242
G1 X87.295 Y123.957 E244.98319
G1 X87.362 Y124 E244.98584
G1 X132.634 Y124 E246.49159
G1 X132.395 Y124.149 E246.50096
G1 X132.147 Y124.283 E246.51034
G1 X131.895 Y124.4 E246.51958
G1 F2700 E241.51958
G0 F12000 X132.258 Y125.184
G0 X133.154 Y124.697
G0 X133.98 Y124.02
G0 X134.67 Y123.194
G0 X135.19 Y122.25
G0 X135.52 Y121.242
G0 X135.664 Y119.947
G0 X135.653 Y99.845
G0 X135.448 Y98.478
G0 X134.519 Y98.403
G1 F2700 E246.51958
G1 F2400 X134.617 Y98.715 E246.53046
G1 X134.638 Y98.8 E246.53337
G1 X85.363 Y98.8 E248.17226
G1 X85.325 Y98.942 E248.17715
G1 X85.276 Y99.2 E248.18588
G1 X134.718 Y99.2 E249.83033
G1 X134.739 Y99.328 E249.83465
G1 X134.764 Y99.6 E249.84373
G1 X85.226 Y99.6 E251.49137
G1 X85.204 Y99.95 E251.50304
G1 X85.203 Y100 E251.5047
G1 X134.795 Y100 E253.15414
G1 X134.8 Y100.11 E253.1578
G1 X134.8 Y100.4 E253.16744
G1 X85.2 Y100.4 E254.81715
G1 X85.2 Y100.8 E254.83045
G1 X134.8 Y100.8 E256.48015
G1 X134.8 Y101.2 E256.49346
G1 X85.2 Y101.2 E258.14316
G1 X85.2 Y101.6 E258.15646
G1 X134.8 Y101.6 E259.80617
G1 X134.8 Y102 E259.81947
G1 X85.2 Y102 E261.46917
G1 X85.2 Y102.4 E261.48248
G1 X134.8 Y102.4 E263.13218
G1 X134.8 Y102.8 E263.14548
G1 X85.2 Y102.8 E264.79519
G1 X85.2 Y103.2 E264.80849
G1 X134.8 Y103.2 E266.45819
G1 X134.8 Y103.6 E266.4715
G1 X85.2 Y103.6 E268.1212
G1 X85.2 Y104 E268.1345
G1 X134.8 Y104 E269.78421
G1 X134.8 Y104.4 E269.79751
G1 X85.2 Y104.4 E271.44721
G1 X85.2 Y104.8 E271.46052
G1 X134.8 Y104.8 E273.11022
G1 X134.8 Y105.2 E273.12352
G1 X85.2 Y105.2 E274.77323
G1 X85.2 Y105.6 E274.78653
G1 X134.8 Y105.6 E276.43623
G1 X134.8 Y106 E276.44954
G1 X85.2 Y106 E278.09924
G1 X85.2 Y106.4 E278.11254
G1 X134.8 Y106.4 E279.76225
G1 X134.8 Y106.8 E279.77555
G1 X85.2 Y106.8 E281.42525
G1 X85.2 Y107.2 E281.43856
G1 X134.8 Y107.2 E283.08826
G1 X134.8 Y107.6 E283.10157
G1 X85.2 Y107.6 E284.75127
G1 X85.2 Y108 E284.76457
G1 X134.8 Y108 E286.41427
G1 X134.8 Y108.4 E286.42758
G1 X85.2 Y108.4 E288.07728
G1 X85.2 Y108.8 E288.09059
G1 X134.8 Y108.8 E289.74029
G1 X134.8 Y109.2 E289.75359
G1 X85.2 Y109.2 E291.40329
G1 X85.2 Y109.6 E291.4166
G1 X134.8 Y109.6 E293.0663
G1 X134.8 Y110 E293.07961
G1 X85.2 Y110 E294.72931
G1 X85.2 Y110.4 E294.74261
G1 X134.8 Y110.4 E296.39232
G1 X134.8 Y110.8 E296.40562
G1 X85.2 Y110.8 E298.05532
G1 X85.2 Y111.2 E298.06863
G1 X134.8 Y111.2 E299.71833
G1 X134.8 Y111.6 E299.73163
G1 X85.2 Y111.6 E301.38134
G1 X85.2 Y112 E301.39464
G1 X134.8 Y112 E303.04434
G1 X134.8 Y112.4 E303.05765
G1 X85.2 Y112.4 E304.70735
G1 X85.2 Y112.8 E304.72065
G1 X134.8 Y112.8 E306.37036
G1 X134.8 Y113.2 E306.38366
G1 X85.2 Y113.2 E308.03336
G1 X85.2 Y113.6 E308.04667
G1 X134.8 Y113.6 E309.69637
G1 X134.8 Y114 E309.70967
G1 X85.2 Y114 E311.35938
G1 X85.2 Y114.4 E311.37268
G1 X134.8 Y114.4 E313.02238
G1 X134.8 Y114.8 E313.03569
G1 X85.2 Y114.8 E314.68539
G1 X85.2 Y115.2 E314.69869
