;FLAVOR:Marlin
;TIME:2176
;Filament used: 1.23041m
;Layer height: 0.2
;MINX:94.2
;MINY:97.2
;MINZ:0.2
;MAXX:125.8
;MAXY:130.8
;MAXZ:25
;Generated with Cura_SteamEngine 4.12.1
M140 S55
M105
M190 S55
M104 S205
M105
M109 S205
M82 ;absolute extrusion mode
M201 X500.00 Y500.00 Z100.00 E5000.00 ;Setup machine max acceleration
M203 X500.00 Y500.00 Z10.00 E50.00 ;Setup machine max feedrate
M204 P500.00 R1000.00 T500.00 ;Setup Print/Retract/Travel acceleration
M205 X8.00 Y8.00 Z0.40 E5.00 ;Setup Jerk
M220 S100 ;Reset Feedrate
M221 S100 ;Reset Flowrate

G28 ;Home

G92 E0 ;Reset Extruder
G1 Z2.0 F3000 ;Move Z Axis up
G1 X10.1 Y20 Z0.28 F5000.0 ;Move to start position
G1 X10.1 Y200.0 Z0.28 F1500.0 E15 ;Draw the first line
G1 X10.4 Y200.0 Z0.28 F5000.0 ;Move to side a little
G1 X10.4 Y20 Z0.28 F1500.0 E30 ;Draw the second line
G92 E0 ;Reset Extruder
G1 Z2.0 F3000 ;Move Z Axis up

G92 E0
G92 E0
G1 F2700 E-5
;LAYER_COUNT:125
;LAYER:0
M107
;MESH:motor_cover.obj
G0 F6000 X107.993 Y124.6 Z0.2
;TYPE:WALL-INNER
G1 F2700 E0
G1 F600 X105.39 Y103.4 E0.71041
G1 X124.6 Y103.4 E1.34934
G1 X124.6 Y124.6 E2.05445
G1 X107.993 Y124.6 E2.6068
G0 F6000 X107.639 Y125
G1 F600 X104.938 Y103 E3.34402
G1 X125 Y103 E4.01128
G1 X125 Y125 E4.74301
G1 X107.639 Y125 E5.32044
G0 F6000 X107.285 Y125.4
G1 F600 X104.486 Y102.6 E6.08446
G1 X125.4 Y102.6 E6.78006
G1 X125.4 Y125.4 E7.53839
G1 X107.285 Y125.4 E8.1409
G0 F6000 X106.931 Y125.8
;TYPE:WALL-OUTER
G1 F600 X104.034 Y102.2 E8.93173
G1 X125.8 Y102.2 E9.65567
G1 X125.8 Y125.8 E10.44061
G1 X106.931 Y125.8 E11.0682
G0 F6000 X107.174 Y125.526
G0 X108.339 Y124.49
G0 X108.339 Y124.21
;TYPE:SKIN
G1 F600 X105.832 Y103.79 E11.75247
G1 X124.21 Y103.79 E12.36372
G1 X124.21 Y124.21 E13.0429
G1 X108.339 Y124.21 E13.57077
G0 F6000 X108.775 Y124.049
G1 F600 X108.439 Y123.713 E13.58657
G0 F6000 X108.36 Y123.068
G1 F600 X109.341 Y124.049 E13.63272
G0 F6000 X109.907 Y124.049
G1 F600 X108.281 Y122.423 E13.7092
G0 F6000 X108.202 Y121.778
G1 F600 X110.472 Y124.049 E13.81599
G0 F6000 X111.038 Y124.049
G1 F600 X108.122 Y121.133 E13.95315
G0 F6000 X108.043 Y120.488
G1 F600 X111.604 Y124.049 E14.12065
G0 F6000 X112.169 Y124.049
G1 F600 X107.964 Y119.843 E14.31847
G0 F6000 X107.885 Y119.199
G1 F600 X112.735 Y124.049 E14.5466
G0 F6000 X113.301 Y124.049
G1 F600 X107.806 Y118.554 E14.80506
G0 F6000 X107.727 Y117.909
G1 F600 X113.866 Y124.049 E15.09385
G0 F6000 X114.432 Y124.049
G1 F600 X107.647 Y117.264 E15.41299
G0 F6000 X107.568 Y116.619
G1 F600 X114.998 Y124.049 E15.76248
G0 F6000 X115.563 Y124.049
G1 F600 X107.489 Y115.974 E16.14228
G0 F6000 X107.41 Y115.329
G1 F600 X116.129 Y124.049 E16.55242
G0 F6000 X116.695 Y124.049
G1 F600 X107.331 Y114.684 E16.99289
G0 F6000 X107.251 Y114.04
G1 F600 X117.26 Y124.049 E17.46369
G0 F6000 X117.826 Y124.049
G1 F600 X107.172 Y113.395 E17.96482
G0 F6000 X107.093 Y112.75
G1 F600 X118.392 Y124.049 E18.49629
G0 F6000 X118.957 Y124.049
G1 F600 X107.014 Y112.105 E19.05807
G0 F6000 X106.935 Y111.46
G1 F600 X119.523 Y124.049 E19.6502
G0 F6000 X120.089 Y124.049
G1 F600 X106.855 Y110.815 E20.27268
G0 F6000 X106.776 Y110.17
G1 F600 X120.655 Y124.049 E20.92551
G0 F6000 X121.22 Y124.049
G1 F600 X106.697 Y109.525 E21.60865
G0 F6000 X106.618 Y108.881
G1 F600 X121.786 Y124.049 E22.32211
G0 F6000 X122.352 Y124.049
G1 F600 X106.539 Y108.236 E23.0659
G0 F6000 X106.459 Y107.591
G1 F600 X122.917 Y124.049 E23.84004
G0 F6000 X123.483 Y124.049
G1 F600 X106.38 Y106.946 E24.64451
G0 F6000 X106.301 Y106.301
G1 F600 X124.049 Y124.049 E25.47932
G0 F6000 X124.049 Y123.484
G1 F600 X106.222 Y105.656 E26.31787
G0 F6000 X106.143 Y105.011
G1 F600 X124.049 Y122.918 E27.16014
G0 F6000 X124.049 Y122.352
G1 F600 X106.063 Y104.366 E28.00614
G0 F6000 X106.213 Y103.95
G1 F600 X124.049 Y121.787 E28.84512
G0 F6000 X124.049 Y121.221
G1 F600 X106.778 Y103.95 E29.65749
G0 F6000 X107.344 Y103.95
G1 F600 X124.049 Y120.655 E30.44325
G0 F6000 X124.049 Y120.09
G1 F600 X107.91 Y103.95 E31.2024
G0 F6000 X108.475 Y103.95
G1 F600 X124.049 Y119.524 E31.93495
G0 F6000 X124.049 Y118.958
G1 F600 X109.041 Y103.95 E32.64088
G0 F6000 X109.607 Y103.95
G1 F600 X124.049 Y118.393 E33.32021
G0 F6000 X124.049 Y117.827
G1 F600 X110.172 Y103.95 E33.97294
G0 F6000 X110.738 Y103.95
G1 F600 X124.049 Y117.261 E34.59905
G0 F6000 X124.049 Y116.695
G1 F600 X111.304 Y103.95 E35.19854
G0 F6000 X111.869 Y103.95
G1 F600 X124.049 Y116.13 E35.77145
G0 F6000 X124.049 Y115.564
G1 F600 X112.435 Y103.95 E36.31773
G0 F6000 X113.001 Y103.95
G1 F600 X124.049 Y114.998 E36.8374
G0 F6000 X124.049 Y114.433
G1 F600 X113.567 Y103.95 E37.33046
G0 F6000 X114.132 Y103.95
G1 F600 X124.049 Y113.867 E37.79693
G0 F6000 X124.049 Y113.301
G1 F600 X114.698 Y103.95 E38.23677
G0 F6000 X115.264 Y103.95
G1 F600 X124.049 Y112.736 E38.65001
G0 F6000 X124.049 Y112.17
G1 F600 X115.829 Y103.95 E39.03666
G0 F6000 X116.395 Y103.95
G1 F600 X124.049 Y111.604 E39.39668
G0 F6000 X124.049 Y111.039
G1 F600 X116.961 Y103.95 E39.7301
G0 F6000 X117.526 Y103.95
G1 F600 X124.049 Y110.473 E40.03692
G0 F6000 X124.049 Y109.907
G1 F600 X118.092 Y103.95 E40.31712
G0 F6000 X118.658 Y103.95
G1 F600 X124.049 Y109.342 E40.57072
G0 F6000 X124.049 Y108.776
G1 F600 X119.223 Y103.95 E40.79772
G0 F6000 X119.789 Y103.95
G1 F600 X124.049 Y108.21 E40.9981
G0 F6000 X124.049 Y107.644
G1 F600 X120.355 Y103.95 E41.17185
G0 F6000 X120.92 Y103.95
G1 F600 X124.049 Y107.079 E41.31903
G0 F6000 X124.049 Y106.513
G1 F600 X121.486 Y103.95 E41.43959
G0 F6000 X122.052 Y103.95
G1 F600 X124.049 Y105.947 E41.53352
G0 F6000 X124.049 Y105.382
G1 F600 X122.617 Y103.95 E41.60088
G0 F6000 X123.183 Y103.95
G1 F600 X124.049 Y104.816 E41.64161
G0 F6000 X124.049 Y104.25
G1 F600 X123.749 Y103.95 E41.65572
G0 F6000 X123.749 Y103.21
G1 F2700 E36.65572
G0 F6000 X105.598 Y103.584
G0 X106.239 Y108.819
G0 X106.824 Y123.285
G0 X105.768 Y123.414
G0 X98.153 Y124.349
G0 X97.096 Y124.479
G0 X96.104 Y124.6
;TYPE:WALL-INNER
G1 F2700 E41.65572
G1 F600 X95.4 Y124.6 E41.67914
G1 X95.4 Y122.128 E41.76136
G1 X95.4 Y118.867 E41.86982
M104 S240
G1 X95.797 Y122.103 E41.92413
G1 X96.104 Y124.6 E42.0078
G0 F6000 X96.556 Y125
G1 F600 X95 Y125 E42.05956
G1 X95 Y115.588 E42.3726
G1 X95 Y112.326 E42.48109
G1 X95.397 Y115.563 E42.53542
G1 X96.556 Y125 E42.85165
G0 F6000 X97.008 Y125.4
G1 F600 X94.6 Y125.4 E42.93175
G1 X94.6 Y109.047 E43.47565
G1 X94.6 Y105.785 E43.58414
G1 X94.997 Y109.022 E43.63847
G1 X97.008 Y125.4 E44.18729
G0 F6000 X97.46 Y125.8
;TYPE:WALL-OUTER
G1 F600 X94.2 Y125.8 E44.29572
G1 X94.2 Y102.2 E45.08066
G1 X94.563 Y102.2 E45.09274
G1 X97.46 Y125.8 E45.88357
G0 F6000 X97.16 Y125.534
G0 X95.941 Y124.167
G0 X95.889 Y124.173
;TYPE:SKIN
G1 F600 X95.559 Y123.844 E45.89907
G0 F6000 X95.81 Y123.529
G1 F600 X95.559 Y123.278 E45.91087
G0 F6000 X95.731 Y122.884
G1 F600 X95.559 Y122.712 E45.91896
G0 F6000 X95.652 Y122.239
G1 F600 X95.559 Y122.147 E45.92331
G0 F6000 X95.24 Y118.716
G0 X95.207 Y118.683
;TYPE:SKIN
G1 F600 X95.34 Y118.533 E45.92765
G1 X95.338 Y117.683 E45.94603
G1 X95.219 Y115.866 E45.9854
G0 F6000 X95.174 Y115.821
G0 X94.917 Y112.17
G0 X94.845 Y112.099
G1 F600 X94.978 Y111.949 E45.99019
G1 X94.833 Y109.541 E46.04782
G0 F6000 X94.774 Y109.482
G0 X94.593 Y105.624
G0 X94.483 Y105.514
G1 F600 X94.586 Y105.334 E46.05339
G1 X94.447 Y103.215 E46.11039
G0 F6000 X94.481 Y102.966
G1 F600 X94.374 Y102.859 E46.11291
G1 F2700 E41.11291
;MESH:NONMESH
G0 F300 X94.374 Y102.859 Z0.4
G0 F6000 X94.5 Y103.338
G0 X97.22 Y125.587
G0 X98.289 Y125.456
G0 X105.904 Y124.521
G0 X106.96 Y124.392
G0 X107.993 Y124.6
;TIME_ELAPSED:151.292847
;LAYER:1
M140 S70
M106 S42.5
;TYPE:WALL-INNER
;MESH:motor_cover.obj
G1 F2700 E46.11291
G1 F1500 X105.39 Y103.4 E46.82332
G1 X124.6 Y103.4 E47.46225
G1 X124.6 Y124.6 E48.16736
G1 X107.993 Y124.6 E48.71971
G0 F9000 X107.639 Y125
G1 F1500 X104.938 Y103 E49.45693
G1 X125 Y103 E50.12419
G1 X125 Y125 E50.85592
G1 X107.639 Y125 E51.43335
G0 F9000 X107.285 Y125.4
G1 F1500 X104.486 Y102.6 E52.19737
G1 X125.4 Y102.6 E52.89297
G1 X125.4 Y125.4 E53.6513
G1 X107.285 Y125.4 E54.25381
G0 F9000 X106.931 Y125.8
;TYPE:WALL-OUTER
G1 F1500 X104.034 Y102.2 E55.04464
G1 X125.8 Y102.2 E55.76858
G1 X125.8 Y125.8 E56.55352
G1 X106.931 Y125.8 E57.18111
G0 F9000 X107.174 Y125.526
G0 X108.339 Y124.49
G0 X108.339 Y124.21
;TYPE:SKIN
G1 F1500 X105.832 Y103.79 E57.86538
G1 X124.21 Y103.79 E58.47663
G1 X124.21 Y124.21 E59.1558
G1 X108.339 Y124.21 E59.68368
G0 F9000 X108.339 Y124.49
G0 X124.418 Y124.418
G0 X124.49 Y123.721
G0 X124.049 Y123.721
G1 F1500 X123.72 Y124.049 E59.69913
G0 F9000 X123.154 Y124.049
G1 F1500 X124.049 Y123.155 E59.7412
G0 F9000 X124.049 Y122.589
G1 F1500 X122.588 Y124.049 E59.8099
G0 F9000 X122.023 Y124.049
G1 F1500 X124.049 Y122.024 E59.90517
G0 F9000 X124.049 Y121.458
G1 F1500 X121.457 Y124.049 E60.02707
G0 F9000 X120.891 Y124.049
G1 F1500 X124.049 Y120.892 E60.17559
G0 F9000 X124.049 Y120.326
G1 F1500 X120.326 Y124.049 E60.35071
G0 F9000 X119.76 Y124.049
G1 F1500 X124.049 Y119.761 E60.55242
G0 F9000 X124.049 Y119.195
G1 F1500 X119.194 Y124.049 E60.78077
G0 F9000 X118.629 Y124.049
G1 F1500 X124.049 Y118.629 E61.03571
G0 F9000 X124.049 Y118.064
G1 F1500 X118.063 Y124.049 E61.31725
G0 F9000 X117.497 Y124.049
G1 F1500 X124.049 Y117.498 E61.62541
G0 F9000 X124.049 Y116.932
G1 F1500 X116.932 Y124.049 E61.96017
G0 F9000 X116.366 Y124.049
G1 F1500 X124.049 Y116.367 E62.32153
G0 F9000 X124.049 Y115.801
G1 F1500 X115.8 Y124.049 E62.70951
G0 F9000 X115.235 Y124.049
G1 F1500 X124.049 Y115.235 E63.1241
G0 F9000 X124.049 Y114.67
G1 F1500 X114.669 Y124.049 E63.56528
G0 F9000 X114.103 Y124.049
G1 F1500 X124.049 Y114.104 E64.03309
G0 F9000 X124.049 Y113.538
G1 F1500 X113.538 Y124.049 E64.52749
G0 F9000 X112.972 Y124.049
G1 F1500 X124.049 Y112.973 E65.0485
G0 F9000 X124.049 Y112.407
G1 F1500 X112.406 Y124.049 E65.59612
G0 F9000 X111.84 Y124.049
G1 F1500 X124.049 Y111.841 E66.17037
G0 F9000 X124.049 Y111.275
G1 F1500 X111.275 Y124.049 E66.77122
G0 F9000 X110.709 Y124.049
G1 F1500 X124.049 Y110.71 E67.39867
G0 F9000 X124.049 Y110.144
G1 F1500 X110.143 Y124.049 E68.05275
G0 F9000 X109.578 Y124.049
G1 F1500 X124.049 Y109.578 E68.73342
G0 F9000 X124.049 Y109.013
G1 F1500 X109.012 Y124.049 E69.44069
G0 F9000 X108.477 Y124.018
G1 F1500 X124.049 Y108.447 E70.17312
G0 F9000 X124.049 Y107.881
G1 F1500 X108.416 Y123.514 E70.90845
G0 F9000 X108.354 Y123.011
G1 F1500 X124.049 Y107.316 E71.6467
G0 F9000 X124.049 Y106.75
G1 F1500 X108.292 Y122.506 E72.38783
G0 F9000 X108.23 Y122.003
G1 F1500 X124.049 Y106.184 E73.13191
G0 F9000 X124.049 Y105.619
G1 F1500 X108.168 Y121.499 E73.87888
G0 F9000 X108.106 Y120.995
G1 F1500 X124.049 Y105.053 E74.62877
G0 F9000 X124.049 Y104.487
G1 F1500 X108.045 Y120.491 E75.38155
G0 F9000 X107.982 Y119.988
G1 F1500 X124.021 Y103.949 E76.13597
G0 F9000 X123.455 Y103.949
G1 F1500 X107.921 Y119.484 E76.86667
G0 F9000 X107.859 Y118.98
G1 F1500 X122.89 Y103.949 E77.57368
G0 F9000 X122.324 Y103.949
G1 F1500 X107.797 Y118.476 E78.25699
G0 F9000 X107.735 Y117.972
G1 F1500 X121.758 Y103.949 E78.91658
G0 F9000 X121.193 Y103.949
G1 F1500 X107.673 Y117.468 E79.5525
G0 F9000 X107.611 Y116.965
G1 F1500 X120.627 Y103.949 E80.16473
G0 F9000 X120.061 Y103.949
G1 F1500 X107.55 Y116.461 E80.75324
G0 F9000 X107.488 Y115.957
G1 F1500 X119.496 Y103.949 E81.31806
G0 F9000 X118.93 Y103.949
G1 F1500 X107.426 Y115.453 E81.85917
G0 F9000 X107.364 Y114.95
G1 F1500 X118.364 Y103.949 E82.3766
G0 F9000 X117.799 Y103.949
G1 F1500 X107.302 Y114.445 E82.87032
G0 F9000 X107.24 Y113.942
G1 F1500 X117.233 Y103.949 E83.34036
G0 F9000 X116.667 Y103.949
G1 F1500 X107.179 Y113.438 E83.78667
G0 F9000 X107.116 Y112.934
G1 F1500 X116.101 Y103.949 E84.2093
G0 F9000 X115.536 Y103.949
G1 F1500 X107.055 Y112.43 E84.60822
G0 F9000 X106.993 Y111.927
G1 F1500 X114.97 Y103.949 E84.98346
G0 F9000 X114.404 Y103.949
G1 F1500 X106.931 Y111.423 E85.33499
G0 F9000 X106.869 Y110.919
G1 F1500 X113.839 Y103.949 E85.66283
G0 F9000 X113.273 Y103.949
G1 F1500 X106.807 Y110.415 E85.96697
G0 F9000 X106.745 Y109.911
G1 F1500 X112.707 Y103.949 E86.24741
G0 F9000 X112.142 Y103.949
G1 F1500 X106.684 Y109.407 E86.50414
G0 F9000 X106.621 Y108.904
G1 F1500 X111.576 Y103.949 E86.7372
G0 F9000 X111.01 Y103.949
G1 F1500 X106.56 Y108.4 E86.94654
G0 F9000 X106.498 Y107.896
G1 F1500 X110.445 Y103.949 E87.1322
G0 F9000 X109.879 Y103.949
G1 F1500 X106.436 Y107.392 E87.29414
G0 F9000 X106.374 Y106.889
G1 F1500 X109.313 Y103.949 E87.43241
G0 F9000 X108.748 Y103.949
G1 F1500 X106.312 Y106.384 E87.54697
G0 F9000 X106.25 Y105.881
G1 F1500 X108.182 Y103.949 E87.63784
G0 F9000 X107.616 Y103.949
G1 F1500 X106.189 Y105.377 E87.70499
G0 F9000 X106.126 Y104.873
G1 F1500 X107.051 Y103.949 E87.74847
G0 F9000 X106.485 Y103.949
G1 F1500 X106.065 Y104.369 E87.76823
G0 F9000 X105.328 Y104.458
G1 F2700 E82.76823
G0 F9000 X106.824 Y123.285
G0 X105.768 Y123.414
G0 X98.153 Y124.349
G0 X97.096 Y124.479
G0 X96.104 Y124.6
;TYPE:WALL-INNER
G1 F2700 E87.76823
G1 F1500 X95.4 Y124.6 E87.79165
G1 X95.4 Y122.128 E87.87386
G1 X95.4 Y118.867 E87.98233
G1 X95.797 Y122.103 E88.03664
G1 X96.104 Y124.6 E88.12031
G0 F9000 X96.556 Y125
G1 F1500 X95 Y125 E88.17206
G1 X95 Y115.588 E88.48511
G1 X95 Y112.326 E88.5936
G1 X95.397 Y115.563 E88.64793
G1 X96.556 Y125 E88.96416
G0 F9000 X97.008 Y125.4
G1 F1500 X94.6 Y125.4 E89.04425
G1 X94.6 Y109.047 E89.58816
G1 X94.6 Y105.785 E89.69665
G1 X94.997 Y109.022 E89.75098
G1 X97.008 Y125.4 E90.2998
G0 F9000 X97.46 Y125.8
;TYPE:WALL-OUTER
G1 F1500 X94.2 Y125.8 E90.40823
G1 X94.2 Y102.2 E91.19317
G1 X94.563 Y102.2 E91.20524
G1 X97.46 Y125.8 E91.99607
G0 F9000 X97.16 Y125.534
G0 X95.939 Y124.157
G0 X95.887 Y124.163
;TYPE:SKIN
G1 F1500 X95.612 Y124.439 E92.00903
G0 F9000 X95.559 Y123.926
G1 F1500 X95.825 Y123.66 E92.02155
G0 F9000 X95.559 Y123.36
G1 F1500 X95.764 Y123.156 E92.03116
G0 F9000 X95.559 Y122.794
G1 F1500 X95.702 Y122.651 E92.03789
G0 F9000 X95.559 Y122.229
G1 F1500 X95.64 Y122.148 E92.0417
G0 F9000 X95.405 Y118.706
G0 X95.495 Y118.616
;TYPE:SKIN
G1 F1500 X95.364 Y118.463 E92.04651
G1 X95.225 Y116.057 E92.10401
G0 F9000 X95.275 Y116.007
G0 X95.168 Y112.154
G0 X95.184 Y112.138
G1 F1500 X95.018 Y112.021 E92.10837
G1 X94.91 Y110.998 E92.13042
G1 X94.817 Y109.393 E92.16488
G0 F9000 X94.861 Y109.35
G0 X94.63 Y105.621
G0 X94.708 Y105.542
G1 F1500 X94.565 Y105.403 E92.16959
G1 X94.426 Y102.996 E92.22657
G0 F9000 X94.375 Y102.765
G1 F1500 X94.427 Y102.714 E92.22778
G1 F2700 E87.22778
;MESH:NONMESH
G0 F300 X94.427 Y102.714 Z0.6
G0 F9000 X94.5 Y103.338
G0 X97.22 Y125.587
G0 X98.289 Y125.456
G0 X105.904 Y124.521
G0 X106.96 Y124.392
G0 X107.993 Y124.6
;TIME_ELAPSED:217.252295
;LAYER:2
M106 S85
;TYPE:WALL-INNER
;MESH:motor_cover.obj
G1 F2700 E92.22778
G1 F2400 X105.39 Y103.4 E92.93819
G1 X124.6 Y103.4 E93.57712
G1 X124.6 Y124.6 E94.28223
G1 X107.993 Y124.6 E94.83459
G0 F12000 X107.639 Y125
G1 F2400 X104.938 Y103 E95.5718
G1 X125 Y103 E96.23907
G1 X125 Y125 E96.97079
G1 X107.639 Y125 E97.54822
G0 F12000 X107.285 Y125.4
G1 F2400 X104.486 Y102.6 E98.31224
G1 X125.4 Y102.6 E99.00785
G1 X125.4 Y125.4 E99.76618
G1 X107.285 Y125.4 E100.36868
G0 F12000 X106.931 Y125.8
;TYPE:WALL-OUTER
G1 F2400 X104.034 Y102.2 E101.15952
G1 X125.8 Y102.2 E101.88346
G1 X125.8 Y125.8 E102.66839
G1 X106.931 Y125.8 E103.29598
G0 F12000 X107.174 Y125.526
G0 X108.339 Y124.49
G0 X108.339 Y124.21
;TYPE:SKIN
G1 F2400 X105.832 Y103.79 E103.98025
G1 X124.21 Y103.79 E104.59151
G1 X124.21 Y124.21 E105.27068
G1 X108.339 Y124.21 E105.79855
G0 F12000 X108.775 Y124.049
G1 F2400 X108.439 Y123.713 E105.81435
G0 F12000 X108.36 Y123.068
G1 F2400 X109.341 Y124.049 E105.8605
G0 F12000 X109.907 Y124.049
G1 F2400 X108.281 Y122.423 E105.93698
G0 F12000 X108.202 Y121.778
G1 F2400 X110.472 Y124.049 E106.04378
G0 F12000 X111.038 Y124.049
G1 F2400 X108.122 Y121.133 E106.18094
G0 F12000 X108.043 Y120.488
G1 F2400 X111.604 Y124.049 E106.34844
G0 F12000 X112.169 Y124.049
G1 F2400 X107.964 Y119.843 E106.54625
G0 F12000 X107.885 Y119.199
G1 F2400 X112.735 Y124.049 E106.77438
G0 F12000 X113.301 Y124.049
G1 F2400 X107.806 Y118.554 E107.03285
G0 F12000 X107.727 Y117.909
