;FLAVOR:Marlin
;TIME:716
;Filament used: 0.701097m
;Layer height: 0.2
;MINX:89.336
;MINY:94.336
;MINZ:0.24
;MAXX:130.664
;MAXY:125.665
;MAXZ:4.09
;Generated with Cura_SteamEngine 4.12.0
M140 S50
M105
M190 S50
M104 S200
M105
M109 S200
M82 ;absolute extrusion mode
M201 X500.00 Y500.00 Z100.00 E5000.00 ;Setup machine max acceleration
M203 X500.00 Y500.00 Z10.00 E50.00 ;Setup machine max feedrate
M204 P500.00 R1000.00 T500.00 ;Setup Print/Retract/Travel acceleration
M205 X8.00 Y8.00 Z0.40 E5.00 ;Setup Jerk
M220 S100 ;Reset Feedrate
M221 S100 ;Reset Flowrate

G28 ;Home

G92 E0 ;Reset Extruder
G1 Z2.0 F3000 ;Move Z Axis up
G1 X10.1 Y20 Z0.28 F5000.0 ;Move to start position
G1 X10.1 Y200.0 Z0.28 F1500.0 E15 ;Draw the first line
G1 X10.4 Y200.0 Z0.28 F5000.0 ;Move to side a little
G1 X10.4 Y20 Z0.28 F1500.0 E30 ;Draw the second line
G92 E0 ;Reset Extruder
G1 Z2.0 F3000 ;Move Z Axis up

G92 E0
G92 E0
G1 F2700 E-5
;LAYER_COUNT:15
;LAYER:-6
M107
G0 F12000 X91.779 Y96.727 Z0.24
;TYPE:SUPPORT-INTERFACE
G1 F2700 E0
G1 F1800 X91.981 Y96.54 E0.02197
G1 X92.211 Y96.352 E0.04569
G1 X92.439 Y96.188 E0.0681
G1 X92.698 Y96.026 E0.09249
G1 X92.937 Y95.898 E0.11413
G1 X93.212 Y95.771 E0.13831
G1 X93.473 Y95.669 E0.16068
G1 X93.776 Y95.574 E0.18603
G1 X93.997 Y95.52 E0.20419
G1 X94.353 Y95.46 E0.23301
G1 X94.907 Y95.41 E0.27741
G1 X95.129 Y95.4 E0.29515
G1 X124.924 Y95.4 E2.67351
G1 X125.05 Y95.404 E2.68358
G1 X125.427 Y95.428 E2.71373
G1 X125.725 Y95.465 E2.7377
G1 X126.009 Y95.52 E2.76079
G1 X126.3 Y95.596 E2.7848
G1 X126.558 Y95.68 E2.80646
G1 X126.837 Y95.791 E2.83043
G1 X127.095 Y95.913 E2.85321
G1 X127.353 Y96.056 E2.87676
G1 X127.592 Y96.208 E2.89937
G1 X127.839 Y96.39 E2.92386
G1 X128.04 Y96.559 E2.94482
G1 X128.273 Y96.779 E2.9704
G1 X128.46 Y96.981 E2.99237
G1 X128.648 Y97.211 E3.01608
G1 X128.812 Y97.439 E3.0385
G1 X128.974 Y97.698 E3.06289
G1 X129.102 Y97.937 E3.08453
G1 X129.229 Y98.212 E3.10871
G1 X129.331 Y98.473 E3.13108
G1 X129.426 Y98.776 E3.15643
G1 X129.48 Y98.997 E3.17459
G1 X129.54 Y99.353 E3.20341
G1 X129.59 Y99.907 E3.24781
G1 X129.6 Y100.129 E3.26555
G1 X129.6 Y119.924 E4.84567
G1 X129.596 Y120.05 E4.85573
G1 X129.572 Y120.427 E4.88589
G1 X129.535 Y120.725 E4.90986
G1 X129.48 Y121.009 E4.93295
G1 X129.404 Y121.3 E4.95696
G1 X129.32 Y121.558 E4.97862
G1 X129.209 Y121.837 E5.00258
G1 X129.087 Y122.095 E5.02537
G1 X128.944 Y122.353 E5.04891
G1 X128.792 Y122.592 E5.07152
G1 X128.619 Y122.827 E5.09481
G1 X128.438 Y123.044 E5.11737
G1 X128.224 Y123.27 E5.14222
G1 X128.019 Y123.46 E5.16453
G1 X127.789 Y123.648 E5.18824
G1 X127.561 Y123.812 E5.21066
G1 X127.302 Y123.974 E5.23505
G1 X127.063 Y124.102 E5.25669
G1 X126.788 Y124.229 E5.28087
G1 X126.527 Y124.331 E5.30323
G1 X126.224 Y124.426 E5.32858
G1 X126.003 Y124.48 E5.34674
G1 X125.647 Y124.54 E5.37556
G1 X125.093 Y124.59 E5.41996
G1 X124.871 Y124.6 E5.4377
G1 X95.076 Y124.6 E7.81607
G1 X94.95 Y124.596 E7.82613
G1 X94.573 Y124.572 E7.85629
G1 X94.275 Y124.535 E7.88026
G1 X93.991 Y124.48 E7.90335
G1 X93.7 Y124.404 E7.92736
G1 X93.44 Y124.319 E7.94919
G1 X93.163 Y124.209 E7.97298
G1 X92.904 Y124.086 E7.99587
G1 X92.647 Y123.944 E8.01931
G1 X92.408 Y123.792 E8.04192
G1 X92.161 Y123.61 E8.06641
G1 X91.96 Y123.441 E8.08737
G1 X91.727 Y123.221 E8.11295
G1 X91.54 Y123.019 E8.13492
G1 X91.348 Y122.784 E8.15915
G1 X91.188 Y122.561 E8.18106
G1 X91.026 Y122.302 E8.20544
G1 X90.898 Y122.063 E8.22708
G1 X90.771 Y121.788 E8.25126
G1 X90.669 Y121.527 E8.27363
G1 X90.574 Y121.224 E8.29898
G1 X90.518 Y120.995 E8.3178
G1 X90.46 Y120.647 E8.34596
G1 X90.41 Y120.093 E8.39036
G1 X90.4 Y119.871 E8.4081
G1 X90.4 Y100.076 E9.98822
G1 X90.404 Y99.95 E9.99829
G1 X90.428 Y99.573 E10.02844
G1 X90.465 Y99.275 E10.05241
G1 X90.52 Y98.991 E10.0755
G1 X90.596 Y98.7 E10.09951
G1 X90.68 Y98.442 E10.12117
G1 X90.791 Y98.163 E10.14514
G1 X90.913 Y97.905 E10.16792
G1 X91.059 Y97.642 E10.19193
G1 X91.208 Y97.408 E10.21407
G1 X91.39 Y97.161 E10.23857
G1 X91.559 Y96.96 E10.25953
G1 X91.779 Y96.727 E10.28511
G0 F12000 X91.2 Y97.42
G1 F1800 X91.2 Y122.577 E12.29325
G0 F12000 X92.8 Y124.028
G1 F1800 X92.8 Y95.971 E14.53288
G0 F12000 X94.4 Y95.455
G1 F1800 X94.4 Y124.55 E16.85537
G0 F12000 X96 Y124.6
G1 F1800 X96 Y95.4 E19.18624
G0 F12000 X97.6 Y95.4
G1 F1800 X97.6 Y124.6 E21.51711
G0 F12000 X99.2 Y124.6
G1 F1800 X99.2 Y95.4 E23.84798
G0 F12000 X100.8 Y95.4
G1 F1800 X100.8 Y124.6 E26.17885
G0 F12000 X102.4 Y124.6
G1 F1800 X102.4 Y95.4 E28.50972
G0 F12000 X104 Y95.4
G1 F1800 X104 Y124.6 E30.84059
G0 F12000 X105.6 Y124.6
G1 F1800 X105.6 Y95.4 E33.17146
G0 F12000 X107.2 Y95.4
G1 F1800 X107.2 Y124.6 E35.50233
G0 F12000 X108.8 Y124.6
G1 F1800 X108.8 Y95.4 E37.8332
G0 F12000 X110.4 Y95.4
G1 F1800 X110.4 Y124.6 E40.16407
G0 F12000 X112 Y124.6
G1 F1800 X112 Y95.4 E42.49494
G0 F12000 X113.6 Y95.4
G1 F1800 X113.6 Y124.6 E44.82581
G0 F12000 X115.2 Y124.6
G1 F1800 X115.2 Y95.4 E47.15668
G0 F12000 X116.8 Y95.4
G1 F1800 X116.8 Y124.6 E49.48755
G0 F12000 X118.4 Y124.6
G1 F1800 X118.4 Y95.4 E51.81842
G0 F12000 X120 Y95.4
G1 F1800 X120 Y124.6 E54.14929
G0 F12000 X121.6 Y124.6
G1 F1800 X121.6 Y95.4 E56.48016
G0 F12000 X123.2 Y95.4
G1 F1800 X123.2 Y124.6 E58.81103
G0 F12000 X124.8 Y124.6
G1 F1800 X124.8 Y95.4 E61.1419
G0 F12000 X126.4 Y95.629
G1 F1800 X126.4 Y124.371 E63.43621
G0 F12000 X128 Y123.476
G1 F1800 X128 Y96.526 E65.58748
G0 F300 X128 Y96.526 Z0.54
G0 F12000 X129.1 Y97.937
;TIME_ELAPSED:35.244102
;LAYER:-5
M140 S40
;TYPE:SUPPORT
G1 F1800 X128.973 Y97.698 E65.61448
G1 X128.811 Y97.438 E65.64505
G1 X128.647 Y97.21 E65.67308
G1 X128.459 Y96.98 E65.70272
G1 X128.271 Y96.778 E65.73025
G1 X128.039 Y96.558 E65.76215
G1 X127.837 Y96.389 E65.78843
G1 X127.591 Y96.208 E65.81891
G1 X127.352 Y96.056 E65.84717
G1 X127.094 Y95.912 E65.87665
G1 X126.964 Y95.851 E65.89098
G1 X129.145 Y98.032 E66.19874
G1 X129.228 Y98.212 E66.21852
G1 X129.329 Y98.473 E66.24644
G1 X129.425 Y98.776 E66.27816
G1 X129.479 Y98.997 E66.30086
G1 X129.539 Y99.352 E66.33678
G1 X129.587 Y99.889 E66.39058
G1 X125.106 Y95.408 E67.0229
G1 X125.049 Y95.404 E67.0286
G1 X124.923 Y95.4 E67.04118
G1 X123.684 Y95.4 E67.1648
G1 X129.599 Y101.314 E67.9994
G1 X129.599 Y102.729 E68.14059
G1 X122.27 Y95.4 E69.17479
G1 X120.855 Y95.4 E69.31598
G1 X129.599 Y104.143 E70.54979
G1 X129.599 Y105.557 E70.69088
G1 X119.441 Y95.4 E72.12421
G1 X118.027 Y95.4 E72.2653
G1 X129.599 Y106.971 E73.89816
G1 X129.599 Y108.386 E74.03935
G1 X116.613 Y95.4 E75.87182
G1 X115.199 Y95.4 E76.01291
G1 X129.599 Y109.8 E78.0449
G1 X129.599 Y111.214 E78.18599
G1 X113.784 Y95.4 E80.41759
G1 X112.37 Y95.4 E80.55868
G1 X129.599 Y112.628 E82.9898
G1 X129.599 Y114.042 E83.13089
G1 X110.956 Y95.4 E85.76155
G1 X109.542 Y95.4 E85.90264
G1 X129.599 Y115.457 E88.7329
G1 X129.599 Y116.871 E88.87399
G1 X108.127 Y95.4 E91.90385
G1 X106.713 Y95.4 E92.04494
G1 X129.599 Y118.285 E95.27433
G1 X129.599 Y119.699 E95.41542
G1 X105.299 Y95.4 E98.84434
G1 X103.885 Y95.4 E98.98543
G1 X129.481 Y120.996 E102.5973
G1 X129.479 Y121.009 E102.59862
G1 X129.403 Y121.299 E102.62853
G1 X129.319 Y121.558 E102.6557
G1 X129.208 Y121.837 E102.68566
G1 X129.112 Y122.04 E102.70807
G1 X102.471 Y95.4 E106.46733
G1 X101.056 Y95.4 E106.60852
G1 X128.557 Y122.9 E110.48913
G1 X128.437 Y123.043 E110.50776
G1 X128.223 Y123.269 E110.53882
G1 X128.018 Y123.46 E110.56678
G1 X127.844 Y123.601 E110.58912
G1 X99.642 Y95.4 E114.56866
G1 X98.228 Y95.4 E114.70975
G1 X126.971 Y124.143 E118.7657
G1 X126.787 Y124.228 E118.78592
G1 X126.526 Y124.331 E118.81392
G1 X126.223 Y124.426 E118.8456
G1 X126.002 Y124.48 E118.8683
G1 X125.909 Y124.495 E118.8777
G1 X96.814 Y95.4 E122.98332
G1 X95.4 Y95.4 E123.12441
G1 X124.599 Y124.599 E127.2447
G1 X123.185 Y124.599 E127.38579
G1 X94.089 Y95.503 E131.49155
G1 X93.997 Y95.518 E131.50085
G1 X93.775 Y95.573 E131.52367
G1 X93.473 Y95.668 E131.55526
G1 X93.212 Y95.77 E131.58322
G1 X93.027 Y95.856 E131.60358
G1 X121.77 Y124.599 E135.65953
G1 X120.356 Y124.599 E135.80062
G1 X92.155 Y96.397 E139.78015
G1 X91.981 Y96.539 E139.80256
G1 X91.778 Y96.725 E139.83004
G1 X91.559 Y96.959 E139.86202
G1 X91.441 Y97.098 E139.88021
G1 X118.942 Y124.599 E143.7609
G1 X117.528 Y124.599 E143.90199
G1 X90.887 Y97.958 E147.66132
G1 X90.791 Y98.161 E147.68373
G1 X90.68 Y98.441 E147.71378
G1 X90.595 Y98.699 E147.74088
G1 X90.52 Y98.989 E147.77077
G1 X90.517 Y99.002 E147.7721
G1 X116.114 Y124.599 E151.38412
G1 X114.699 Y124.599 E151.52531
G1 X90.4 Y100.299 E154.95423
G1 X90.4 Y101.713 E155.09532
G1 X113.285 Y124.599 E158.32471
G1 X111.871 Y124.599 E158.4658
G1 X90.4 Y103.127 E161.49566
G1 X90.4 Y104.542 E161.63685
G1 X110.457 Y124.599 E164.46711
G1 X109.042 Y124.599 E164.6083
G1 X90.4 Y105.956 E167.23895
G1 X90.4 Y107.37 E167.38004
G1 X107.628 Y124.599 E169.81117
G1 X106.214 Y124.599 E169.95226
G1 X90.4 Y108.784 E172.18386
G1 X90.4 Y110.199 E172.32505
G1 X104.8 Y124.599 E174.35704
G1 X103.386 Y124.599 E174.49813
G1 X90.4 Y111.613 E176.3306
G1 X90.4 Y113.027 E176.47169
G1 X101.971 Y124.599 E178.10455
G1 X100.557 Y124.599 E178.24564
G1 X90.4 Y114.441 E179.67897
G1 X90.4 Y115.855 E179.82006
G1 X99.143 Y124.599 E181.05386
G1 X97.729 Y124.599 E181.19495
G1 X90.4 Y117.27 E182.22916
G1 X90.4 Y118.684 E182.37024
G1 X96.315 Y124.599 E183.20492
G1 X95.076 Y124.599 E183.32854
G1 X94.95 Y124.595 E183.34112
G1 X94.892 Y124.59 E183.34693
G1 X90.411 Y120.109 E183.97925
G1 X90.46 Y120.646 E184.03305
G1 X90.518 Y120.994 E184.06826
G1 X90.574 Y121.222 E184.09168
G1 X90.669 Y121.526 E184.12346
G1 X90.77 Y121.787 E184.15139
G1 X90.854 Y121.966 E184.17112
G1 X93.034 Y124.147 E184.47881
G1 X92.903 Y124.085 E184.49327
G1 X92.646 Y123.943 E184.52257
G1 X92.408 Y123.791 E184.55074
G1 X92.161 Y123.609 E184.58136
G1 X91.959 Y123.44 E184.60764
G1 X91.727 Y123.22 E184.63954
G1 X91.539 Y123.018 E184.66707
G1 X91.348 Y122.783 E184.69729
G1 X91.187 Y122.56 E184.72473
G1 X91.025 Y122.301 E184.75522
G1 X90.898 Y122.062 E184.78222
G0 F300 X90.898 Y122.062 Z0.74
G0 F12000 X90.481 Y121.6
;TIME_ELAPSED:77.906735
;LAYER:-4
;TYPE:SUPPORT-INTERFACE
G1 F2400 X129.515 Y121.6 E186.0805
G1 X129.505 Y121.631 E186.08158
G1 X129.399 Y121.898 E186.09114
G1 X129.35 Y122 E186.0949
G1 X90.646 Y122 E187.3822
G1 X90.715 Y122.147 E187.3876
G1 X90.848 Y122.394 E187.39693
G1 X90.851 Y122.4 E187.39715
G1 X129.145 Y122.4 E188.67082
G1 X129.121 Y122.444 E188.67249
G1 X128.959 Y122.699 E188.68253
G1 X128.884 Y122.8 E188.68672
G1 X91.112 Y122.8 E189.94302
G1 X91.191 Y122.909 E189.9475
G1 X91.386 Y123.148 E189.95776
G1 X91.434 Y123.2 E189.96011
G1 X128.564 Y123.2 E191.19506
G1 X128.375 Y123.4 E191.20421
G1 X128.159 Y123.6 E191.214
G1 X91.837 Y123.6 E192.42208
G1 X92.034 Y123.765 E192.43062
G1 X92.295 Y123.957 E192.4414
G1 X92.362 Y124 E192.44405
G1 X127.633 Y124 E193.61717
G1 X127.394 Y124.149 E193.62653
G1 X127.146 Y124.283 E193.63591
G1 X126.894 Y124.4 E193.64515
G1 X93.099 Y124.4 E194.76918
G0 F12000 X93.366 Y124.506
G1 F2400 X93.65 Y124.598 E194.77911
G1 X93.947 Y124.676 E194.78932
G1 X94.242 Y124.733 E194.79931
G1 X94.545 Y124.771 E194.80947
G1 X94.949 Y124.796 E194.82293
G1 X95.068 Y124.8 E194.82689
G1 X124.879 Y124.799 E195.81841
G1 X125.101 Y124.789 E195.8258
G1 X125.67 Y124.738 E195.8448
G1 X126.04 Y124.675 E195.85729
G1 X126.284 Y124.616 E195.86563
G1 X126.595 Y124.518 E195.87648
G1 X126.862 Y124.415 E195.886
G1 X126.894 Y124.4 E195.88717
G1 F2700 E190.88717
G0 F12000 X127.257 Y125.185
G0 X128.154 Y124.697
G0 X128.98 Y124.02
G0 X129.67 Y123.194
G0 X130.19 Y122.25
G0 X130.52 Y121.242
G0 X130.664 Y119.947
G0 X130.653 Y99.845
G0 X130.448 Y98.478
G0 X129.519 Y98.403
G1 F2700 E195.88717
G1 F2400 X129.617 Y98.715 E195.89805
G1 X129.638 Y98.8 E195.90096
G1 X90.363 Y98.8 E197.20725
G1 X90.325 Y98.942 E197.21214
G1 X90.276 Y99.2 E197.22088
G1 X129.718 Y99.2 E198.53272
G1 X129.739 Y99.328 E198.53704
G1 X129.764 Y99.6 E198.54612
G1 X90.226 Y99.6 E199.86116
G1 X90.204 Y99.95 E199.87283
G1 X90.203 Y100 E199.87449
G1 X129.795 Y100 E201.19133
G1 X129.8 Y100.11 E201.19499
G1 X129.8 Y100.4 E201.20463
G1 X90.2 Y100.4 E202.52173
G1 X90.2 Y100.8 E202.53504
G1 X129.8 Y100.8 E203.85214
G1 X129.8 Y101.2 E203.86544
G1 X90.2 Y101.2 E205.18255
G1 X90.2 Y101.6 E205.19585
G1 X129.8 Y101.6 E206.51295
G1 X129.8 Y102 E206.52625
G1 X90.2 Y102 E207.84336
G1 X90.2 Y102.4 E207.85666
G1 X129.8 Y102.4 E209.17376
G1 X129.8 Y102.8 E209.18707
G1 X90.2 Y102.8 E210.50417
G1 X90.2 Y103.2 E210.51747
G1 X129.8 Y103.2 E211.83457
G1 X129.8 Y103.6 E211.84788
G1 X90.2 Y103.6 E213.16498
G1 X90.2 Y104 E213.17828
G1 X129.8 Y104 E214.49538
G1 X129.8 Y104.4 E214.50869
G1 X90.2 Y104.4 E215.82579
G1 X90.2 Y104.8 E215.83909
G1 X129.8 Y104.8 E217.15619
G1 X129.8 Y105.2 E217.1695
G1 X90.2 Y105.2 E218.4866
G1 X90.2 Y105.6 E218.4999
G1 X129.8 Y105.6 E219.817
G1 X129.8 Y106 E219.83031
G1 X90.2 Y106 E221.14741
G1 X90.2 Y106.4 E221.16071
G1 X129.8 Y106.4 E222.47782
G1 X129.8 Y106.8 E222.49112
G1 X90.2 Y106.8 E223.80822
G1 X90.2 Y107.2 E223.82152
G1 X129.8 Y107.2 E225.13863
G1 X129.8 Y107.6 E225.15193
G1 X90.2 Y107.6 E226.46903
G1 X90.2 Y108 E226.48234
G1 X129.8 Y108 E227.79944
G1 X129.8 Y108.4 E227.81274
G1 X90.2 Y108.4 E229.12984
G1 X90.2 Y108.8 E229.14315
G1 X129.8 Y108.8 E230.46025
G1 X129.8 Y109.2 E230.47355
G1 X90.2 Y109.2 E231.79065
G1 X90.2 Y109.6 E231.80396
G1 X129.8 Y109.6 E233.12106
G1 X129.8 Y110 E233.13436
G1 X90.2 Y110 E234.45146
G1 X90.2 Y110.4 E234.46477
G1 X129.8 Y110.4 E235.78187
G1 X129.8 Y110.8 E235.79517
G1 X90.2 Y110.8 E237.11227
G1 X90.2 Y111.2 E237.12558
G1 X129.8 Y111.2 E238.44268
G1 X129.8 Y111.6 E238.45598
G1 X90.2 Y111.6 E239.77309
G1 X90.2 Y112 E239.78639
G1 X129.8 Y112 E241.10349
G1 X129.8 Y112.4 E241.1168
G1 X90.2 Y112.4 E242.4339
G1 X90.2 Y112.8 E242.4472
G1 X129.8 Y112.8 E243.7643
G1 X129.8 Y113.2 E243.77761
G1 X90.2 Y113.2 E245.09471
G1 X90.2 Y113.6 E245.10801
G1 X129.8 Y113.6 E246.42511
G1 X129.8 Y114 E246.43842
G1 X90.2 Y114 E247.75552
G1 X90.2 Y114.4 E247.76882
G1 X129.8 Y114.4 E249.08592
G1 X129.8 Y114.8 E249.09923
G1 X90.2 Y114.8 E250.41633
G1 X90.2 Y115.2 E250.42963
G1 X129.8 Y115.2 E251.74673
G1 X129.8 Y115.6 E251.76004
G1 X90.2 Y115.6 E253.07714
G1 X90.2 Y116 E253.09044
G1 X129.8 Y116 E254.40755
G1 X129.8 Y116.4 E254.42085
G1 X90.2 Y116.4 E255.73795
G1 X90.2 Y116.8 E255.75125
G1 X129.8 Y116.8 E257.06836
G1 X129.8 Y117.2 E257.08166
G1 X90.2 Y117.2 E258.39876
G1 X90.2 Y117.6 E258.41207
G1 X129.8 Y117.6 E259.72917
G1 X129.8 Y118 E259.74247
G1 X90.2 Y118 E261.05957
G1 X90.2 Y118.4 E261.07288
G1 X129.8 Y118.4 E262.38998
G1 X129.8 Y118.8 E262.40328
G1 X90.2 Y118.8 E263.72038
G1 X90.199 Y119.2 E263.73369
G1 X129.799 Y119.2 E265.05079
G1 X129.799 Y119.6 E265.06409
G1 X90.199 Y119.6 E266.38119
G1 X90.199 Y119.889 E266.39081
G1 X90.204 Y120 E266.3945
G1 X129.796 Y120 E267.71134
G1 X129.795 Y120.049 E267.71297
G1 X129.773 Y120.4 E267.72466
G1 X90.235 Y120.4 E269.0397
G1 X90.26 Y120.671 E269.04876
G1 X90.281 Y120.8 E269.0531
G1 X129.723 Y120.8 E270.36495
G1 X129.676 Y121.049 E270.37338
G1 X129.636 Y121.2 E270.37857
G1 X90.361 Y121.2 E271.68486
G1 X90.382 Y121.284 E271.68774
G1 X90.48 Y121.596 E271.69862
G1 F2700 E266.69862
G0 F12000 X89.552 Y121.522
G0 X89.347 Y120.155
G0 X89.368 Y99.471
G0 X89.573 Y98.404
G0 X89.972 Y97.407
G0 X90.551 Y96.505
G0 X91.285 Y95.734
G0 X92.166 Y95.104
G0 X93.124 Y94.663
G0 X94.01 Y94.454
G0 X95.082 Y94.336
G0 X95.12 Y95.2
G1 F2700 E271.69862
G1 F2400 X124.961 Y95.2 E272.69114
G1 X125.05 Y95.203 E272.6941
G1 X125.454 Y95.228 E272.70756
G1 X125.757 Y95.266 E272.71772
G1 X126.052 Y95.323 E272.72771
G1 X126.347 Y95.4 E272.73785
G1 X126.632 Y95.493 E272.74782
G1 X126.902 Y95.6 E272.75748
G1 X93.103 Y95.6 E273.88164
G1 X92.853 Y95.716 E273.89081
G1 X92.606 Y95.849 E273.90014
G1 X92.364 Y96 E273.90963
G1 X127.638 Y96 E275.08284
G1 X127.704 Y96.042 E275.08545
G1 X127.965 Y96.234 E275.09622
G1 X128.163 Y96.4 E275.10482
G1 X91.839 Y96.4 E276.31296
G1 X91.624 Y96.599 E276.3227
G1 X91.435 Y96.8 E276.33188
G1 X128.566 Y96.8 E277.56686
G1 X128.61 Y96.848 E277.56903
G1 X128.808 Y97.09 E277.57943
G1 X128.888 Y97.2 E277.58395
G1 X91.114 Y97.2 E278.84032
G1 X91.04 Y97.3 E278.84446
