;FLAVOR:Marlin
;TIME:5079
;Filament used: 4.12154m
;Layer height: 0.2
;MINX:73.903
;MINY:60.95
;MINZ:0.24
;MAXX:146.123
;MAXY:133.226
;MAXZ:9.09
;Generated with Cura_SteamEngine 4.12.0
M140 S50
M105
M190 S50
M104 S200
M105
M109 S200
M82 ;absolute extrusion mode
M201 X500.00 Y500.00 Z100.00 E5000.00 ;Setup machine max acceleration
M203 X500.00 Y500.00 Z10.00 E50.00 ;Setup machine max feedrate
M204 P500.00 R1000.00 T500.00 ;Setup Print/Retract/Travel acceleration
M205 X8.00 Y8.00 Z0.40 E5.00 ;Setup Jerk
M220 S100 ;Reset Feedrate
M221 S100 ;Reset Flowrate

G28 ;Home

G92 E0 ;Reset Extruder
G1 Z2.0 F3000 ;Move Z Axis up
G1 X10.1 Y20 Z0.28 F5000.0 ;Move to start position
G1 X10.1 Y200.0 Z0.28 F1500.0 E15 ;Draw the first line
G1 X10.4 Y200.0 Z0.28 F5000.0 ;Move to side a little
G1 X10.4 Y20 Z0.28 F1500.0 E30 ;Draw the second line
G92 E0 ;Reset Extruder
G1 Z2.0 F3000 ;Move Z Axis up

G92 E0
G92 E0
G1 F2700 E-5
;LAYER_COUNT:40
;LAYER:-6
M107
G0 F12000 X83.278 Y74.366 Z0.24
;TYPE:SUPPORT-INTERFACE
G1 F2700 E0
G1 F1800 X83.535 Y74.093 E0.02993
G1 X83.747 Y73.894 E0.05314
G1 X83.784 Y73.864 E0.05694
G1 X84.276 Y73.404 E0.11071
G1 X84.378 Y73.307 E0.12194
G1 X84.937 Y72.583 E0.19496
G1 X85.231 Y72.251 E0.23036
G1 X85.357 Y72.119 E0.24492
G1 X85.8 Y71.69 E0.29415
G1 X85.867 Y71.629 E0.30138
G1 X86.184 Y71.359 E0.33462
G1 X86.41 Y71.19 E0.35715
G1 X86.457 Y71.158 E0.36169
G1 X86.99 Y70.758 E0.41488
G1 X87.369 Y70.397 E0.45666
G1 X87.713 Y70.038 E0.49635
G1 X88.073 Y69.71 E0.53523
G1 X88.187 Y69.613 E0.54718
G1 X88.667 Y69.239 E0.59575
G1 X88.773 Y69.161 E0.60625
G1 X89.09 Y68.944 E0.63692
G1 X89.348 Y68.791 E0.66086
G1 X89.396 Y68.767 E0.66515
G1 X89.978 Y68.421 E0.71919
G1 X90.081 Y68.364 E0.72859
G1 X90.783 Y67.777 E0.80164
G1 X91.161 Y67.502 E0.83895
G1 X91.314 Y67.399 E0.85367
G1 X91.804 Y67.096 E0.89966
G1 X91.952 Y67.012 E0.91325
G1 X92.257 Y66.85 E0.94081
G1 X92.535 Y66.723 E0.96521
G1 X92.559 Y66.714 E0.96726
G1 X93.17 Y66.438 E1.02077
G1 X93.328 Y66.36 E1.03484
G1 X94.086 Y65.855 E1.10755
G1 X94.457 Y65.644 E1.14161
G1 X94.606 Y65.565 E1.15508
G1 X95.14 Y65.309 E1.20235
G1 X95.282 Y65.247 E1.21472
G1 X95.628 Y65.107 E1.24451
G1 X95.907 Y65.015 E1.26796
G1 X95.987 Y64.994 E1.27456
G1 X96.623 Y64.78 E1.32813
G1 X96.812 Y64.699 E1.34454
G1 X97.559 Y64.315 E1.41159
G1 X97.967 Y64.14 E1.44703
G1 X98.126 Y64.078 E1.46065
G1 X98.658 Y63.892 E1.50564
G1 X98.82 Y63.841 E1.51919
G1 X99.177 Y63.74 E1.54881
G1 X99.459 Y63.679 E1.57184
G1 X99.497 Y63.674 E1.5749
G1 X100.155 Y63.534 E1.6286
G1 X100.309 Y63.501 E1.64117
G1 X101.147 Y63.174 E1.71298
G1 X101.58 Y63.037 E1.74923
G1 X101.751 Y62.99 E1.76339
G1 X102.328 Y62.856 E1.81067
G1 X102.491 Y62.823 E1.82395
G1 X102.839 Y62.764 E1.85212
G1 X103.125 Y62.736 E1.87506
G1 X103.202 Y62.732 E1.88122
G1 X103.872 Y62.662 E1.93499
G1 X104.03 Y62.636 E1.94777
G1 X104.901 Y62.407 E2.01966
G1 X105.323 Y62.325 E2.05398
G1 X105.507 Y62.296 E2.06885
G1 X106.075 Y62.228 E2.11451
G1 X106.233 Y62.213 E2.12718
G1 X106.596 Y62.193 E2.1562
G1 X106.899 Y62.195 E2.18039
G1 X106.942 Y62.198 E2.18383
G1 X107.615 Y62.202 E2.23755
G1 X107.773 Y62.197 E2.25017
G1 X108.664 Y62.06 E2.32213
G1 X109.114 Y62.021 E2.35818
G1 X109.265 Y62.014 E2.37025
G1 X109.868 Y62.007 E2.41839
G1 X110.032 Y62.011 E2.43148
G1 X110.393 Y62.029 E2.46033
G1 X110.665 Y62.061 E2.4822
G1 X110.724 Y62.071 E2.48697
G1 X111.393 Y62.149 E2.54074
G1 X111.562 Y62.159 E2.55425
G1 X112.484 Y62.121 E2.62791
G1 X112.893 Y62.131 E2.66057
G1 X113.074 Y62.143 E2.67505
G1 X113.655 Y62.198 E2.72163
G1 X113.805 Y62.217 E2.7337
G1 X114.163 Y62.273 E2.76263
G1 X114.469 Y62.342 E2.78767
G1 X114.521 Y62.358 E2.79201
G1 X115.177 Y62.505 E2.84567
G1 X115.325 Y62.533 E2.8577
G1 X116.24 Y62.592 E2.93089
G1 X116.653 Y62.648 E2.96416
G1 X116.83 Y62.679 E2.9785
G1 X117.398 Y62.796 E3.02479
G1 X117.561 Y62.835 E3.03817
G1 X117.921 Y62.934 E3.06798
G1 X118.184 Y63.024 E3.09017
G1 X118.254 Y63.052 E3.09618
G1 X118.89 Y63.271 E3.14988
G1 X119.076 Y63.317 E3.16517
G1 X119.949 Y63.473 E3.23596
G1 X120.337 Y63.57 E3.26789
G1 X120.504 Y63.617 E3.28174
G1 X121.044 Y63.791 E3.32702
G1 X121.217 Y63.853 E3.34169
G1 X121.572 Y63.992 E3.37213
G1 X121.815 Y64.106 E3.39355
G1 X121.914 Y64.16 E3.40255
G1 X122.519 Y64.442 E3.45584
G1 X123.017 Y64.609 E3.49776
G1 X123.461 Y64.735 E3.53461
G1 X123.849 Y64.872 E3.56745
G1 X124.001 Y64.932 E3.5805
G1 X124.536 Y65.163 E3.62701
G1 X124.703 Y65.242 E3.64176
G1 X125.021 Y65.403 E3.67021
G1 X125.258 Y65.543 E3.69218
G1 X125.418 Y65.652 E3.70764
G1 X125.992 Y65.991 E3.76085
G1 X126.421 Y66.187 E3.7985
G1 X126.886 Y66.374 E3.83851
G1 X127.299 Y66.575 E3.87517
G1 X127.47 Y66.666 E3.89063
G1 X127.976 Y66.963 E3.93747
G1 X128.089 Y67.034 E3.94812
G1 X128.406 Y67.247 E3.97861
G1 X128.648 Y67.434 E4.00302
G1 X128.693 Y67.472 E4.00772
G1 X129.228 Y67.881 E4.06148
G1 X129.364 Y67.976 E4.07472
G1 X130.129 Y68.393 E4.14427
G1 X130.497 Y68.626 E4.17904
G1 X130.651 Y68.732 E4.19396
G1 X131.104 Y69.066 E4.23889
G1 X131.237 Y69.17 E4.25237
G1 X131.507 Y69.397 E4.28052
G1 X131.731 Y69.61 E4.3052
G1 X131.772 Y69.655 E4.31006
G1 X132.26 Y70.122 E4.36397
G1 X132.372 Y70.223 E4.37601
G1 X133.101 Y70.725 E4.44667
G1 X133.459 Y71.01 E4.48319
G1 X133.59 Y71.122 E4.49695
G1 X134.022 Y71.521 E4.54389
G1 X134.145 Y71.643 E4.55772
G1 X134.383 Y71.893 E4.58528
G1 X134.58 Y72.126 E4.60963
G1 X134.621 Y72.182 E4.61517
G1 X135.053 Y72.696 E4.66877
G1 X135.619 Y73.209 E4.72975
G1 X135.658 Y73.239 E4.73367
G1 X135.916 Y73.468 E4.76121
G1 X136.164 Y73.72 E4.78943
G1 X136.654 Y74.282 E4.84895
G1 X136.738 Y74.384 E4.8595
G1 X136.966 Y74.682 E4.88945
G1 X137.142 Y74.945 E4.91471
G1 X137.186 Y75.019 E4.92158
G1 X137.558 Y75.573 E4.97485
G1 X137.917 Y75.993 E5.01896
G1 X138.207 Y76.299 E5.05261
G1 X138.48 Y76.629 E5.0868
G1 X138.56 Y76.732 E5.09721
G1 X138.917 Y77.23 E5.14612
G1 X139.012 Y77.372 E5.15976
G1 X139.202 Y77.678 E5.18851
G1 X139.347 Y77.947 E5.2129
G1 X139.436 Y78.139 E5.2298
G1 X139.755 Y78.729 E5.28333
G1 X139.791 Y78.807 E5.29019
G1 X140.309 Y79.499 E5.35919
G1 X140.525 Y79.829 E5.39068
G1 X140.598 Y79.95 E5.40196
G1 X140.908 Y80.501 E5.45242
G1 X140.962 Y80.603 E5.46164
G1 X141.131 Y80.953 E5.49266
G1 X141.243 Y81.228 E5.51636
G1 X141.312 Y81.434 E5.5337
G1 X141.565 Y82.057 E5.58738
G1 X141.603 Y82.144 E5.59496
G1 X142.048 Y82.903 E5.66519
G1 X142.205 Y83.216 E5.69314
G1 X142.28 Y83.377 E5.70732
G1 X142.511 Y83.918 E5.75428
G1 X142.574 Y84.081 E5.76823
G1 X142.69 Y84.406 E5.79577
G1 X142.771 Y84.691 E5.81942
G1 X142.813 Y84.878 E5.83472
G1 X142.998 Y85.524 E5.88836
G1 X143.048 Y85.664 E5.90023
G1 X143.411 Y86.469 E5.97072
G1 X143.572 Y86.921 E6.00902
G1 X143.605 Y87.032 E6.01826
G1 X143.777 Y87.651 E6.06955
G1 X143.806 Y87.768 E6.07917
G1 X143.884 Y88.139 E6.10943
G1 X144.011 Y89.025 E6.18088
G1 X144.083 Y89.244 E6.19928
G1 X144.058 Y89.252 E6.20137
G1 X144.339 Y90.099 E6.27261
G1 X144.436 Y90.476 E6.30368
G1 X144.468 Y90.617 E6.31522
G1 X144.585 Y91.241 E6.3659
G1 X144.605 Y91.362 E6.37569
G1 X144.654 Y91.758 E6.40754
G1 X144.67 Y92.022 E6.42866
G1 X144.669 Y92.194 E6.44239
G1 X144.709 Y92.867 E6.4962
G1 X144.715 Y92.991 E6.50611
G1 X144.901 Y93.839 E6.57541
G1 X144.944 Y94.097 E6.59629
G1 X144.977 Y94.402 E6.62078
G1 X145.02 Y95.05 E6.67262
G1 X145.025 Y95.193 E6.68404
G1 X145.027 Y95.579 E6.71485
G1 X145.009 Y95.869 E6.73805
G1 X145.001 Y95.93 E6.74296
G1 X144.962 Y96.601 E6.79661
G1 X144.958 Y96.756 E6.80899
G1 X145.045 Y97.642 E6.88005
G1 X145.06 Y98.069 E6.91416
G1 X145.059 Y98.247 E6.92837
G1 X145.035 Y98.846 E6.97622
G1 X145.025 Y98.984 E6.98727
G1 X144.985 Y99.374 E7.01856
G1 X144.94 Y99.639 E7.04002
G1 X144.923 Y99.71 E7.04584
G1 X144.809 Y100.375 E7.0997
G1 X144.793 Y100.578 E7.11596
G1 X144.779 Y101.456 E7.18605
G1 X144.746 Y101.867 E7.21896
G1 X144.726 Y102.04 E7.23287
G1 X144.636 Y102.64 E7.2813
G1 X144.615 Y102.755 E7.29063
G1 X144.531 Y103.144 E7.3224
G1 X144.457 Y103.409 E7.34436
G1 X144.43 Y103.487 E7.35095
G1 X144.248 Y104.135 E7.40467
G1 X144.214 Y104.273 E7.41602
G1 X144.104 Y105.171 E7.48824
G1 X144.009 Y105.661 E7.52808
G1 X143.969 Y105.829 E7.54187
G1 X143.808 Y106.409 E7.58991
G1 X143.774 Y106.519 E7.59911
G1 X143.641 Y106.901 E7.63139
G1 X143.301 Y107.71 E7.70144
G1 X143.261 Y107.916 E7.71819
G1 X143.238 Y107.91 E7.72009
G1 X143.036 Y108.796 E7.79263
G1 X142.902 Y109.238 E7.8295
G1 X142.851 Y109.388 E7.84214
G1 X142.634 Y109.952 E7.89038
G1 X142.585 Y110.068 E7.90044
G1 X142.415 Y110.438 E7.93294
G1 X142.29 Y110.67 E7.95397
G1 X142.247 Y110.739 E7.96046
G1 X141.932 Y111.329 E8.01385
G1 X141.695 Y111.942 E8.06632
G1 X141.611 Y112.209 E8.08866
G1 X141.51 Y112.472 E8.11115
G1 X141.395 Y112.729 E8.13362
G1 X141.345 Y112.833 E8.14283
G1 X141.057 Y113.397 E8.19338
G1 X140.995 Y113.507 E8.20346
G1 X140.79 Y113.852 E8.2355
G1 X140.628 Y114.088 E8.25835
G1 X140.559 Y114.176 E8.26727
G1 X140.183 Y114.728 E8.32059
G1 X139.941 Y115.187 E8.36201
G1 X139.75 Y115.597 E8.39811
G1 X139.558 Y115.948 E8.43005
G1 X139.469 Y116.098 E8.44397
G1 X139.138 Y116.614 E8.49291
G1 X139.06 Y116.727 E8.50387
G1 X138.837 Y117.031 E8.53396
G1 X138.644 Y117.261 E8.55793
G1 X138.522 Y117.389 E8.57205
G1 X138.09 Y117.904 E8.6257
G1 X138.035 Y117.978 E8.63306
G1 X137.544 Y118.768 E8.70731
G1 X137.299 Y119.109 E8.74083
G1 X137.212 Y119.22 E8.75209
G1 X136.824 Y119.691 E8.8008
G1 X136.725 Y119.803 E8.81273
G1 X136.481 Y120.062 E8.84113
G1 X136.254 Y120.276 E8.86604
G1 X136.179 Y120.338 E8.8738
G1 X135.692 Y120.795 E8.92712
G1 X135.348 Y121.202 E8.96965
G1 X135.072 Y121.563 E9.00593
G1 X134.797 Y121.877 E9.03925
G1 X134.684 Y121.998 E9.05246
G1 X134.266 Y122.413 E9.09948
G1 X134.156 Y122.516 E9.11151
G1 X133.865 Y122.771 E9.14239
G1 X133.646 Y122.94 E9.16448
G1 X133.478 Y123.054 E9.18068
G1 X132.948 Y123.464 E9.23417
G1 X132.46 Y123.952 E9.28926
G1 X132.404 Y124.017 E9.29611
G1 X132.203 Y124.219 E9.31886
G1 X131.932 Y124.459 E9.34775
G1 X131.815 Y124.556 E9.35988
G1 X131.333 Y124.932 E9.40868
G1 X131.22 Y125.014 E9.41983
G1 X130.91 Y125.227 E9.44985
G1 X130.652 Y125.38 E9.47379
G1 X130.604 Y125.404 E9.47808
G1 X130.025 Y125.749 E9.53188
G1 X129.913 Y125.814 E9.54222
G1 X129.212 Y126.4 E9.61515
G1 X128.845 Y126.666 E9.65133
G1 X128.684 Y126.774 E9.66681
G1 X128.208 Y127.068 E9.71147
G1 X128.05 Y127.158 E9.72598
G1 X127.748 Y127.319 E9.7533
G1 X127.463 Y127.45 E9.77834
G1 X127.436 Y127.46 E9.78064
G1 X126.823 Y127.738 E9.83436
G1 X126.669 Y127.816 E9.84814
G1 X125.922 Y128.312 E9.91972
G1 X125.543 Y128.528 E9.95454
G1 X125.386 Y128.61 E9.96868
G1 X124.846 Y128.868 E10.01645
G1 X124.724 Y128.921 E10.02707
G1 X124.366 Y129.066 E10.0579
G1 X124.094 Y129.155 E10.08075
G1 X124.039 Y129.17 E10.0853
G1 X123.399 Y129.38 E10.13907
G1 X123.215 Y129.459 E10.15505
G1 X122.441 Y129.856 E10.22449
G1 X122.033 Y130.031 E10.25993
G1 X121.874 Y130.093 E10.27355
G1 X121.342 Y130.279 E10.31854
G1 X121.18 Y130.33 E10.33209
G1 X120.823 Y130.431 E10.36171
G1 X120.535 Y130.493 E10.38523
G1 X120.453 Y130.505 E10.39184
G1 X119.799 Y130.646 E10.44525
G1 X119.292 Y130.816 E10.48793
G1 X118.866 Y130.984 E10.52448
G1 X118.478 Y131.108 E10.557
G1 X118.293 Y131.161 E10.57236
G1 X117.725 Y131.301 E10.61906
G1 X117.597 Y131.328 E10.6295
G1 X117.207 Y131.399 E10.66114
G1 X116.924 Y131.432 E10.68389
G1 X116.703 Y131.443 E10.70155
G1 X116.041 Y131.52 E10.75475
G1 X115.575 Y131.627 E10.79292
G1 X115.157 Y131.742 E10.82752
G1 X114.727 Y131.83 E10.86256
G1 X114.573 Y131.856 E10.87503
G1 X113.976 Y131.936 E10.92311
G1 X113.843 Y131.949 E10.93377
G1 X113.459 Y131.976 E10.9645
G1 X113.165 Y131.978 E10.98797
G1 X112.961 Y131.966 E11.00428
G1 X112.295 Y131.97 E11.05745
G1 X111.819 Y132.025 E11.0957
G1 X111.352 Y132.1 E11.13345
G1 X110.957 Y132.136 E11.16511
G1 X110.804 Y132.145 E11.17735
G1 X110.196 Y132.161 E11.2259
G1 X110.059 Y132.16 E11.23683
G1 X109.657 Y132.145 E11.26895
G1 X109.393 Y132.119 E11.29012
G1 X109.158 Y132.08 E11.30914
G1 X108.49 Y132.012 E11.36273
G1 X108.387 Y132.007 E11.37097
G1 X107.515 Y132.043 E11.44063
G1 X107.144 Y132.034 E11.47026
G1 X107.024 Y132.028 E11.47985
G1 X106.381 Y131.974 E11.53135
G1 X106.268 Y131.962 E11.54043
G1 X105.883 Y131.905 E11.57149
G1 X105.584 Y131.841 E11.5959
G1 X105.398 Y131.788 E11.61134
G1 X104.741 Y131.647 E11.66498
G1 X104.66 Y131.625 E11.67168
G1 X103.778 Y131.571 E11.74221
G1 X103.39 Y131.522 E11.77343
G1 X103.264 Y131.502 E11.78362
G1 X102.643 Y131.383 E11.83409
G1 X102.52 Y131.355 E11.84416
G1 X102.153 Y131.26 E11.87442
G1 X101.875 Y131.169 E11.89777
G1 X101.649 Y131.08 E11.91716
G1 X101.016 Y130.872 E11.97035
G1 X100.547 Y130.773 E12.00861
G1 X100.117 Y130.702 E12.0434
G1 X99.737 Y130.612 E12.07457
G1 X99.545 Y130.56 E12.09045
G1 X98.999 Y130.392 E12.13605
G1 X98.837 Y130.337 E12.1497
G1 X98.494 Y130.207 E12.17899
G1 X98.229 Y130.087 E12.20221
G1 X98.067 Y130.001 E12.21685
G1 X97.461 Y129.726 E12.26997
G1 X97.009 Y129.576 E12.30798
G1 X96.531 Y129.443 E12.34759
G1 X96.103 Y129.288 E12.38393
G1 X95.912 Y129.212 E12.40033
G1 X95.39 Y128.976 E12.44606
G1 X95.249 Y128.908 E12.45856
G1 X94.922 Y128.735 E12.48809
G1 X94.671 Y128.58 E12.51164
G1 X94.636 Y128.556 E12.51503
G1 X94.063 Y128.209 E12.5685
G1 X93.929 Y128.128 E12.581
G1 X93.105 Y127.793 E12.652
G1 X92.674 Y127.583 E12.69027
G1 X92.541 Y127.511 E12.70234
G1 X92.024 Y127.208 E12.75018
G1 X91.911 Y127.137 E12.76083
G1 X91.594 Y126.924 E12.79132
G1 X91.357 Y126.741 E12.81522
G1 X91.319 Y126.707 E12.81929
G1 X90.784 Y126.297 E12.87309
G1 X90.634 Y126.198 E12.88744
G1 X89.843 Y125.764 E12.95946
G1 X89.505 Y125.548 E12.99148
G1 X89.351 Y125.441 E13.00645
G1 X88.871 Y125.086 E13.05411
G1 X88.773 Y125.01 E13.064
G1 X88.475 Y124.758 E13.09516
G1 X88.276 Y124.567 E13.11718
G1 X88.233 Y124.522 E13.12214
G1 X87.747 Y124.055 E13.17595
G1 X87.631 Y123.948 E13.18854
G1 X86.889 Y123.437 E13.26046
G1 X86.536 Y123.157 E13.29643
G1 X86.406 Y123.045 E13.31012
G1 X85.978 Y122.65 E13.35661
G1 X85.855 Y122.528 E13.37044
G1 X85.614 Y122.275 E13.39834
G1 X85.426 Y122.051 E13.42168
G1 X85.386 Y121.998 E13.42698
G1 X84.953 Y121.482 E13.48075
G1 X84.841 Y121.361 E13.49391
G1 X84.168 Y120.778 E13.56499
G1 X83.848 Y120.458 E13.60111
G1 X83.742 Y120.344 E13.61354
G1 X83.346 Y119.889 E13.66169
G1 X83.262 Y119.787 E13.67223
G1 X83.026 Y119.479 E13.70321
G1 X82.867 Y119.241 E13.72606
G1 X82.836 Y119.188 E13.73096
G1 X82.463 Y118.635 E13.7842
G1 X82.116 Y118.226 E13.82702
G1 X81.781 Y117.871 E13.86598
G1 X81.478 Y117.5 E13.90422
G1 X81.383 Y117.373 E13.91688
G1 X81.037 Y116.877 E13.96515
G1 X80.961 Y116.759 E13.97636
G1 X80.764 Y116.434 E14.00669
G1 X80.638 Y116.194 E14.02833
G1 X80.608 Y116.127 E14.03419
G1 X80.296 Y115.53 E14.08796
G1 X80.223 Y115.402 E14.09972
G1 X79.68 Y114.671 E14.17241
G1 X79.447 Y114.308 E14.20684
G1 X79.339 Y114.126 E14.22374
G1 X79.072 Y113.636 E14.26828
G1 X79.005 Y113.503 E14.28017
G1 X78.84 Y113.149 E14.31134
G1 X78.74 Y112.895 E14.33313
G1 X78.717 Y112.823 E14.33917
G1 X78.47 Y112.197 E14.39289
G1 X78.087 Y111.515 E14.45532
G1 X77.919 Y111.224 E14.48215
G1 X77.754 Y110.887 E14.5121
G1 X77.698 Y110.762 E14.52303
G1 X77.458 Y110.183 E14.57306
G1 X77.405 Y110.041 E14.58516
G1 X77.293 Y109.71 E14.61306
G1 X77.215 Y109.425 E14.63664
G1 X77.201 Y109.359 E14.64203
G1 X77.023 Y108.71 E14.69575
G1 X76.986 Y108.572 E14.70715
G1 X76.615 Y107.759 E14.77849
G1 X76.454 Y107.327 E14.81529
G1 X76.398 Y107.157 E14.82958
G1 X76.233 Y106.59 E14.87671
G1 X76.196 Y106.442 E14.88889
G1 X76.118 Y106.094 E14.91736
G1 X76.07 Y105.792 E14.94177
G1 X76.063 Y105.722 E14.94738
G1 X75.958 Y105.059 E15.00097
G1 X75.76 Y104.391 E15.05658
G1 X75.7 Y104.228 E15.07045
G1 X75.612 Y103.938 E15.09464
G1 X75.533 Y103.602 E15.12219
G1 X75.513 Y103.501 E15.13041
G1 X75.401 Y102.864 E15.18204
G1 X75.386 Y102.754 E15.1909
G1 X75.344 Y102.375 E15.22134
G1 X75.298 Y101.362 E15.30228
G1 X75.284 Y101.202 E15.31511
G1 X75.094 Y100.286 E15.38978
G1 X75.04 Y99.894 E15.42137
G1 X75.017 Y99.678 E15.43871
G1 X74.982 Y99.118 E15.4835
G1 X74.976 Y98.951 E15.49684
G1 X74.976 Y98.572 E15.52709
G1 X74.993 Y98.298 E15.549
