;FLAVOR:Marlin
;TIME:2216
;Filament used: 1.52666m
;Layer height: 0.2
;MINX:102.335
;MINY:37.533
;MINZ:0.2
;MAXX:117.665
;MAXY:148.994
;MAXZ:13
;Generated with Cura_SteamEngine 4.12.1
M140 S55
M105
M190 S55
M104 S205
M105
M109 S205
M82 ;absolute extrusion mode
M201 X500.00 Y500.00 Z100.00 E5000.00 ;Setup machine max acceleration
M203 X500.00 Y500.00 Z10.00 E50.00 ;Setup machine max feedrate
M204 P500.00 R1000.00 T500.00 ;Setup Print/Retract/Travel acceleration
M205 X8.00 Y8.00 Z0.40 E5.00 ;Setup Jerk
M220 S100 ;Reset Feedrate
M221 S100 ;Reset Flowrate

G28 ;Home

G92 E0 ;Reset Extruder
G1 Z2.0 F3000 ;Move Z Axis up
G1 X10.1 Y20 Z0.28 F5000.0 ;Move to start position
G1 X10.1 Y200.0 Z0.28 F1500.0 E15 ;Draw the first line
G1 X10.4 Y200.0 Z0.28 F5000.0 ;Move to side a little
G1 X10.4 Y20 Z0.28 F1500.0 E30 ;Draw the second line
G92 E0 ;Reset Extruder
G1 Z2.0 F3000 ;Move Z Axis up

G92 E0
G92 E0
G1 F2700 E-5
;LAYER_COUNT:65
;LAYER:0
M107
;MESH:bump_plate.obj
G0 F6000 X112.42 Y146.933 Z0.2
;TYPE:WALL-INNER
G1 F2700 E0
G1 F600 X107.58 Y146.933 E0.16098
G1 X104.4 Y143.753 E0.31056
G1 X104.4 Y41.913 E3.69777
G1 X107.58 Y38.733 E3.84735
G1 X112.42 Y38.733 E4.00833
G1 X115.6 Y41.913 E4.1579
G1 X115.6 Y143.753 E7.54511
G1 X112.42 Y146.933 E7.69469
G0 F6000 X112.586 Y147.333
G1 F600 X107.414 Y147.333 E7.86671
G1 X104 Y143.919 E8.0273
G1 X104 Y41.747 E11.42555
G1 X107.414 Y38.333 E11.58614
G1 X112.586 Y38.333 E11.75816
G1 X116 Y41.747 E11.91874
G1 X116 Y143.919 E15.317
G1 X112.586 Y147.333 E15.47758
G0 F6000 X112.752 Y147.733
G1 F600 X107.248 Y147.733 E15.66064
G1 X103.6 Y144.085 E15.83223
G1 X103.6 Y41.581 E19.24153
G1 X107.248 Y37.933 E19.41312
G1 X112.752 Y37.933 E19.59619
G1 X116.4 Y41.581 E19.76778
G1 X116.4 Y144.085 E23.17707
G1 X112.752 Y147.733 E23.34866
G0 F6000 X112.918 Y148.133
;TYPE:WALL-OUTER
G1 F600 X107.082 Y148.133 E23.54277
G1 X103.2 Y144.251 E23.72537
G1 X103.2 Y41.415 E27.14571
G1 X107.082 Y37.533 E27.3283
G1 X112.918 Y37.533 E27.52241
G1 X116.8 Y41.415 E27.70501
G1 X116.8 Y144.251 E31.12535
G1 X112.918 Y148.133 E31.30795
G0 F6000 X112.75 Y147.727
G0 X112.457 Y146.74
G0 X112.26 Y146.543
;TYPE:SKIN
G1 F600 X107.74 Y146.543 E31.45828
G1 X104.79 Y143.593 E31.59704
G1 X104.79 Y42.073 E34.97361
G1 X107.74 Y39.123 E35.11237
G1 X112.26 Y39.123 E35.2627
G1 X115.21 Y42.073 E35.40146
G1 X115.21 Y143.593 E38.77803
G1 X112.26 Y146.543 E38.91679
G0 F6000 X112.457 Y146.74
G0 X107.651 Y146.759
G0 X104.574 Y143.682
G0 X104.51 Y143.416
G0 X104.949 Y143.416
G1 F600 X107.915 Y146.382 E39.0563
G0 F6000 X108.481 Y146.382
G1 F600 X104.949 Y142.85 E39.22244
G0 F6000 X104.949 Y142.284
G1 F600 X109.047 Y146.382 E39.41519
G0 F6000 X109.612 Y146.382
G1 F600 X104.949 Y141.719 E39.63453
G0 F6000 X104.949 Y141.153
G1 F600 X110.178 Y146.382 E39.88048
G0 F6000 X110.744 Y146.382
G1 F600 X104.949 Y140.587 E40.15306
G0 F6000 X104.949 Y140.021
G1 F600 X111.309 Y146.382 E40.45224
G0 F6000 X111.875 Y146.382
G1 F600 X104.949 Y139.456 E40.77802
G0 F6000 X104.949 Y138.89
G1 F600 X112.318 Y146.259 E41.12463
G0 F6000 X112.601 Y145.976
G1 F600 X104.949 Y138.324 E41.48456
G0 F6000 X104.949 Y137.759
G1 F600 X112.883 Y145.693 E41.85775
G0 F6000 X113.166 Y145.41
G1 F600 X104.949 Y137.193 E42.24425
G0 F6000 X104.949 Y136.627
G1 F600 X113.449 Y145.128 E42.64409
G0 F6000 X113.732 Y144.845
G1 F600 X104.949 Y136.062 E43.05722
G0 F6000 X104.949 Y135.496
G1 F600 X114.015 Y144.562 E43.48365
G0 F6000 X114.298 Y144.279
G1 F600 X104.949 Y134.93 E43.9234
G0 F6000 X104.949 Y134.365
G1 F600 X114.58 Y143.996 E44.37641
G0 F6000 X114.863 Y143.713
G1 F600 X104.949 Y133.799 E44.84274
G0 F6000 X104.949 Y133.233
G1 F600 X115.05 Y143.334 E45.31786
G0 F6000 X115.05 Y142.769
G1 F600 X104.949 Y132.668 E45.79298
G0 F6000 X104.949 Y132.102
G1 F600 X115.05 Y142.203 E46.2681
G0 F6000 X115.05 Y141.637
G1 F600 X104.949 Y131.536 E46.74322
G0 F6000 X104.949 Y130.971
G1 F600 X115.05 Y141.072 E47.21834
G0 F6000 X115.05 Y140.506
G1 F600 X104.949 Y130.405 E47.69346
G0 F6000 X104.949 Y129.839
G1 F600 X115.05 Y139.94 E48.16858
G0 F6000 X115.05 Y139.374
G1 F600 X104.949 Y129.273 E48.6437
G0 F6000 X104.949 Y128.708
G1 F600 X115.05 Y138.809 E49.11882
G0 F6000 X115.05 Y138.243
G1 F600 X104.949 Y128.142 E49.59394
G0 F6000 X104.949 Y127.576
G1 F600 X115.05 Y137.677 E50.06906
G0 F6000 X115.05 Y137.112
G1 F600 X104.949 Y127.011 E50.54418
G0 F6000 X104.949 Y126.445
G1 F600 X115.05 Y136.546 E51.0193
G0 F6000 X115.05 Y135.98
G1 F600 X104.949 Y125.879 E51.49442
G0 F6000 X104.949 Y125.314
G1 F600 X115.05 Y135.415 E51.96954
G0 F6000 X115.05 Y134.849
G1 F600 X104.949 Y124.748 E52.44466
G0 F6000 X104.949 Y124.182
G1 F600 X115.05 Y134.283 E52.91978
G0 F6000 X115.05 Y133.718
G1 F600 X104.949 Y123.617 E53.3949
G0 F6000 X104.949 Y123.051
G1 F600 X115.05 Y133.152 E53.87002
G0 F6000 X115.05 Y132.586
G1 F600 X104.949 Y122.485 E54.34514
G0 F6000 X104.949 Y121.92
G1 F600 X115.05 Y132.021 E54.82026
G0 F6000 X115.05 Y131.455
G1 F600 X104.949 Y121.354 E55.29538
G0 F6000 X104.949 Y120.788
G1 F600 X115.05 Y130.889 E55.7705
G0 F6000 X115.05 Y130.324
G1 F600 X104.949 Y120.223 E56.24562
G0 F6000 X104.949 Y119.657
G1 F600 X115.05 Y129.758 E56.72074
G0 F6000 X115.05 Y129.192
G1 F600 X104.949 Y119.091 E57.19586
G0 F6000 X104.949 Y118.525
G1 F600 X115.05 Y128.626 E57.67098
G0 F6000 X115.05 Y128.061
G1 F600 X104.949 Y117.96 E58.1461
G0 F6000 X104.949 Y117.394
G1 F600 X115.05 Y127.495 E58.62122
G0 F6000 X115.05 Y126.929
G1 F600 X104.949 Y116.828 E59.09634
G0 F6000 X104.949 Y116.263
G1 F600 X115.05 Y126.364 E59.57146
G0 F6000 X115.05 Y125.798
G1 F600 X104.949 Y115.697 E60.04658
G0 F6000 X104.949 Y115.131
G1 F600 X115.05 Y125.232 E60.5217
G0 F6000 X115.05 Y124.667
G1 F600 X104.949 Y114.566 E60.99682
G0 F6000 X104.949 Y114
G1 F600 X115.05 Y124.101 E61.47194
G0 F6000 X115.05 Y123.535
G1 F600 X104.949 Y113.434 E61.94706
G0 F6000 X104.949 Y112.869
G1 F600 X115.05 Y122.97 E62.42218
G0 F6000 X115.05 Y122.404
G1 F600 X104.949 Y112.303 E62.8973
G0 F6000 X104.949 Y111.737
G1 F600 X115.05 Y121.838 E63.37242
G0 F6000 X115.05 Y121.273
G1 F600 X104.949 Y111.172 E63.84754
G0 F6000 X104.949 Y110.606
G1 F600 X115.05 Y120.707 E64.32266
G0 F6000 X115.05 Y120.141
G1 F600 X104.949 Y110.04 E64.79778
G0 F6000 X104.949 Y109.474
G1 F600 X115.05 Y119.575 E65.2729
G0 F6000 X115.05 Y119.01
G1 F600 X104.949 Y108.909 E65.74802
G0 F6000 X104.949 Y108.343
G1 F600 X115.05 Y118.444 E66.22314
G0 F6000 X115.05 Y117.878
G1 F600 X104.949 Y107.777 E66.69826
G0 F6000 X104.949 Y107.212
G1 F600 X115.05 Y117.313 E67.17338
G0 F6000 X115.05 Y116.747
G1 F600 X104.949 Y106.646 E67.6485
G0 F6000 X104.949 Y106.08
G1 F600 X115.05 Y116.181 E68.12362
G0 F6000 X115.05 Y115.616
G1 F600 X104.949 Y105.515 E68.59874
G0 F6000 X104.949 Y104.949
G1 F600 X115.05 Y115.05 E69.07386
G0 F6000 X115.05 Y114.484
G1 F600 X104.949 Y104.383 E69.54898
G0 F6000 X104.949 Y103.818
G1 F600 X115.05 Y113.919 E70.0241
G0 F6000 X115.05 Y113.353
G1 F600 X104.949 Y103.252 E70.49922
G0 F6000 X104.949 Y102.686
G1 F600 X115.05 Y112.787 E70.97434
G0 F6000 X115.05 Y112.222
G1 F600 X104.949 Y102.121 E71.44946
G0 F6000 X104.949 Y101.555
G1 F600 X115.05 Y111.656 E71.92458
G0 F6000 X115.05 Y111.09
G1 F600 X104.949 Y100.989 E72.3997
G0 F6000 X104.949 Y100.424
G1 F600 X115.05 Y110.525 E72.87482
G0 F6000 X115.05 Y109.959
G1 F600 X104.949 Y99.858 E73.34994
G0 F6000 X104.949 Y99.292
G1 F600 X115.05 Y109.393 E73.82506
G0 F6000 X115.05 Y108.827
G1 F600 X104.949 Y98.726 E74.30018
G0 F6000 X104.949 Y98.161
G1 F600 X115.05 Y108.262 E74.7753
G0 F6000 X115.05 Y107.696
G1 F600 X104.949 Y97.595 E75.25042
G0 F6000 X104.949 Y97.029
G1 F600 X115.05 Y107.13 E75.72554
G0 F6000 X115.05 Y106.565
G1 F600 X104.949 Y96.464 E76.20066
G0 F6000 X104.949 Y95.898
G1 F600 X115.05 Y105.999 E76.67578
G0 F6000 X115.05 Y105.433
G1 F600 X104.949 Y95.332 E77.1509
G0 F6000 X104.949 Y94.767
G1 F600 X115.05 Y104.868 E77.62602
G0 F6000 X115.05 Y104.302
G1 F600 X104.949 Y94.201 E78.10114
G0 F6000 X104.949 Y93.635
G1 F600 X115.05 Y103.736 E78.57626
G0 F6000 X115.05 Y103.171
G1 F600 X104.949 Y93.07 E79.05138
G0 F6000 X104.948 Y92.503
G1 F600 X115.05 Y102.605 E79.52655
G0 F6000 X115.05 Y102.039
G1 F600 X104.948 Y91.938 E80.00169
G0 F6000 X104.948 Y91.372
G1 F600 X115.05 Y101.474 E80.47686
G0 F6000 X115.05 Y100.908
G1 F600 X104.948 Y90.806 E80.95203
G0 F6000 X104.948 Y90.24
G1 F600 X115.05 Y100.342 E81.4272
G0 F6000 X115.05 Y99.777
G1 F600 X104.948 Y89.675 E81.90236
G0 F6000 X104.948 Y89.109
G1 F600 X115.05 Y99.211 E82.37753
G0 F6000 X115.05 Y98.645
G1 F600 X104.948 Y88.543 E82.8527
G0 F6000 X104.948 Y87.978
G1 F600 X115.05 Y98.079 E83.32784
G0 F6000 X115.05 Y97.514
G1 F600 X104.948 Y87.412 E83.80301
G0 F6000 X104.948 Y86.846
G1 F600 X115.05 Y96.948 E84.27817
G0 F6000 X115.05 Y96.382
G1 F600 X104.948 Y86.281 E84.75332
G0 F6000 X104.948 Y85.715
G1 F600 X115.05 Y95.817 E85.22849
G0 F6000 X115.05 Y95.251
G1 F600 X104.948 Y85.149 E85.70365
G0 F6000 X104.948 Y84.584
G1 F600 X115.05 Y94.685 E86.1788
G0 F6000 X115.05 Y94.12
G1 F600 X104.948 Y84.018 E86.65396
G0 F6000 X104.948 Y83.452
G1 F600 X115.05 Y93.554 E87.12913
G0 F6000 X115.05 Y92.988
G1 F600 X104.948 Y82.887 E87.60427
G0 F6000 X104.948 Y82.321
G1 F600 X115.049 Y92.422 E88.07939
G0 F6000 X115.049 Y91.856
G1 F600 X104.948 Y81.755 E88.55451
G0 F6000 X104.948 Y81.19
G1 F600 X115.049 Y91.291 E89.02963
G0 F6000 X115.049 Y90.725
G1 F600 X104.948 Y80.624 E89.50475
G0 F6000 X104.948 Y80.058
G1 F600 X115.049 Y90.159 E89.97987
G0 F6000 X115.049 Y89.593
G1 F600 X104.948 Y79.492 E90.45499
G0 F6000 X104.948 Y78.927
G1 F600 X115.049 Y89.028 E90.93011
G0 F6000 X115.049 Y88.462
G1 F600 X104.948 Y78.361 E91.40523
G0 F6000 X104.948 Y77.795
G1 F600 X115.049 Y87.896 E91.88035
G0 F6000 X115.049 Y87.331
G1 F600 X104.948 Y77.23 E92.35547
G0 F6000 X104.948 Y76.664
G1 F600 X115.049 Y86.765 E92.83059
G0 F6000 X115.049 Y86.199
G1 F600 X104.948 Y76.098 E93.30571
G0 F6000 X104.948 Y75.533
G1 F600 X115.049 Y85.634 E93.78083
G0 F6000 X115.049 Y85.068
G1 F600 X104.948 Y74.967 E94.25595
G0 F6000 X104.948 Y74.401
G1 F600 X115.049 Y84.502 E94.73107
G0 F6000 X115.049 Y83.937
G1 F600 X104.948 Y73.836 E95.2062
G0 F6000 X104.948 Y73.27
G1 F600 X115.049 Y83.371 E95.68132
G0 F6000 X115.049 Y82.805
G1 F600 X104.948 Y72.704 E96.15644
G0 F6000 X104.948 Y72.139
G1 F600 X115.049 Y82.24 E96.63156
G0 F6000 X115.049 Y81.674
G1 F600 X104.948 Y71.573 E97.10668
G0 F6000 X104.948 Y71.007
G1 F600 X115.049 Y81.108 E97.5818
G0 F6000 X115.049 Y80.542
G1 F600 X104.948 Y70.441 E98.05692
G0 F6000 X104.948 Y69.876
G1 F600 X115.049 Y79.977 E98.53204
G0 F6000 X115.049 Y79.411
G1 F600 X104.948 Y69.31 E99.00716
G0 F6000 X104.948 Y68.744
G1 F600 X115.049 Y78.845 E99.48228
G0 F6000 X115.049 Y78.28
G1 F600 X104.948 Y68.179 E99.9574
G0 F6000 X104.948 Y67.613
G1 F600 X115.049 Y77.714 E100.43252
G0 F6000 X115.049 Y77.148
G1 F600 X104.948 Y67.047 E100.90764
G0 F6000 X104.948 Y66.482
G1 F600 X115.049 Y76.583 E101.38276
G0 F6000 X115.049 Y76.017
G1 F600 X104.948 Y65.916 E101.85788
G0 F6000 X104.948 Y65.35
G1 F600 X115.049 Y75.451 E102.333
G0 F6000 X115.049 Y74.886
G1 F600 X104.948 Y64.785 E102.80812
G0 F6000 X104.948 Y64.219
G1 F600 X115.049 Y74.32 E103.28324
G0 F6000 X115.049 Y73.754
G1 F600 X104.948 Y63.653 E103.75836
G0 F6000 X104.948 Y63.088
G1 F600 X115.049 Y73.189 E104.23348
G0 F6000 X115.049 Y72.623
G1 F600 X104.948 Y62.522 E104.7086
G0 F6000 X104.948 Y61.956
G1 F600 X115.049 Y72.057 E105.18372
G0 F6000 X115.049 Y71.492
G1 F600 X104.948 Y61.391 E105.65884
G0 F6000 X104.948 Y60.825
G1 F600 X115.049 Y70.926 E106.13396
G0 F6000 X115.049 Y70.36
G1 F600 X104.948 Y60.259 E106.60908
G0 F6000 X104.948 Y59.693
G1 F600 X115.049 Y69.794 E107.0842
G0 F6000 X115.049 Y69.229
G1 F600 X104.948 Y59.128 E107.55932
G0 F6000 X104.948 Y58.562
G1 F600 X115.049 Y68.663 E108.03444
G0 F6000 X115.049 Y68.097
G1 F600 X104.948 Y57.996 E108.50956
G0 F6000 X104.948 Y57.431
G1 F600 X115.049 Y67.532 E108.98468
G0 F6000 X115.049 Y66.966
G1 F600 X104.948 Y56.865 E109.4598
G0 F6000 X104.948 Y56.299
G1 F600 X115.049 Y66.4 E109.93492
G0 F6000 X115.049 Y65.835
G1 F600 X104.948 Y55.734 E110.41004
G0 F6000 X104.948 Y55.168
G1 F600 X115.049 Y65.269 E110.88516
G0 F6000 X115.049 Y64.703
G1 F600 X104.948 Y54.602 E111.36028
G0 F6000 X104.948 Y54.037
G1 F600 X115.049 Y64.138 E111.8354
G0 F6000 X115.049 Y63.572
G1 F600 X104.948 Y53.471 E112.31052
G0 F6000 X104.948 Y52.905
G1 F600 X115.049 Y63.006 E112.78564
G0 F6000 X115.049 Y62.441
G1 F600 X104.948 Y52.34 E113.26076
G0 F6000 X104.948 Y51.774
G1 F600 X115.049 Y61.875 E113.73588
G0 F6000 X115.049 Y61.309
G1 F600 X104.948 Y51.208 E114.211
G0 F6000 X104.948 Y50.642
G1 F600 X115.049 Y60.744 E114.68614
G0 F6000 X115.049 Y60.178
G1 F600 X104.948 Y50.077 E115.16126
G0 F6000 X104.948 Y49.511
G1 F600 X115.049 Y59.612 E115.63638
G0 F6000 X115.049 Y59.046
G1 F600 X104.948 Y48.945 E116.1115
G0 F6000 X104.948 Y48.38
G1 F600 X115.049 Y58.481 E116.58662
G0 F6000 X115.049 Y57.915
G1 F600 X104.948 Y47.814 E117.06174
G0 F6000 X104.948 Y47.248
G1 F600 X115.049 Y57.349 E117.53686
G0 F6000 X115.049 Y56.784
G1 F600 X104.948 Y46.683 E118.01198
G0 F6000 X104.948 Y46.117
G1 F600 X115.049 Y56.218 E118.4871
G0 F6000 X115.049 Y55.652
G1 F600 X104.948 Y45.551 E118.96222
G0 F6000 X104.948 Y44.986
G1 F600 X115.049 Y55.087 E119.43734
G0 F6000 X115.049 Y54.521
G1 F600 X104.948 Y44.42 E119.91246
G0 F6000 X104.948 Y43.854
G1 F600 X115.049 Y53.955 E120.38758
G0 F6000 X115.049 Y53.39
G1 F600 X104.948 Y43.289 E120.8627
G0 F6000 X104.948 Y42.723
G1 F600 X115.049 Y52.824 E121.33782
G0 F6000 X115.049 Y52.258
G1 F600 X104.948 Y42.157 E121.81294
G0 F6000 X105.221 Y41.864
G1 F600 X115.049 Y51.693 E122.27525
G0 F6000 X115.049 Y51.127
G1 F600 X105.504 Y41.582 E122.72421
G0 F6000 X105.787 Y41.299
M104 S240
G1 F600 X115.049 Y50.561 E123.15987
G0 F6000 X115.049 Y49.995
G1 F600 X106.07 Y41.016 E123.58221
G0 F6000 X106.353 Y40.733
G1 F600 X115.049 Y49.43 E123.99127
G0 F6000 X115.049 Y48.864
G1 F600 X106.635 Y40.45 E124.38704
G0 F6000 X106.918 Y40.167
G1 F600 X115.049 Y48.298 E124.7695
G0 F6000 X115.049 Y47.733
G1 F600 X107.201 Y39.885 E125.13864
G0 F6000 X107.484 Y39.602
G1 F600 X115.049 Y47.167 E125.49448
G0 F6000 X115.049 Y46.601
G1 F600 X107.767 Y39.319 E125.837
G0 F6000 X108.296 Y39.283
G1 F600 X115.049 Y46.036 E126.15464
G0 F6000 X115.049 Y45.47
G1 F600 X108.862 Y39.283 E126.44566
G0 F6000 X109.428 Y39.283
G1 F600 X115.049 Y44.904 E126.71005
G0 F6000 X115.049 Y44.339
G1 F600 X109.993 Y39.283 E126.94787
G0 F6000 X110.559 Y39.283
G1 F600 X115.049 Y43.773 E127.15907
G0 F6000 X115.049 Y43.207
G1 F600 X111.125 Y39.283 E127.34364
G0 F6000 X111.691 Y39.283
G1 F600 X115.049 Y42.642 E127.50161
G0 F6000 X115.79 Y42.642
G1 F2700 E122.50161
;MESH:NONMESH
G0 F300 X115.79 Y42.642 Z0.4
G0 F6000 X115.426 Y143.682
G0 X112.42 Y146.933
;TIME_ELAPSED:401.657103
;LAYER:1
M140 S70
M106 S42.5
;TYPE:WALL-INNER
;MESH:bump_plate.obj
G1 F2700 E127.50161
G1 F1500 X107.58 Y146.933 E127.66259
G1 X104.4 Y143.753 E127.81217
G1 X104.4 Y41.913 E131.19938
G1 X107.58 Y38.733 E131.34896
G1 X112.42 Y38.733 E131.50994
G1 X115.6 Y41.913 E131.65952
G1 X115.6 Y143.753 E135.04673
G1 X112.42 Y146.933 E135.19631
G0 F9000 X112.586 Y147.333
G1 F1500 X107.414 Y147.333 E135.36833
G1 X104 Y143.919 E135.52891
G1 X104 Y41.747 E138.92717
G1 X107.414 Y38.333 E139.08775
G1 X112.586 Y38.333 E139.25977
G1 X116 Y41.747 E139.42035
G1 X116 Y143.919 E142.81861
G1 X112.586 Y147.333 E142.97919
G0 F9000 X112.752 Y147.733
G1 F1500 X107.248 Y147.733 E143.16226
G1 X103.6 Y144.085 E143.33385
G1 X103.6 Y41.581 E146.74314
G1 X107.248 Y37.933 E146.91474
G1 X112.752 Y37.933 E147.0978
G1 X116.4 Y41.581 E147.26939
G1 X116.4 Y144.085 E150.67869
G1 X112.752 Y147.733 E150.85028
G0 F9000 X112.918 Y148.133
;TYPE:WALL-OUTER
G1 F1500 X107.082 Y148.133 E151.04438
G1 X103.2 Y144.251 E151.22698
G1 X103.2 Y41.415 E154.64732
G1 X107.082 Y37.533 E154.82992
G1 X112.918 Y37.533 E155.02402
G1 X116.8 Y41.415 E155.20662
G1 X116.8 Y144.251 E158.62696
G1 X112.918 Y148.133 E158.80956
G0 F9000 X112.75 Y147.727
G0 X112.457 Y146.74
G0 X112.26 Y146.543
;TYPE:SKIN
