;FLAVOR:Marlin
;TIME:778
;Filament used: 0.534511m
;Layer height: 0.2
;MINX:96.853
;MINY:96.849
;MINZ:0.24
;MAXX:123.154
;MAXY:123.138
;MAXZ:8.09
;Generated with Cura_SteamEngine 4.8.0
M140 S50
M105
M190 S50
M104 S200
M105
M109 S200
M82 ;absolute extrusion mode
M201 X500.00 Y500.00 Z100.00 E5000.00 ;Setup machine max acceleration
M203 X500.00 Y500.00 Z10.00 E50.00 ;Setup machine max feedrate
M204 P500.00 R1000.00 T500.00 ;Setup Print/Retract/Travel acceleration
M205 X8.00 Y8.00 Z0.40 E5.00 ;Setup Jerk
M220 S100 ;Reset Feedrate
M221 S100 ;Reset Flowrate

G28 ;Home

G92 E0 ;Reset Extruder
G1 Z2.0 F3000 ;Move Z Axis up
G1 X10.1 Y20 Z0.28 F5000.0 ;Move to start position
G1 X10.1 Y200.0 Z0.28 F1500.0 E15 ;Draw the first line
G1 X10.4 Y200.0 Z0.28 F5000.0 ;Move to side a little
G1 X10.4 Y20 Z0.28 F1500.0 E30 ;Draw the second line
G92 E0 ;Reset Extruder
G1 Z2.0 F3000 ;Move Z Axis up

G92 E0
G92 E0
G1 F2700 E-5
;LAYER_COUNT:35
;LAYER:-6
M107
G0 F12000 X100.268 Y100.287 Z0.24
;TYPE:SUPPORT-INTERFACE
G1 F2700 E0
G1 F1800 X100.379 Y100.176 E0.01253
G1 X100.558 Y100.008 E0.03213
G1 X100.68 Y99.902 E0.04503
G1 X101.03 Y99.613 E0.08126
G1 X101.141 Y99.526 E0.09252
G1 X101.354 Y99.372 E0.1135
G1 X101.492 Y99.279 E0.12678
G1 X101.87 Y99.04 E0.16248
G1 X101.99 Y98.97 E0.17357
G1 X102.235 Y98.836 E0.19586
G1 X102.358 Y98.773 E0.20689
G1 X102.782 Y98.574 E0.24428
G1 X102.897 Y98.525 E0.25426
G1 X103.172 Y98.416 E0.27787
G1 X103.276 Y98.379 E0.28668
G1 X103.749 Y98.226 E0.32637
G1 X103.845 Y98.198 E0.33435
G1 X104.121 Y98.128 E0.35708
G1 X104.284 Y98.091 E0.37042
G1 X104.738 Y98.005 E0.40731
G1 X104.857 Y97.987 E0.41691
G1 X105.127 Y97.954 E0.43863
G1 X105.291 Y97.939 E0.45177
G1 X105.735 Y97.912 E0.48728
G1 X105.887 Y97.907 E0.49942
G1 X106.159 Y97.908 E0.52113
G1 X106.291 Y97.912 E0.53167
G1 X106.759 Y97.942 E0.56911
G1 X106.865 Y97.952 E0.57761
G1 X107.146 Y97.987 E0.60021
G1 X107.301 Y98.012 E0.61274
G1 X107.74 Y98.096 E0.64842
G1 X107.909 Y98.134 E0.66225
G1 X108.129 Y98.191 E0.68039
G1 X108.392 Y98.267 E0.70224
G1 X108.998 Y98.422 E0.75217
G1 X109.675 Y98.506 E0.80663
G1 X110.357 Y98.504 E0.86107
G1 X111.034 Y98.417 E0.91555
G1 X111.645 Y98.259 E0.96593
G1 X111.749 Y98.225 E0.97467
G1 X111.845 Y98.198 E0.98263
G1 X112.121 Y98.128 E1.00536
G1 X112.284 Y98.091 E1.0187
G1 X112.738 Y98.005 E1.05558
G1 X112.857 Y97.987 E1.06519
G1 X113.127 Y97.954 E1.0869
G1 X113.291 Y97.939 E1.10005
G1 X113.735 Y97.912 E1.13556
G1 X113.887 Y97.907 E1.1477
G1 X114.159 Y97.908 E1.16941
G1 X114.291 Y97.912 E1.17995
G1 X114.759 Y97.942 E1.21738
G1 X114.865 Y97.952 E1.22588
G1 X115.146 Y97.987 E1.24849
G1 X115.301 Y98.012 E1.26102
G1 X115.74 Y98.096 E1.2967
G1 X115.909 Y98.134 E1.31053
G1 X116.135 Y98.192 E1.32915
G1 X116.299 Y98.24 E1.34279
G1 X116.763 Y98.392 E1.38177
G1 X116.863 Y98.428 E1.39025
G1 X117.137 Y98.538 E1.41382
G1 X117.25 Y98.587 E1.42365
G1 X117.666 Y98.784 E1.46039
G1 X117.775 Y98.84 E1.47017
G1 X118.035 Y98.984 E1.4939
G1 X118.16 Y99.057 E1.50545
G1 X118.532 Y99.295 E1.54071
G1 X118.662 Y99.384 E1.55328
G1 X118.874 Y99.539 E1.57425
G1 X118.992 Y99.631 E1.58619
G1 X119.353 Y99.93 E1.62361
G1 X119.448 Y100.014 E1.63373
G1 X119.646 Y100.202 E1.65552
G1 X119.759 Y100.315 E1.66828
G1 X120.048 Y100.624 E1.70205
G1 X120.168 Y100.76 E1.71653
G1 X120.317 Y100.94 E1.73518
G1 X120.422 Y101.076 E1.7489
G1 X120.684 Y101.439 E1.78463
G1 X120.766 Y101.559 E1.79624
G1 X120.921 Y101.804 E1.81938
G1 X120.979 Y101.903 E1.82854
G1 X121.209 Y102.322 E1.86669
G1 X121.266 Y102.436 E1.87687
G1 X121.385 Y102.688 E1.89911
G1 X121.44 Y102.815 E1.91016
G1 X121.605 Y103.236 E1.94625
G1 X121.66 Y103.389 E1.95923
G1 X121.744 Y103.649 E1.98104
G1 X121.781 Y103.775 E1.99152
G1 X121.898 Y104.232 E2.02918
G1 X121.925 Y104.356 E2.03931
G1 X121.98 Y104.646 E2.06287
G1 X122 Y104.777 E2.07345
G1 X122.052 Y105.191 E2.10676
G1 X122.068 Y105.346 E2.1192
G1 X122.085 Y105.608 E2.14015
G1 X122.09 Y105.764 E2.15261
G1 X122.089 Y106.229 E2.18973
G1 X122.083 Y106.4 E2.20339
G1 X122.07 Y106.614 E2.2205
G1 X122.052 Y106.809 E2.23614
G1 X121.994 Y107.262 E2.27259
G1 X121.975 Y107.383 E2.28237
G1 X121.919 Y107.672 E2.30587
G1 X121.89 Y107.803 E2.31658
G1 X121.781 Y108.226 E2.35145
G1 X121.603 Y108.841 E2.40255
G1 X121.622 Y108.847 E2.40414
G1 X121.567 Y109.077 E2.42302
G1 X121.493 Y109.757 E2.47762
G1 X121.505 Y110.439 E2.53207
G1 X121.593 Y111.052 E2.5815
G1 X121.572 Y111.052 E2.58318
G1 X121.778 Y111.762 E2.64219
G1 X121.898 Y112.232 E2.68091
G1 X121.925 Y112.356 E2.69104
G1 X121.98 Y112.646 E2.71461
G1 X122 Y112.777 E2.72518
G1 X122.052 Y113.191 E2.75849
G1 X122.068 Y113.346 E2.77093
G1 X122.085 Y113.608 E2.79189
G1 X122.09 Y113.764 E2.80435
G1 X122.089 Y114.229 E2.84146
G1 X122.083 Y114.4 E2.85512
G1 X122.07 Y114.614 E2.87224
G1 X122.052 Y114.809 E2.88787
G1 X121.994 Y115.262 E2.92432
G1 X121.975 Y115.383 E2.9341
G1 X121.919 Y115.672 E2.9576
G1 X121.89 Y115.803 E2.96831
G1 X121.78 Y116.227 E3.00328
G1 X121.735 Y116.384 E3.01631
G1 X121.656 Y116.63 E3.03694
G1 X121.601 Y116.778 E3.04954
G1 X121.433 Y117.204 E3.08609
G1 X121.379 Y117.325 E3.09667
G1 X121.25 Y117.598 E3.12077
G1 X121.202 Y117.694 E3.12934
G1 X120.978 Y118.101 E3.16643
G1 X120.902 Y118.229 E3.17831
G1 X120.754 Y118.46 E3.20021
G1 X120.671 Y118.583 E3.21205
G1 X120.401 Y118.952 E3.24855
G1 X120.305 Y119.074 E3.26094
G1 X120.137 Y119.276 E3.28192
G1 X120.045 Y119.381 E3.29306
G1 X119.732 Y119.713 E3.32948
G1 X119.621 Y119.824 E3.34201
G1 X119.442 Y119.992 E3.36161
G1 X119.32 Y120.098 E3.37451
G1 X118.969 Y120.387 E3.4108
G1 X118.859 Y120.474 E3.422
G1 X118.645 Y120.628 E3.44304
G1 X118.504 Y120.723 E3.45661
G1 X118.13 Y120.96 E3.49196
G1 X118.01 Y121.03 E3.50305
G1 X117.765 Y121.164 E3.52534
G1 X117.642 Y121.227 E3.53637
G1 X117.207 Y121.431 E3.57472
G1 X117.111 Y121.471 E3.58302
G1 X116.827 Y121.585 E3.60745
G1 X116.724 Y121.621 E3.61616
G1 X116.251 Y121.774 E3.65585
G1 X116.155 Y121.802 E3.66383
G1 X115.877 Y121.872 E3.68671
G1 X115.716 Y121.909 E3.6999
G1 X115.262 Y121.995 E3.73678
G1 X115.143 Y122.013 E3.74639
G1 X114.873 Y122.046 E3.7681
G1 X114.709 Y122.061 E3.78125
G1 X114.265 Y122.088 E3.81676
G1 X114.113 Y122.093 E3.8289
G1 X113.841 Y122.092 E3.85061
G1 X113.709 Y122.088 E3.86115
G1 X113.241 Y122.058 E3.89859
G1 X113.135 Y122.048 E3.90708
G1 X112.854 Y122.013 E3.92969
G1 X112.699 Y121.988 E3.94222
G1 X112.26 Y121.904 E3.9779
G1 X112.088 Y121.865 E3.99198
G1 X111.871 Y121.809 E4.00987
G1 X111.605 Y121.732 E4.03197
G1 X111.002 Y121.578 E4.08165
G1 X110.325 Y121.494 E4.13611
G1 X109.643 Y121.496 E4.19055
G1 X108.966 Y121.583 E4.24503
G1 X108.355 Y121.741 E4.29541
G1 X108.251 Y121.775 E4.30414
G1 X108.155 Y121.802 E4.3121
G1 X107.877 Y121.872 E4.33499
G1 X107.716 Y121.909 E4.34817
G1 X107.262 Y121.995 E4.38506
G1 X107.143 Y122.013 E4.39467
G1 X106.873 Y122.046 E4.41638
G1 X106.709 Y122.061 E4.42953
G1 X106.265 Y122.088 E4.46503
G1 X106.113 Y122.093 E4.47717
G1 X105.841 Y122.092 E4.49888
G1 X105.709 Y122.088 E4.50943
G1 X105.241 Y122.058 E4.54686
G1 X105.135 Y122.048 E4.55536
G1 X104.854 Y122.013 E4.57796
G1 X104.699 Y121.988 E4.5905
G1 X104.26 Y121.904 E4.62618
G1 X104.088 Y121.865 E4.64025
G1 X103.865 Y121.808 E4.65863
G1 X103.702 Y121.76 E4.67219
G1 X103.237 Y121.608 E4.71124
G1 X103.137 Y121.572 E4.71973
G1 X102.863 Y121.462 E4.74329
G1 X102.75 Y121.413 E4.75313
G1 X102.334 Y121.216 E4.78987
G1 X102.223 Y121.159 E4.79983
G1 X101.965 Y121.016 E4.82337
G1 X101.84 Y120.943 E4.83493
G1 X101.468 Y120.705 E4.87018
G1 X101.338 Y120.616 E4.88276
G1 X101.126 Y120.461 E4.90372
G1 X101.008 Y120.369 E4.91567
G1 X100.647 Y120.07 E4.95308
G1 X100.542 Y119.977 E4.96428
G1 X100.354 Y119.798 E4.985
G1 X100.236 Y119.68 E4.99832
G1 X99.952 Y119.376 E5.03153
G1 X99.832 Y119.24 E5.04601
G1 X99.682 Y119.058 E5.06483
G1 X99.578 Y118.924 E5.07837
G1 X99.316 Y118.561 E5.11411
G1 X99.219 Y118.418 E5.1279
G1 X99.086 Y118.208 E5.14774
G1 X99.018 Y118.092 E5.15848
G1 X98.784 Y117.665 E5.19735
G1 X98.734 Y117.564 E5.20634
G1 X98.61 Y117.301 E5.22955
G1 X98.56 Y117.185 E5.23964
G1 X98.395 Y116.764 E5.27573
G1 X98.328 Y116.577 E5.29159
G1 X98.256 Y116.352 E5.31044
G1 X98.217 Y116.218 E5.32158
G1 X98.099 Y115.754 E5.3598
G1 X98.073 Y115.634 E5.3696
G1 X98.024 Y115.373 E5.3908
G1 X97.997 Y115.2 E5.40478
G1 X97.943 Y114.767 E5.43961
G1 X97.932 Y114.651 E5.44891
G1 X97.916 Y114.388 E5.46994
G1 X97.91 Y114.222 E5.4832
G1 X97.911 Y113.755 E5.52048
G1 X97.916 Y113.595 E5.53326
G1 X97.933 Y113.343 E5.55342
G1 X97.948 Y113.193 E5.56545
G1 X98.001 Y112.77 E5.59948
G1 X98.028 Y112.601 E5.61314
G1 X98.081 Y112.329 E5.63527
G1 X98.11 Y112.197 E5.64605
G1 X98.222 Y111.763 E5.68183
G1 X98.397 Y111.159 E5.73203
G1 X98.378 Y111.153 E5.73362
G1 X98.433 Y110.923 E5.7525
G1 X98.507 Y110.243 E5.8071
G1 X98.495 Y109.561 E5.86155
G1 X98.407 Y108.948 E5.91098
G1 X98.429 Y108.948 E5.91274
G1 X98.219 Y108.226 E5.97276
G1 X98.099 Y107.754 E6.01163
G1 X98.073 Y107.634 E6.02143
G1 X98.024 Y107.373 E6.04263
G1 X97.997 Y107.2 E6.05661
G1 X97.943 Y106.767 E6.09144
G1 X97.932 Y106.651 E6.10074
G1 X97.916 Y106.388 E6.12178
G1 X97.91 Y106.222 E6.13503
G1 X97.911 Y105.755 E6.17231
G1 X97.916 Y105.595 E6.18509
G1 X97.933 Y105.343 E6.20525
G1 X97.948 Y105.193 E6.21729
G1 X98.001 Y104.77 E6.25132
G1 X98.028 Y104.601 E6.26498
G1 X98.081 Y104.329 E6.2871
G1 X98.11 Y104.197 E6.29789
G1 X98.222 Y103.763 E6.33366
G1 X98.26 Y103.63 E6.34471
G1 X98.344 Y103.37 E6.36652
G1 X98.399 Y103.222 E6.37912
G1 X98.567 Y102.796 E6.41567
G1 X98.621 Y102.675 E6.42625
G1 X98.75 Y102.402 E6.45035
G1 X98.798 Y102.306 E6.45892
G1 X99.022 Y101.899 E6.496
G1 X99.098 Y101.771 E6.50789
G1 X99.246 Y101.54 E6.52979
G1 X99.329 Y101.417 E6.54163
G1 X99.599 Y101.048 E6.57813
G1 X99.695 Y100.926 E6.59052
G1 X99.862 Y100.724 E6.61144
G1 X99.955 Y100.619 E6.62264
G1 X100.268 Y100.287 E6.65906
G0 F12000 X100.8 Y99.802
G1 F1800 X100.8 Y120.196 E8.287
G0 F12000 X102.4 Y121.247
G1 F1800 X102.4 Y98.753 E10.08257
G0 F12000 X104 Y98.158
G1 F1800 X104 Y121.842 E11.97313
G0 F12000 X105.6 Y122.081
G1 F1800 X105.6 Y97.92 E13.90176
G0 F12000 X107.2 Y97.996
G1 F1800 X107.2 Y122.005 E15.81826
G0 F12000 X108.8 Y121.626
G1 F1800 X108.8 Y98.372 E17.6745
G0 F12000 X110.4 Y98.498
G1 F1800 X110.4 Y121.503 E19.51086
G0 F12000 X112 Y121.842
G1 F1800 X112 Y98.158 E21.40142
G0 F12000 X113.6 Y97.92
G1 F1800 X113.6 Y122.081 E23.33005
G0 F12000 X115.2 Y122.005
G1 F1800 X115.2 Y97.996 E25.24656
G0 F12000 X116.8 Y98.406
G1 F1800 X116.8 Y121.595 E27.0976
G0 F12000 X118.4 Y120.789
G1 F1800 X118.4 Y99.211 E28.82005
G0 F12000 X120 Y100.573
G1 F1800 X120 Y119.429 E30.32522
G0 F12000 X121.6 Y116.781
G1 F1800 X121.6 Y111.149 E30.77479
G0 F12000 X121.6 Y108.939
G1 F1800 X121.6 Y103.224 E31.23098
G1 F2700 E26.23098
G0 F12000 X122.591 Y102.835
G0 X121.908 Y101.383
G0 X120.973 Y100.064
G0 X120.042 Y99.119
G0 X118.708 Y98.145
G0 X117.241 Y97.433
G0 X115.951 Y97.053
G0 X114.334 Y96.849
G0 X105.209 Y96.878
G0 X103.573 Y97.169
G0 X102.354 Y97.599
G0 X100.915 Y98.384
G0 X99.634 Y99.416
G0 X99.383 Y99.697
G0 X98.454 Y100.81
G0 X99.2 Y101.611
G1 F2700 E31.23098
G1 F1800 X99.2 Y118.388 E32.5702
G0 F300 X99.2 Y118.388 Z0.54
G0 F12000 X98.56 Y117.183
;TIME_ELAPSED:21.513297
;LAYER:-5
;TYPE:SUPPORT
G1 F1800 X98.61 Y117.3 E32.58289
G1 X98.734 Y117.562 E32.61182
G1 X98.784 Y117.663 E32.62306
G1 X99.017 Y118.091 E32.67168
G1 X99.086 Y118.207 E32.68515
G1 X99.219 Y118.417 E32.70996
G1 X99.315 Y118.56 E32.72714
G1 X99.578 Y118.923 E32.77187
G1 X99.682 Y119.056 E32.78871
G1 X99.832 Y119.239 E32.81232
G1 X99.952 Y119.375 E32.83042
G1 X100.236 Y119.679 E32.87193
G1 X100.354 Y119.796 E32.88851
G1 X100.542 Y119.976 E32.91448
G1 X100.646 Y120.069 E32.92841
G1 X101.008 Y120.368 E32.97525
G1 X101.126 Y120.459 E32.99012
G1 X101.338 Y120.615 E33.01639
G1 X101.468 Y120.704 E33.03211
G1 X101.84 Y120.942 E33.07617
G1 X101.964 Y121.015 E33.09053
G1 X102.222 Y121.157 E33.11991
G1 X102.333 Y121.215 E33.13241
G1 X102.75 Y121.412 E33.17843
G1 X102.862 Y121.461 E33.19063
G1 X103.137 Y121.571 E33.22018
G1 X103.214 Y121.599 E33.22835
G1 X98.405 Y116.79 E33.90696
G1 F2700 E28.90696
G0 F12000 X97.579 Y117.598
G0 X98.332 Y119.006
G0 X99.16 Y120.087
G0 X100.336 Y121.195
G0 X101.455 Y121.924
G0 X102.448 Y122.442
G0 X103.214 Y121.599
G1 F2700 E33.90696
G1 F1800 X103.236 Y121.607 E33.90929
G1 X103.702 Y121.758 E33.95817
G1 X103.864 Y121.806 E33.97503
G1 X104.087 Y121.864 E33.99802
G1 X104.26 Y121.903 E34.01572
G1 X104.698 Y121.987 E34.06022
G1 X104.854 Y122.012 E34.07598
G1 X105.068 Y122.038 E34.09749
G1 X97.963 Y114.933 E35.10008
G1 X97.942 Y114.766 E35.11688
G1 X97.931 Y114.65 E35.1285
G1 X97.915 Y114.387 E35.15479
G1 X97.909 Y114.221 E35.17137
G1 X97.91 Y113.754 E35.21797
G1 X97.915 Y113.593 E35.23404
G1 X97.922 Y113.479 E35.24543
G1 X106.515 Y122.071 E36.45793
G1 X106.708 Y122.06 E36.47722
G1 X106.873 Y122.045 E36.49375
G1 X107.142 Y122.011 E36.5208
G1 X107.262 Y121.994 E36.5329
G1 X107.716 Y121.908 E36.579
G1 X107.756 Y121.898 E36.58312
G1 X98.099 Y112.241 E37.94582
G1 X98.109 Y112.196 E37.95042
G1 X98.222 Y111.761 E37.99527
G1 X98.396 Y111.158 E38.05789
G1 X98.377 Y111.152 E38.05988
G1 X98.386 Y111.114 E38.06378
G1 X108.876 Y121.604 E39.54403
G1 X108.965 Y121.582 E39.55318
G1 X109.642 Y121.495 E39.62128
G1 X110.179 Y121.492 E39.67487
G1 X98.499 Y109.812 E41.32304
G1 X98.495 Y109.559 E41.34829
G1 X98.407 Y108.947 E41.40998
G1 X98.428 Y108.947 E41.41208
G1 X98.218 Y108.225 E41.4871
G1 X98.181 Y108.081 E41.50194
G1 X111.921 Y121.821 E43.4408
G1 X112.087 Y121.864 E43.45791
G1 X112.259 Y121.903 E43.47551
G1 X112.698 Y121.987 E43.52011
G1 X112.854 Y122.012 E43.53587
G1 X113.134 Y122.047 E43.56403
G1 X113.241 Y122.057 E43.57475
G1 X113.593 Y122.079 E43.60994
G1 X97.916 Y106.401 E45.82221
G1 X97.915 Y106.387 E45.82361
G1 X97.91 Y106.221 E45.84018
G1 X97.91 Y105.754 E45.88678
G1 X97.916 Y105.594 E45.90275
G1 X97.932 Y105.341 E45.92805
G1 X97.948 Y105.192 E45.943
G1 X97.966 Y105.037 E45.95857
G1 X114.962 Y122.033 E48.35689
G1 X115.143 Y122.011 E48.37508
G1 X115.262 Y121.994 E48.38708
G1 X115.715 Y121.908 E48.43308
G1 X115.876 Y121.871 E48.44957
G1 X116.146 Y121.803 E48.47735
G1 X98.197 Y103.854 E51.01015
G1 X98.221 Y103.762 E51.01963
G1 X98.259 Y103.629 E51.03344
G1 X98.344 Y103.369 E51.06073
G1 X98.398 Y103.221 E51.07645
G1 X98.562 Y102.805 E51.12107
G1 X117.193 Y121.435 E53.75003
G1 X117.207 Y121.43 E53.75152
G1 X117.642 Y121.225 E53.7995
G1 X117.765 Y121.163 E53.81324
G1 X118.009 Y121.029 E53.84102
G1 X118.129 Y120.959 E53.85488
G0 F12000 X118.13 Y120.959
G1 F1800 X99.039 Y101.867 E56.5489
G1 X99.097 Y101.77 E56.56017
G1 X99.245 Y101.539 E56.58755
G1 X99.328 Y101.416 E56.60235
G1 X99.598 Y101.046 E56.64806
G1 X99.613 Y101.027 E56.65047
G1 X118.97 Y120.384 E59.38196
G1 X119.32 Y120.097 E59.42712
G1 X119.442 Y119.991 E59.44324
G1 X119.621 Y119.823 E59.46774
G1 X119.722 Y119.722 E59.48199
G1 X100.276 Y100.276 E62.22603
G1 X100.378 Y100.175 E62.24036
G1 X100.556 Y100.008 E62.26471
G1 X100.679 Y99.901 E62.28098
G1 X101.028 Y99.614 E62.32606
G1 X120.385 Y118.971 E65.05754
G1 X120.4 Y118.952 E65.05996
G1 X120.67 Y118.583 E65.10558
G1 X120.753 Y118.459 E65.12047
G1 X120.901 Y118.228 E65.14785
G1 X120.959 Y118.131 E65.15912
G1 X101.868 Y99.04 E67.85307
G0 F12000 X101.869 Y99.039
G1 F1800 X101.989 Y98.97 E67.86688
G1 X102.234 Y98.835 E67.89479
G1 X102.357 Y98.773 E67.90854
G1 X102.781 Y98.574 E67.95527
G1 X102.806 Y98.563 E67.958
G1 X121.436 Y117.193 E70.58689
G1 X121.6 Y116.777 E70.63151
G1 X121.654 Y116.63 E70.64713
G1 X121.734 Y116.384 E70.67295
G1 X121.779 Y116.227 E70.68924
G1 X121.801 Y116.144 E70.69781
G1 X103.852 Y98.195 E73.23061
G1 X104.12 Y98.128 E73.25817
G1 X104.283 Y98.09 E73.27487
G1 X104.736 Y98.004 E73.32088
G1 X104.856 Y97.987 E73.33297
G1 X105.036 Y97.965 E73.35107
G1 X122.032 Y114.961 E75.74939
G1 X122.051 Y114.809 E75.76467
G1 X122.069 Y114.613 E75.78431
G1 X122.081 Y114.399 E75.8057
G1 X122.088 Y114.229 E75.82267
G1 X122.089 Y113.763 E75.86917
G1 X122.084 Y113.608 E75.88465
G1 X122.084 Y113.599 E75.88554
G1 X106.405 Y97.92 E78.09802
G1 X106.758 Y97.942 E78.13331
