;FLAVOR:Marlin
;TIME:1003
;Filament used: 0.378768m
;Layer height: 0.2
;MINX:99.855
;MINY:99.68
;MINZ:0.24
;MAXX:120.155
;MAXY:119.967
;MAXZ:43.09
;Generated with Cura_SteamEngine 4.12.1
M140 S55
M105
M190 S55
M104 S205
M105
M109 S205
M82 ;absolute extrusion mode
M201 X500.00 Y500.00 Z100.00 E5000.00 ;Setup machine max acceleration
M203 X500.00 Y500.00 Z10.00 E50.00 ;Setup machine max feedrate
M204 P500.00 R1000.00 T500.00 ;Setup Print/Retract/Travel acceleration
M205 X8.00 Y8.00 Z0.40 E5.00 ;Setup Jerk
M220 S100 ;Reset Feedrate
M221 S100 ;Reset Flowrate

G28 ;Home

G92 E0 ;Reset Extruder
G1 Z2.0 F3000 ;Move Z Axis up
G1 X10.1 Y20 Z0.28 F5000.0 ;Move to start position
G1 X10.1 Y200.0 Z0.28 F1500.0 E15 ;Draw the first line
G1 X10.4 Y200.0 Z0.28 F5000.0 ;Move to side a little
G1 X10.4 Y20 Z0.28 F1500.0 E30 ;Draw the second line
G92 E0 ;Reset Extruder
G1 Z2.0 F3000 ;Move Z Axis up

G92 E0
G92 E0
G1 F2700 E-5
;LAYER_COUNT:210
;LAYER:-6
M106 S255
G0 F12000 X103.533 Y103.428 Z0.24
;TYPE:SUPPORT-INTERFACE
G1 F2700 E0
G1 F1465.6 X103.821 Y103.148 E0.03206
G1 X103.931 Y103.048 E0.04393
G1 X104.265 Y102.763 E0.07898
G1 X104.388 Y102.664 E0.09158
G1 X104.698 Y102.431 E0.12254
G1 X104.816 Y102.348 E0.13405
G1 X105.169 Y102.115 E0.16782
G1 X105.313 Y102.027 E0.18129
G1 X105.624 Y101.847 E0.20997
G1 X105.752 Y101.778 E0.22158
G1 X106.155 Y101.577 E0.25753
G1 X106.286 Y101.516 E0.26906
G1 X106.643 Y101.365 E0.3
G1 X106.769 Y101.317 E0.31077
G1 X107.2 Y101.165 E0.34725
G1 X107.319 Y101.127 E0.35722
G1 X107.711 Y101.016 E0.38974
G1 X107.844 Y100.983 E0.40068
G1 X108.297 Y100.885 E0.43768
G1 X108.425 Y100.861 E0.44807
G1 X108.824 Y100.799 E0.4803
G1 X108.94 Y100.785 E0.48963
G1 X109.42 Y100.741 E0.52811
G1 X109.506 Y100.735 E0.53499
G1 X109.936 Y100.722 E0.56933
G1 X110.041 Y100.722 E0.57771
G1 X110.537 Y100.737 E0.61732
G1 X110.63 Y100.743 E0.62476
G1 X111.061 Y100.783 E0.65931
G1 X111.151 Y100.794 E0.66655
G1 X111.632 Y100.869 E0.70541
G1 X111.755 Y100.892 E0.7154
G1 X112.142 Y100.977 E0.74703
G1 X112.295 Y101.015 E0.75961
G1 X112.717 Y101.137 E0.79468
G1 X112.861 Y101.183 E0.80674
G1 X113.236 Y101.316 E0.8385
G1 X113.348 Y101.36 E0.84811
G1 X113.779 Y101.544 E0.88552
G1 X113.885 Y101.593 E0.89484
G1 X114.253 Y101.777 E0.92768
G1 X114.354 Y101.832 E0.93686
G1 X114.765 Y102.069 E0.97473
G1 X114.862 Y102.129 E0.98384
G1 X115.185 Y102.344 E1.01481
G1 X115.317 Y102.437 E1.0277
G1 X115.672 Y102.706 E1.06326
G1 X115.777 Y102.79 E1.07399
G1 X116.077 Y103.048 E1.10557
G1 X116.185 Y103.146 E1.11722
G1 X116.494 Y103.448 E1.15171
G1 X116.605 Y103.562 E1.16441
G1 X116.849 Y103.83 E1.19334
G1 X116.951 Y103.95 E1.20591
G1 X117.246 Y104.317 E1.2435
G1 X117.323 Y104.419 E1.2537
G1 X117.537 Y104.724 E1.28344
G1 X117.624 Y104.855 E1.29599
G1 X117.865 Y105.245 E1.33259
G1 X117.924 Y105.35 E1.3422
G1 X118.108 Y105.694 E1.37334
G1 X118.177 Y105.831 E1.38559
G1 X118.354 Y106.216 E1.41941
G1 X118.416 Y106.364 E1.43222
G1 X118.554 Y106.719 E1.46262
G1 X118.597 Y106.841 E1.47295
G1 X118.735 Y107.272 E1.50907
G1 X118.771 Y107.399 E1.51961
G1 X118.873 Y107.802 E1.5528
G1 X118.894 Y107.893 E1.56025
G1 X118.981 Y108.36 E1.59817
G1 X119.004 Y108.511 E1.61036
G1 X119.051 Y108.893 E1.64109
G1 X119.064 Y109.036 E1.65255
G1 X119.091 Y109.477 E1.68782
G1 X119.096 Y109.608 E1.69828
G1 X119.096 Y110.004 E1.72989
G1 X119.092 Y110.152 E1.74171
G1 X119.064 Y110.605 E1.77794
G1 X119.052 Y110.732 E1.78812
G1 X119.001 Y111.142 E1.8211
G1 X118.982 Y111.266 E1.83111
G1 X118.9 Y111.7 E1.86637
G1 X118.864 Y111.866 E1.87993
G1 X118.766 Y112.255 E1.91195
G1 X118.738 Y112.35 E1.91986
G1 X118.598 Y112.788 E1.95656
G1 X118.537 Y112.96 E1.97113
G1 X118.4 Y113.309 E2.00106
G1 X118.355 Y113.414 E2.01018
G1 X118.156 Y113.843 E2.04793
G1 X118.107 Y113.942 E2.05675
G1 X117.919 Y114.29 E2.08832
G1 X117.844 Y114.422 E2.10044
G1 X117.613 Y114.794 E2.13539
G1 X117.529 Y114.921 E2.14755
G1 X117.305 Y115.237 E2.17847
G1 X117.231 Y115.335 E2.18827
G1 X116.941 Y115.695 E2.22517
G1 X116.848 Y115.804 E2.23661
G1 X116.581 Y116.096 E2.26819
G1 X116.501 Y116.179 E2.27739
G1 X116.177 Y116.493 E2.31341
G1 X116.068 Y116.592 E2.32516
G1 X115.749 Y116.865 E2.35868
G1 X115.662 Y116.935 E2.36759
G1 X115.302 Y117.206 E2.40356
G1 X115.169 Y117.3 E2.41656
G1 X114.844 Y117.515 E2.44767
G1 X114.743 Y117.577 E2.45713
G1 X114.37 Y117.791 E2.49145
G1 X114.2 Y117.882 E2.50685
G1 X113.88 Y118.041 E2.53537
G1 X113.737 Y118.107 E2.54794
G1 X113.343 Y118.273 E2.58207
G1 X113.172 Y118.338 E2.59667
G1 X112.828 Y118.459 E2.62578
G1 X112.7 Y118.499 E2.63649
G1 X112.282 Y118.618 E2.67118
G1 X112.117 Y118.66 E2.68477
G1 X111.741 Y118.742 E2.71549
G1 X111.645 Y118.76 E2.72329
G1 X111.178 Y118.834 E2.76103
G1 X111.04 Y118.85 E2.77212
G1 X110.632 Y118.888 E2.80483
G1 X110.519 Y118.895 E2.81386
G1 X110.041 Y118.909 E2.85204
G1 X109.9 Y118.908 E2.86329
G1 X109.521 Y118.896 E2.89356
G1 X109.381 Y118.887 E2.90476
G1 X108.939 Y118.846 E2.94019
G1 X108.803 Y118.829 E2.95113
G1 X108.401 Y118.767 E2.9836
G1 X108.306 Y118.749 E2.99132
G1 X107.834 Y118.646 E3.02988
G1 X107.71 Y118.614 E3.04011
G1 X107.337 Y118.508 E3.07106
G1 X107.187 Y118.461 E3.08361
G1 X106.761 Y118.311 E3.11966
G1 X106.614 Y118.253 E3.13227
G1 X106.289 Y118.115 E3.16046
G1 X106.137 Y118.045 E3.17382
G1 X105.719 Y117.836 E3.21112
G1 X105.62 Y117.783 E3.22009
G1 X105.275 Y117.582 E3.25196
G1 X105.142 Y117.499 E3.26447
G1 X104.797 Y117.27 E3.29753
G1 X104.676 Y117.184 E3.30938
G1 X104.368 Y116.952 E3.34016
G1 X104.271 Y116.874 E3.35009
G1 X103.914 Y116.568 E3.38763
G1 X103.786 Y116.451 E3.40147
G1 X103.514 Y116.186 E3.43178
G1 X103.423 Y116.091 E3.44228
G1 X103.135 Y115.773 E3.47653
G1 X103.044 Y115.667 E3.48768
G1 X102.807 Y115.372 E3.51789
G1 X102.722 Y115.262 E3.52898
G1 X102.45 Y114.877 E3.56661
G1 X102.36 Y114.738 E3.57983
G1 X102.172 Y114.433 E3.60843
G1 X102.083 Y114.28 E3.62256
G1 X101.893 Y113.924 E3.65477
G1 X101.807 Y113.75 E3.67027
G1 X101.662 Y113.431 E3.69824
G1 X101.603 Y113.296 E3.71
G1 X101.443 Y112.877 E3.7458
G1 X101.388 Y112.72 E3.75908
G1 X101.28 Y112.379 E3.78763
G1 X101.236 Y112.224 E3.80049
G1 X101.133 Y111.811 E3.83447
G1 X101.1 Y111.665 E3.84642
G1 X101.032 Y111.3 E3.87606
G1 X101.011 Y111.16 E3.88736
G1 X100.955 Y110.715 E3.92316
G1 X100.94 Y110.548 E3.93654
G1 X100.918 Y110.175 E3.96637
G1 X100.913 Y110.034 E3.97763
G1 X100.914 Y109.57 E4.01467
G1 X100.918 Y109.44 E4.02505
G1 X100.941 Y109.066 E4.05496
G1 X100.957 Y108.899 E4.06835
G1 X101.015 Y108.439 E4.10536
G1 X101.031 Y108.339 E4.11345
G1 X101.109 Y107.927 E4.14692
G1 X101.132 Y107.821 E4.15558
G1 X101.256 Y107.335 E4.19562
G1 X101.282 Y107.244 E4.20317
G1 X101.411 Y106.84 E4.23702
G1 X101.444 Y106.75 E4.24467
G1 X101.611 Y106.32 E4.2815
G1 X101.682 Y106.153 E4.29598
G1 X101.83 Y105.834 E4.32405
G1 X101.892 Y105.708 E4.33526
G1 X102.117 Y105.288 E4.3733
G1 X102.158 Y105.217 E4.37984
G1 X102.372 Y104.872 E4.41225
G1 X102.457 Y104.743 E4.42458
G1 X102.734 Y104.353 E4.46277
G1 X102.793 Y104.276 E4.47051
G1 X103.053 Y103.953 E4.50361
G1 X103.149 Y103.842 E4.51532
G1 X103.442 Y103.521 E4.55001
G1 X103.533 Y103.428 E4.5604
G0 F12000 X104 Y102.989
G1 F1465.6 X104 Y116.641 E5.65016
G0 F12000 X105.6 Y117.771
G1 F1465.6 X105.6 Y101.86 E6.92025
G0 F12000 X107.2 Y101.165
G1 F1465.6 X107.2 Y118.465 E8.30121
G0 F12000 X108.8 Y118.828
G1 F1465.6 X108.8 Y100.802 E9.74012
G0 F12000 X110.4 Y100.733
G1 F1465.6 X110.4 Y118.899 E11.19021
G0 F12000 X112 Y118.686
G1 F1465.6 X112 Y100.946 E12.60629
G0 F12000 X113.6 Y101.468
G1 F1465.6 X113.6 Y118.165 E13.93912
G0 F12000 X115.2 Y117.279
G1 F1465.6 X115.2 Y102.355 E15.13042
G0 F12000 X116.8 Y103.777
G1 F1465.6 X116.8 Y115.857 E16.0947
M104 S200
G0 F12000 X118.4 Y113.309
G1 F1465.6 X118.4 Y106.326 E16.65211
G1 F2700 E11.65211
G0 F12000 X119.331 Y105.793
G0 X118.525 Y104.288
G0 X117.653 Y103.132
G0 X116.463 Y101.977
G0 X115.306 Y101.152
G0 X113.757 Y100.378
G0 X112.39 Y99.942
G0 X110.711 Y99.682
G0 X109.338 Y99.68
G0 X107.609 Y99.945
G0 X106.25 Y100.375
G0 X104.764 Y101.115
G0 X103.59 Y101.941
G0 X102.474 Y103.019
G0 X101.582 Y104.136
G0 X102.4 Y104.829
G1 F2700 E16.65211
G1 F1465.6 X102.4 Y114.799 E17.44796
G0 F300 X102.4 Y114.799 Z0.54
G0 F12000 X101.388 Y112.719
;TIME_ELAPSED:15.861476
;LAYER:-5
M140 S50
;TYPE:SUPPORT
G1 F1763.4 X101.442 Y112.876 E17.46452
G1 X101.602 Y113.295 E17.50928
G1 X101.662 Y113.429 E17.52393
G1 X101.807 Y113.748 E17.55889
G1 X101.892 Y113.923 E17.5783
G1 X102.082 Y114.279 E17.61857
G1 X102.171 Y114.431 E17.63614
G1 X102.36 Y114.737 E17.67203
G1 X102.449 Y114.876 E17.6885
G1 X102.721 Y115.261 E17.73553
G1 X102.806 Y115.37 E17.74933
G1 X103.044 Y115.666 E17.78722
G1 X103.135 Y115.772 E17.80116
G1 X103.422 Y116.089 E17.84383
G1 X103.514 Y116.185 E17.8571
G1 X103.786 Y116.45 E17.89499
G1 X103.914 Y116.567 E17.91229
G1 X104.271 Y116.873 E17.95921
G1 X104.367 Y116.951 E17.97155
G1 X104.675 Y117.183 E18.01003
G1 X104.797 Y117.269 E18.02492
G1 X105.141 Y117.497 E18.0661
G1 X105.274 Y117.581 E18.0818
G1 X105.619 Y117.782 E18.12164
G1 X105.718 Y117.835 E18.13284
G1 X106.136 Y118.044 E18.17947
G1 X106.288 Y118.114 E18.19617
G1 X106.613 Y118.252 E18.2314
G1 X106.76 Y118.31 E18.24717
G1 X107.123 Y118.437 E18.28554
G1 X101.38 Y112.693 E19.09601
G1 X101.279 Y112.378 E19.12902
G1 X101.236 Y112.223 E19.14507
G1 X101.133 Y111.81 E19.18754
G1 X101.1 Y111.664 E19.20248
G1 X101.032 Y111.299 E19.23952
G1 X101.01 Y111.159 E19.25367
G1 X100.974 Y110.874 E19.28233
G1 X108.946 Y118.846 E20.40726
G1 X109.38 Y118.885 E20.45074
G1 X109.52 Y118.895 E20.46475
G1 X109.899 Y118.907 E20.50258
G1 X110.041 Y118.908 E20.51675
G1 X110.411 Y118.897 E20.55369
G1 X100.919 Y109.404 E21.89318
G1 X100.94 Y109.065 E21.92707
G1 X100.957 Y108.897 E21.94392
G1 X101.015 Y108.438 E21.99008
G1 X101.03 Y108.337 E22.00027
G1 X101.068 Y108.139 E22.02039
G1 X111.681 Y118.752 E23.518
G1 X111.741 Y118.741 E23.52409
G1 X112.116 Y118.658 E23.56241
G1 X112.281 Y118.617 E23.57937
G1 X112.7 Y118.498 E23.62283
G1 X112.807 Y118.464 E23.63404
G1 X101.355 Y107.012 E25.25004
G1 X101.411 Y106.838 E25.26828
G1 X101.444 Y106.749 E25.27775
G1 X101.611 Y106.319 E25.32378
G1 X101.681 Y106.152 E25.34184
G1 X101.753 Y105.996 E25.35899
G1 X113.822 Y118.065 E27.06205
G1 X113.879 Y118.04 E27.06826
G1 X114.199 Y117.881 E27.10392
G1 X114.369 Y117.79 E27.12316
G1 X114.743 Y117.576 E27.16615
G0 F12000 X114.745 Y117.574
G1 F1763.4 X102.245 Y105.073 E28.93011
G1 X102.372 Y104.871 E28.95392
G1 X102.456 Y104.742 E28.96928
G1 X102.734 Y104.351 E29.01715
G1 X102.792 Y104.274 E29.02677
G1 X102.822 Y104.236 E29.0316
G1 X115.58 Y116.994 E30.83189
G1 X115.661 Y116.934 E30.84195
G1 X115.748 Y116.864 E30.85309
G1 X116.068 Y116.591 E30.89506
G1 X116.176 Y116.492 E30.90968
G1 X116.336 Y116.336 E30.93198
G1 X103.48 Y103.48 E32.7461
G1 X103.532 Y103.427 E32.7535
G1 X103.82 Y103.148 E32.79351
G1 X103.93 Y103.048 E32.80835
G1 X104.217 Y102.803 E32.846
G1 X117.016 Y115.602 E34.65208
G1 X117.229 Y115.334 E34.68624
G1 X117.304 Y115.237 E34.69847
G1 X117.528 Y114.92 E34.7372
G1 X117.612 Y114.793 E34.75239
G1 X117.616 Y114.788 E34.75303
G1 X105.032 Y102.204 E36.52877
G1 X105.167 Y102.114 E36.54496
G1 X105.312 Y102.027 E36.56183
G1 X105.623 Y101.847 E36.59769
G1 X105.751 Y101.777 E36.61224
G1 X105.93 Y101.688 E36.63219
G1 X118.132 Y113.89 E38.35402
G1 X118.155 Y113.843 E38.35925
G1 X118.354 Y113.414 E38.40643
G1 X118.399 Y113.309 E38.41783
G1 X118.536 Y112.96 E38.45524
G1 X118.557 Y112.9 E38.46158
G1 X106.92 Y101.264 E40.10362
G1 X107.199 Y101.165 E40.13316
G1 X107.318 Y101.126 E40.14566
G1 X107.71 Y101.015 E40.18631
G1 X107.842 Y100.982 E40.19988
G1 X108.016 Y100.945 E40.21763
G1 X118.876 Y111.805 E41.7501
G1 X118.899 Y111.699 E41.76092
G1 X118.981 Y111.265 E41.80499
G1 X119 Y111.141 E41.81751
G1 X119.051 Y110.731 E41.85873
G1 X119.063 Y110.604 E41.87146
G1 X119.065 Y110.58 E41.87386
G1 X109.243 Y100.757 E43.25993
G1 X109.419 Y100.741 E43.27756
G1 X109.505 Y100.734 E43.28617
G1 X109.935 Y100.721 E43.32909
G1 X110.039 Y100.721 E43.33947
G1 X110.536 Y100.737 E43.38909
G1 X110.629 Y100.742 E43.39838
G1 X110.643 Y100.744 E43.39979
G1 X119.071 Y109.172 E44.58907
G1 X119.063 Y109.036 E44.60267
G1 X119.049 Y108.893 E44.617
G1 X119.003 Y108.511 E44.6554
G1 X118.98 Y108.359 E44.67073
G1 X118.892 Y107.893 E44.71805
G1 X118.872 Y107.801 E44.72745
G1 X118.79 Y107.476 E44.76089
G1 X112.342 Y101.028 E45.67078
G1 X112.716 Y101.136 E45.70962
G1 X112.859 Y101.182 E45.72461
G1 X113.235 Y101.316 E45.76444
G1 X113.347 Y101.36 E45.77644
G1 X113.778 Y101.544 E45.8232
G1 X113.883 Y101.592 E45.83472
G1 X114.252 Y101.777 E45.87591
G1 X114.353 Y101.831 E45.88734
G1 X114.764 Y102.068 E45.93468
G1 X114.85 Y102.122 E45.94481
G1 X117.69 Y104.962 E46.34556
G0 F12000 X117.623 Y104.854
G1 F1763.4 X117.536 Y104.723 E46.36126
G1 X117.322 Y104.419 E46.39835
G1 X117.245 Y104.316 E46.41118
G1 X116.95 Y103.949 E46.45817
G1 X116.847 Y103.83 E46.47387
G1 X116.604 Y103.562 E46.50997
G1 X116.493 Y103.448 E46.52584
G1 X116.184 Y103.146 E46.56896
G1 X116.075 Y103.048 E46.58358
G1 X115.776 Y102.789 E46.62305
G1 X115.671 Y102.705 E46.63647
G1 X115.316 Y102.437 E46.68085
G1 X115.184 Y102.344 E46.69696
G1 X114.861 Y102.128 E46.73573
G1 X114.85 Y102.122 E46.73698
G0 F300 X114.85 Y102.122 Z0.74
G0 F12000 X112.188 Y100.782
;TIME_ELAPSED:27.207740
;LAYER:-4
M107
;TYPE:SUPPORT-INTERFACE
G1 F2400 X111.805 Y100.698 E46.75003
G1 X111.663 Y100.672 E46.75483
G1 X111.181 Y100.596 E46.77106
G1 X111.075 Y100.584 E46.77461
G1 X110.646 Y100.544 E46.78894
G1 X110.536 Y100.537 E46.7926
G1 X110.047 Y100.522 E46.80887
G1 X109.93 Y100.522 E46.81276
G1 X109.505 Y100.535 E46.82691
G1 X109.406 Y100.542 E46.83021
G1 X108.916 Y100.586 E46.84657
G1 X108.803 Y100.601 E46.85036
G1 X108.395 Y100.664 E46.86409
G1 X108.248 Y100.691 E46.86906
G1 X107.807 Y100.786 E46.88407
G1 X107.751 Y100.8 E46.88599
G1 X112.259 Y100.8 E47.03593
G1 X112.345 Y100.822 E47.03888
G1 X112.777 Y100.947 E47.05384
G1 X112.934 Y100.996 E47.05931
G1 X113.297 Y101.125 E47.07212
G1 X113.426 Y101.176 E47.07673
G1 X113.483 Y101.2 E47.07879
G1 X106.522 Y101.2 E47.31031
G1 X106.202 Y101.335 E47.32186
G1 X106.071 Y101.395 E47.32666
G1 X105.662 Y101.599 E47.34186
G0 F12000 X105.661 Y101.6
G1 F2400 X114.347 Y101.6 E47.63076
G1 X114.459 Y101.661 E47.635
G1 X114.859 Y101.892 E47.65036
G1 X114.978 Y101.966 E47.65502
G1 X115.03 Y102 E47.65709
G1 X104.981 Y102 E47.99132
G1 X104.711 Y102.178 E48.00208
G1 X104.573 Y102.275 E48.00769
G1 X104.407 Y102.4 E48.0146
G1 X115.6 Y102.4 E48.38688
G1 X115.788 Y102.543 E48.39473
G1 X115.912 Y102.643 E48.40003
G1 X116.095 Y102.8 E48.40805
G1 X103.915 Y102.8 E48.81316
G1 X103.792 Y102.904 E48.81852
G1 X103.676 Y103.009 E48.82372
G1 X103.481 Y103.2 E48.8328
G1 X116.527 Y103.2 E49.26671
G1 X116.638 Y103.309 E49.27189
G1 X116.744 Y103.418 E49.27694
G1 X116.91 Y103.6 E49.28514
G1 X103.1 Y103.6 E49.74446
G1 X102.994 Y103.715 E49.74966
G1 X102.901 Y103.822 E49.75438
G1 X102.758 Y104 E49.76197
G1 X117.249 Y104 E50.24394
G1 X117.398 Y104.186 E50.25187
G1 X117.479 Y104.294 E50.25636
G1 X117.554 Y104.4 E50.26068
G1 X102.455 Y104.4 E50.76287
G1 X102.294 Y104.627 E50.77213
G1 X102.208 Y104.758 E50.77734
G1 X102.182 Y104.8 E50.77898
G1 X117.826 Y104.8 E51.29931
G1 X118.031 Y105.134 E51.31234
G1 X118.07 Y105.2 E51.31489
G1 X101.939 Y105.2 E51.85141
G1 X101.723 Y105.6 E51.86653
G1 X118.285 Y105.6 E52.41738
G1 X118.358 Y105.748 E52.42287
G1 X118.475 Y106 E52.43211
G1 X101.533 Y106 E52.99561
G1 X101.495 Y106.08 E52.99855
G1 X101.427 Y106.241 E53.00437
G1 X101.366 Y106.4 E53.01003
G1 X118.645 Y106.4 E53.58473
G1 X118.742 Y106.653 E53.59374
G1 X118.79 Y106.786 E53.59845
G1 X118.795 Y106.8 E53.59894
G1 X101.215 Y106.8 E54.18365
G1 X101.092 Y107.183 E54.19703
G1 X101.088 Y107.2 E54.19761
G1 X118.923 Y107.2 E54.79081
G1 X118.928 Y107.216 E54.79137
G1 X118.965 Y107.349 E54.79596
G1 X119.029 Y107.6 E54.80457
G1 X100.982 Y107.6 E55.40482
G1 X100.938 Y107.771 E55.41069
G1 X100.914 Y107.879 E55.41437
G1 X100.892 Y108 E55.41846
G1 X119.117 Y108 E56.02463
G1 X119.178 Y108.328 E56.03572
G1 X119.19 Y108.4 E56.03815
