;FLAVOR:Marlin
;TIME:864
;Filament used: 0.592853m
;Layer height: 0.2
;MINX:93.692
;MINY:93.718
;MINZ:0.24
;MAXX:126.301
;MAXY:126.275
;MAXZ:6.69
;Generated with Cura_SteamEngine 4.12.0
M140 S50
M105
M190 S50
M104 S200
M105
M109 S200
M82 ;absolute extrusion mode
M201 X500.00 Y500.00 Z100.00 E5000.00 ;Setup machine max acceleration
M203 X500.00 Y500.00 Z10.00 E50.00 ;Setup machine max feedrate
M204 P500.00 R1000.00 T500.00 ;Setup Print/Retract/Travel acceleration
M205 X8.00 Y8.00 Z0.40 E5.00 ;Setup Jerk
M220 S100 ;Reset Feedrate
M221 S100 ;Reset Flowrate

G28 ;Home

G92 E0 ;Reset Extruder
G1 Z2.0 F3000 ;Move Z Axis up
G1 X10.1 Y20 Z0.28 F5000.0 ;Move to start position
G1 X10.1 Y200.0 Z0.28 F1500.0 E15 ;Draw the first line
G1 X10.4 Y200.0 Z0.28 F5000.0 ;Move to side a little
G1 X10.4 Y20 Z0.28 F1500.0 E30 ;Draw the second line
G92 E0 ;Reset Extruder
G1 Z2.0 F3000 ;Move Z Axis up

G92 E0
G92 E0
G1 F2700 E-5
;LAYER_COUNT:28
;LAYER:-6
M107
G0 F12000 X100.087 Y98.468 Z0.24
;TYPE:SUPPORT-INTERFACE
G1 F2700 E0
G1 F1800 X100.473 Y98.123 E0.04133
G1 X100.625 Y97.999 E0.05698
G1 X100.989 Y97.722 E0.0935
G1 X101.105 Y97.641 E0.10479
G1 X101.429 Y97.427 E0.13579
G1 X101.678 Y97.284 E0.15871
G1 X101.942 Y97.154 E0.1822
G1 X102.219 Y97.038 E0.20617
G1 X102.282 Y97.017 E0.21147
G1 X102.904 Y96.758 E0.26525
G1 X103.629 Y96.323 E0.33274
G1 X103.793 Y96.206 E0.34882
G1 X104.041 Y96.052 E0.37213
G1 X104.339 Y95.897 E0.39894
G1 X104.844 Y95.679 E0.44285
G1 X105.044 Y95.604 E0.4599
G1 X105.472 Y95.463 E0.49587
G1 X105.618 Y95.42 E0.50802
G1 X105.965 Y95.329 E0.53665
G1 X106.264 Y95.271 E0.56097
G1 X106.555 Y95.234 E0.58438
G1 X106.841 Y95.215 E0.60726
G1 X106.938 Y95.215 E0.615
G1 X107.61 Y95.17 E0.66877
G1 X108.43 Y94.995 E0.7357
G1 X108.636 Y94.934 E0.75285
G1 X108.892 Y94.875 E0.77382
G1 X109.248 Y94.821 E0.80256
G1 X109.786 Y94.781 E0.84562
G1 X110.005 Y94.774 E0.86311
G1 X110.444 Y94.78 E0.89816
G1 X110.618 Y94.788 E0.91206
G1 X110.977 Y94.816 E0.94081
G1 X111.262 Y94.857 E0.96379
G1 X111.544 Y94.915 E0.98677
G1 X111.83 Y94.993 E1.01044
G1 X111.907 Y95.019 E1.01693
G1 X112.555 Y95.194 E1.0705
G1 X113.326 Y95.293 E1.13255
G1 X113.669 Y95.31 E1.15997
G1 X113.946 Y95.343 E1.18224
G1 X114.268 Y95.404 E1.2084
G1 X114.776 Y95.541 E1.2504
G1 X114.924 Y95.587 E1.26277
G1 X115.39 Y95.753 E1.30225
G1 X115.516 Y95.803 E1.31308
G1 X115.86 Y95.952 E1.343
G1 X116.122 Y96.085 E1.36645
G1 X116.369 Y96.231 E1.38936
G1 X116.625 Y96.405 E1.41407
G1 X116.674 Y96.443 E1.41902
G1 X117.231 Y96.821 E1.47275
G1 X117.933 Y97.169 E1.53529
G1 X118.268 Y97.305 E1.56416
G1 X118.51 Y97.421 E1.58558
G1 X118.776 Y97.573 E1.61003
G1 X119.222 Y97.872 E1.65289
G1 X119.367 Y97.979 E1.66728
G1 X119.723 Y98.264 E1.70368
G1 X119.852 Y98.374 E1.71721
G1 X120.12 Y98.618 E1.74615
G1 X120.311 Y98.814 E1.76799
G1 X120.513 Y99.05 E1.79279
G1 X120.672 Y99.263 E1.81401
G1 X120.725 Y99.344 E1.82173
G1 X121.128 Y99.881 E1.87533
G1 X121.666 Y100.425 E1.9364
G1 X121.962 Y100.684 E1.9678
G1 X122.157 Y100.878 E1.98975
G1 X122.369 Y101.122 E2.01555
G1 X122.659 Y101.507 E2.05403
G1 X122.776 Y101.674 E2.07031
G1 X123.027 Y102.067 E2.10753
G1 X123.098 Y102.19 E2.11887
G1 X123.278 Y102.517 E2.14866
G1 X123.405 Y102.786 E2.17241
G1 X123.508 Y103.047 E2.19481
G1 X123.602 Y103.34 E2.21937
G1 X123.64 Y103.488 E2.23157
G1 X123.848 Y104.128 E2.28528
G1 X124.211 Y104.866 E2.35094
G1 X124.294 Y105.007 E2.364
G1 X124.418 Y105.25 E2.38577
G1 X124.544 Y105.541 E2.41109
G1 X124.685 Y105.937 E2.44464
G1 X124.732 Y106.085 E2.45704
G1 X124.866 Y106.571 E2.49728
G1 X124.9 Y106.711 E2.50878
G1 X124.978 Y107.089 E2.53959
G1 X125.018 Y107.367 E2.56201
G1 X125.041 Y107.671 E2.58634
G1 X125.046 Y107.931 E2.6071
G1 X125.025 Y108.376 E2.64266
G1 X125.034 Y109.046 E2.69615
G1 X125.125 Y109.687 E2.74783
G1 X125.18 Y109.959 E2.76998
G1 X125.215 Y110.207 E2.78997
G1 X125.237 Y110.543 E2.81685
G1 X125.231 Y111.106 E2.8618
G1 X125.222 Y111.275 E2.87531
G1 X125.175 Y111.76 E2.9142
G1 X125.161 Y111.869 E2.92297
G1 X125.096 Y112.27 E2.9554
G1 X125.035 Y112.539 E2.97742
G1 X124.95 Y112.825 E3.00124
G1 X124.849 Y113.102 E3.02477
G1 X124.797 Y113.222 E3.03521
G1 X124.568 Y113.852 E3.08872
G1 X124.407 Y114.586 E3.1487
G1 X124.356 Y114.942 E3.17741
G1 X124.302 Y115.196 E3.19814
G1 X124.217 Y115.505 E3.22372
G1 X124.103 Y115.835 E3.25159
G1 X124.063 Y115.942 E3.26071
G1 X123.848 Y116.461 E3.30555
G1 X123.814 Y116.538 E3.31227
G1 X123.631 Y116.91 E3.34536
G1 X123.492 Y117.151 E3.36757
G1 X123.331 Y117.397 E3.39104
G1 X123.159 Y117.626 E3.4139
G1 X122.591 Y118.285 E3.48335
G1 X122.605 Y118.297 E3.48482
G1 X122.287 Y118.765 E3.52999
G1 X122.089 Y119.134 E3.56342
G1 X122.042 Y119.231 E3.57202
G1 X121.89 Y119.497 E3.59648
G1 X121.734 Y119.734 E3.61912
G1 X121.484 Y120.062 E3.65204
G1 X121.347 Y120.23 E3.66935
G1 X121.039 Y120.58 E3.70656
G1 X120.953 Y120.671 E3.71656
G1 X120.67 Y120.954 E3.74851
G1 X120.449 Y121.149 E3.77203
G1 X120.22 Y121.326 E3.79514
G1 X119.98 Y121.488 E3.81825
G1 X119.6 Y121.712 E3.85346
G1 X119.046 Y122.087 E3.90686
G1 X118.588 Y122.486 E3.95535
G1 X118.357 Y122.711 E3.98109
G1 X118.153 Y122.887 E4.0026
G1 X117.897 Y123.077 E4.02805
G1 X117.451 Y123.36 E4.07021
G1 X117.274 Y123.462 E4.08652
G1 X116.886 Y123.665 E4.12147
G1 X116.731 Y123.74 E4.13522
G1 X116.412 Y123.883 E4.16312
G1 X116.133 Y123.986 E4.18686
G1 X115.85 Y124.072 E4.21047
G1 X115.572 Y124.136 E4.23325
G1 X115.499 Y124.149 E4.23916
G1 X114.844 Y124.301 E4.29284
G1 X114.031 Y124.62 E4.36255
G1 X113.837 Y124.715 E4.3798
G1 X113.593 Y124.816 E4.40088
G1 X113.277 Y124.919 E4.42741
G1 X112.713 Y125.057 E4.47375
G1 X112.542 Y125.091 E4.48767
G1 X112.06 Y125.166 E4.52661
G1 X111.94 Y125.18 E4.53625
G1 X111.575 Y125.212 E4.5655
G1 X111.261 Y125.22 E4.59057
G1 X110.978 Y125.208 E4.61319
G1 X110.695 Y125.18 E4.63589
G1 X110.616 Y125.167 E4.64228
G1 X109.945 Y125.099 E4.69611
G1 X109.027 Y125.143 E4.76948
G1 X108.925 Y125.157 E4.77769
G1 X108.664 Y125.177 E4.79859
G1 X108.312 Y125.174 E4.82669
G1 X107.687 Y125.121 E4.87676
G1 X107.515 Y125.098 E4.89061
G1 X107.047 Y125.014 E4.92857
G1 X106.911 Y124.985 E4.93967
G1 X106.542 Y124.893 E4.97002
G1 X106.273 Y124.808 E4.99254
G1 X106.001 Y124.704 E5.01579
G1 X105.743 Y124.584 E5.0385
G1 X105.677 Y124.548 E5.0445
G1 X105.065 Y124.265 E5.09832
G1 X104.238 Y124.02 E5.16717
G1 X104.025 Y123.975 E5.18455
G1 X103.762 Y123.903 E5.20632
G1 X103.434 Y123.784 E5.23417
G1 X102.935 Y123.561 E5.2778
G1 X102.749 Y123.466 E5.29447
G1 X102.33 Y123.233 E5.33274
G1 X102.246 Y123.182 E5.34059
G1 X101.912 Y122.966 E5.37234
G1 X101.681 Y122.796 E5.39523
G1 X101.461 Y122.611 E5.41818
G1 X101.234 Y122.393 E5.4433
G1 X101.19 Y122.345 E5.4485
G1 X100.702 Y121.881 E5.50225
G1 X100.008 Y121.387 E5.57025
G1 X99.819 Y121.275 E5.58779
G1 X99.607 Y121.13 E5.60829
G1 X99.333 Y120.911 E5.63629
G1 X98.921 Y120.526 E5.6813
G1 X98.791 Y120.392 E5.6962
G1 X98.469 Y120.033 E5.7347
G1 X98.388 Y119.938 E5.74466
G1 X98.153 Y119.638 E5.77508
G1 X97.991 Y119.404 E5.7978
G1 X97.833 Y119.141 E5.82229
G1 X97.702 Y118.889 E5.84496
G1 X97.669 Y118.813 E5.85158
G1 X97.359 Y118.216 E5.90527
G1 X96.891 Y117.558 E5.96973
G1 X96.702 Y117.333 E5.99319
G1 X96.533 Y117.099 E6.01623
G1 X96.362 Y116.827 E6.04187
G1 X96.118 Y116.361 E6.08386
G1 X96.036 Y116.187 E6.09922
G1 X95.856 Y115.761 E6.13613
G1 X95.798 Y115.612 E6.1489
G1 X95.679 Y115.273 E6.17757
G1 X95.601 Y114.993 E6.20078
G1 X95.541 Y114.715 E6.22348
G1 X95.497 Y114.417 E6.24752
G1 X95.49 Y114.333 E6.25425
G1 X95.389 Y113.666 E6.3081
G1 X95.173 Y112.93 E6.36933
G1 X95.046 Y112.59 E6.3983
G1 X94.968 Y112.338 E6.41936
G1 X94.893 Y112.006 E6.44653
G1 X94.814 Y111.486 E6.48851
G1 X94.798 Y111.34 E6.50024
G1 X94.763 Y110.845 E6.53985
G1 X94.759 Y110.721 E6.54975
G1 X94.756 Y110.32 E6.58176
G1 X94.772 Y110.049 E6.60343
G1 X94.809 Y109.744 E6.62796
G1 X94.858 Y109.479 E6.64947
G1 X94.883 Y109.379 E6.6577
G1 X95.004 Y108.717 E6.71142
G1 X95.038 Y107.957 E6.77215
G1 X95.028 Y107.593 E6.80121
G1 X95.039 Y107.306 E6.82414
G1 X95.073 Y106.994 E6.84919
G1 X95.167 Y106.479 E6.89098
G1 X95.199 Y106.337 E6.9026
G1 X95.319 Y105.883 E6.94008
G1 X95.371 Y105.712 E6.95435
G1 X95.48 Y105.385 E6.98187
G1 X95.597 Y105.098 E7.00661
G1 X95.724 Y104.834 E7.02999
G1 X95.858 Y104.597 E7.05172
G1 X95.916 Y104.506 E7.06034
G1 X96.246 Y103.919 E7.11409
G1 X96.566 Y103.08 E7.18577
G1 X96.599 Y102.965 E7.19532
G1 X96.686 Y102.722 E7.21592
G1 X96.834 Y102.392 E7.24479
G1 X97.112 Y101.881 E7.29123
G1 X97.228 Y101.69 E7.30907
G1 X97.485 Y101.308 E7.34582
G1 X97.548 Y101.219 E7.35452
G1 X97.805 Y100.885 E7.38816
G1 X97.966 Y100.702 E7.40762
G1 X98.183 Y100.483 E7.43223
G1 X98.4 Y100.29 E7.45541
G1 X98.464 Y100.241 E7.46185
G1 X98.967 Y99.794 E7.51556
G1 X99.49 Y99.181 E7.57988
G1 X99.689 Y98.908 E7.60685
G1 X99.842 Y98.724 E7.62595
G1 X100.087 Y98.468 E7.65424
G0 F12000 X100.8 Y97.865
G1 F1800 X100.8 Y121.974 E9.57872
G0 F12000 X99.2 Y120.786
G1 F1800 X99.2 Y99.52 E11.27627
G0 F12000 X97.6 Y101.151
G1 F1800 X97.6 Y118.68 E12.67551
G0 F12000 X96 Y116.101
G1 F1800 X96 Y104.356 E13.61304
G1 F2700 E8.61304
G0 F12000 X95.279 Y103.468
G0 X95.876 Y101.927
G0 X96.696 Y100.581
G0 X97.45 Y99.71
G0 X99.346 Y97.704
G0 X100.392 Y96.854
G0 X101.496 Y96.187
G0 X102.4 Y96.967
G1 F2700 E13.61304
G1 F1800 X102.4 Y123.271 E15.71274
G0 F12000 X104 Y123.968
G1 F1800 X104 Y96.077 E17.93912
G0 F12000 X105.6 Y95.425
G1 F1800 X105.6 Y124.512 E20.26097
G0 F12000 X107.2 Y125.041
G1 F1800 X107.2 Y95.197 E22.64325
G0 F12000 X108.8 Y94.896
G1 F1800 X108.8 Y125.167 E25.05961
G0 F12000 X110.4 Y125.145
G1 F1800 X110.4 Y94.78 E27.48348
G0 F12000 X112 Y95.045
G1 F1800 X112 Y125.173 E29.88843
G0 F12000 X113.6 Y124.814
G1 F1800 X113.6 Y95.307 E32.2438
G0 F12000 X115.2 Y95.686
G1 F1800 X115.2 Y124.219 E34.52143
G0 F12000 X116.8 Y123.707
G1 F1800 X116.8 Y96.529 E36.69089
G0 F12000 X118.4 Y97.369
G1 F1800 X118.4 Y122.67 E38.71053
G0 F12000 X120 Y121.475
G1 F1800 X120 Y98.509 E40.54378
G0 F12000 X121.6 Y100.359
G1 F1800 X121.6 Y119.91 E42.10442
G0 F12000 X123.2 Y117.572
G1 F1800 X123.2 Y102.376 E43.31743
G0 F12000 X124.8 Y106.332
G1 F1800 X124.8 Y113.216 E43.86694
G1 F2700 E38.86694
G0 F300 X124.8 Y113.216 Z0.54
G0 F12000 X125.962 Y113.157
G0 X126.232 Y111.887
G0 X126.301 Y110.516
G0 X126.027 Y106.903
G0 X125.697 Y105.606
G0 X124.225 Y102.03
G0 X123.657 Y101.075
G0 X122.468 Y101.254
;TIME_ELAPSED:26.958734
;LAYER:-5
;TYPE:SUPPORT
G1 F2700 E43.86694
G1 F1800 X118.809 Y97.596 E44.3832
G1 X119.221 Y97.872 E44.43268
G1 X119.365 Y97.978 E44.45052
G1 X119.722 Y98.264 E44.49616
G1 X119.851 Y98.374 E44.51308
G1 X120.119 Y98.618 E44.54924
G1 X120.309 Y98.813 E44.57641
G1 X120.512 Y99.05 E44.60754
G1 X120.671 Y99.262 E44.63399
G1 X120.724 Y99.344 E44.64373
G1 X121.126 Y99.88 E44.71058
G1 X121.665 Y100.425 E44.78706
G1 X121.961 Y100.684 E44.82631
G1 X122.156 Y100.877 E44.85369
G1 X122.368 Y101.122 E44.88601
G1 F2700 E39.88601
G0 F12000 X122.932 Y100.147
G0 X120.856 Y97.849
G0 X119.827 Y96.997
G0 X118.809 Y97.596
G1 F2700 E44.88601
G1 F1800 X118.774 Y97.572 E44.89025
G1 X118.509 Y97.42 E44.92073
G1 X118.267 Y97.304 E44.94751
G1 X117.932 Y97.169 E44.98355
G1 X117.23 Y96.82 E45.06177
G1 X116.673 Y96.443 E45.12888
G1 X116.623 Y96.404 E45.13521
G1 X116.367 Y96.23 E45.1661
G1 X116.121 Y96.085 E45.19459
G1 X115.859 Y95.951 E45.22395
G1 X115.667 Y95.868 E45.24482
G1 X123.809 Y104.01 E46.39375
G1 X123.847 Y104.127 E46.40602
G1 X124.209 Y104.866 E46.48813
G1 X124.293 Y105.007 E46.50451
G1 X124.416 Y105.25 E46.53168
G1 X124.543 Y105.54 E46.56327
G1 X124.684 Y105.937 E46.60531
G1 X124.731 Y106.085 E46.6208
G1 X124.831 Y106.446 E46.65818
G1 X113.699 Y95.314 E48.22903
G1 X113.668 Y95.31 E48.23215
G1 X113.325 Y95.292 E48.26642
G1 X112.554 Y95.193 E48.34398
G1 X112.02 Y95.05 E48.39914
G1 X125.039 Y108.068 E50.23619
G1 X125.024 Y108.376 E50.26696
G1 X125.033 Y109.045 E50.33372
G1 X125.105 Y109.549 E50.38452
G1 X110.335 Y94.779 E52.46873
G1 X110.003 Y94.774 E52.50186
G1 X109.785 Y94.78 E52.52362
G1 X109.247 Y94.82 E52.57745
G1 X109.001 Y94.859 E52.6023
G1 X125.23 Y111.088 E54.89239
G1 X125.23 Y111.106 E54.89418
G1 X125.221 Y111.274 E54.91097
G1 X125.174 Y111.76 E54.95969
G1 X125.16 Y111.869 E54.97065
G1 X125.095 Y112.27 E55.01119
G1 X125.077 Y112.35 E55.01937
G1 X107.847 Y95.12 E57.45071
G1 X107.609 Y95.17 E57.47498
G1 X106.937 Y95.214 E57.54217
G1 X106.84 Y95.215 E57.55185
G1 X106.554 Y95.233 E57.58044
G1 X106.548 Y95.235 E57.58108
G1 X124.727 Y113.413 E60.14626
G1 X124.567 Y113.851 E60.19279
G1 X124.421 Y114.521 E60.26121
G1 X105.39 Y95.49 E62.94669
G1 X105.043 Y95.603 E62.9831
G1 X104.843 Y95.679 E63.00445
G1 X104.369 Y95.884 E63.05598
G1 X124.158 Y115.673 E65.84842
G1 X124.102 Y115.834 E65.86543
G1 X124.062 Y115.942 E65.87692
G1 X123.847 Y116.461 E65.93298
G1 X123.812 Y116.538 E65.94141
G1 X123.746 Y116.675 E65.95659
G1 X103.482 Y96.411 E68.81606
G1 X102.903 Y96.758 E68.88341
G1 X102.558 Y96.901 E68.92068
G1 X123.211 Y117.555 E71.83511
G1 X123.158 Y117.625 E71.84387
G1 X122.59 Y118.285 E71.93075
G1 X122.604 Y118.296 E71.93253
G1 X122.578 Y118.335 E71.93721
G1 X101.582 Y97.339 E74.89997
G1 X101.428 Y97.427 E74.91767
G1 X101.104 Y97.64 E74.95636
G1 X100.988 Y97.721 E74.97047
G1 X100.74 Y97.911 E75.00165
G1 X122.047 Y119.218 E78.00829
G1 X122.04 Y119.23 E78.00968
G1 X121.889 Y119.496 E78.0402
G1 X121.733 Y119.733 E78.06851
G1 X121.483 Y120.061 E78.10966
G1 X121.48 Y120.066 E78.11024
G1 X99.986 Y98.572 E81.14328
G1 X99.841 Y98.724 E81.16424
G1 X99.688 Y98.907 E81.18804
G1 X99.489 Y99.18 E81.22175
G1 X99.347 Y99.347 E81.24362
G1 X120.811 Y120.811 E84.27243
G1 X120.669 Y120.952 E84.29239
G1 X120.449 Y121.147 E84.32173
G1 X120.219 Y121.325 E84.35075
G1 X120.034 Y121.449 E84.37297
G1 X98.656 Y100.07 E87.38971
G1 X98.463 Y100.24 E87.41537
G1 X98.4 Y100.289 E87.42333
G1 X98.183 Y100.482 E87.45231
G1 X97.966 Y100.701 E87.48307
G1 X97.922 Y100.75 E87.48964
G1 X119.171 Y121.999 E90.48811
G1 X119.045 Y122.086 E90.50338
G1 X118.588 Y122.485 E90.56392
G1 X118.412 Y122.655 E90.58833
G1 X97.315 Y101.558 E93.56535
G1 X97.227 Y101.689 E93.5811
G1 X97.111 Y101.88 E93.60339
G1 X96.834 Y102.391 E93.66139
G1 X96.802 Y102.459 E93.66889
G1 X117.604 Y123.261 E96.60428
G1 X117.451 Y123.359 E96.62241
G1 X117.274 Y123.461 E96.64279
G1 X116.886 Y123.664 E96.68648
G1 X116.73 Y123.739 E96.70375
G1 X116.687 Y123.758 E96.70844
G1 X96.411 Y103.482 E99.56961
G1 X96.246 Y103.918 E99.61612
G1 X95.952 Y104.438 E99.67573
G1 X115.635 Y124.12 E102.45314
G1 X115.572 Y124.135 E102.4596
G1 X115.498 Y124.148 E102.4671
G1 X114.844 Y124.3 E102.53409
G1 X114.525 Y124.425 E102.56828
G1 X95.481 Y105.38 E105.25567
G0 F12000 X95.48 Y105.384
G1 F1800 X95.371 Y105.711 E105.29006
G1 X95.319 Y105.882 E105.30789
G1 X95.199 Y106.336 E105.35475
G1 X95.167 Y106.478 E105.36927
G0 F12000 X95.166 Y106.48
G1 F1800 X113.523 Y124.837 E107.95964
G1 X113.277 Y124.918 E107.98549
G1 X112.712 Y125.056 E108.04352
G1 X112.541 Y125.09 E108.06092
G1 X112.386 Y125.114 E108.07657
G1 X95.032 Y107.76 E110.5254
G1 X95.037 Y107.956 E110.54497
G1 X95.004 Y108.716 E110.62087
G1 X94.937 Y109.079 E110.6577
G1 X111.068 Y125.21 E112.93396
G1 X110.977 Y125.207 E112.94305
G1 X110.694 Y125.179 E112.97142
G1 X110.615 Y125.166 E112.97941
G1 X109.945 Y125.098 E113.04661
G1 X109.559 Y125.116 E113.08516
G1 X94.755 Y110.312 E115.17417
G1 X94.755 Y110.319 E115.17487
G1 X94.759 Y110.72 E115.21488
G1 X94.762 Y110.843 E115.22716
G1 X94.798 Y111.338 E115.27668
G1 X94.814 Y111.485 E115.29143
G1 X94.867 Y111.838 E115.32705
G1 X108.192 Y125.162 E117.20728
G1 X107.687 Y125.12 E117.25784
G1 X107.514 Y125.097 E117.27526
G1 X107.046 Y125.012 E117.32272
G1 X106.911 Y124.984 E117.33648
G1 X106.541 Y124.892 E117.37452
G1 X106.491 Y124.876 E117.37976
G1 X95.408 Y113.793 E118.94369
G1 X95.489 Y114.332 E118.99807
G1 X95.496 Y114.416 E119.00649
G1 X95.54 Y114.714 E119.03654
G1 X95.6 Y114.992 E119.06492
G1 X95.678 Y115.272 E119.09392
G1 X95.79 Y115.589 E119.12747
G1 X104.214 Y124.013 E120.31619
G1 X104.025 Y123.974 E120.33544
G1 X103.762 Y123.902 E120.36265
G1 X103.434 Y123.783 E120.39747
