;FLAVOR:Marlin
;TIME:807
;Filament used: 0.845974m
;Layer height: 0.2
;MINX:86.915
;MINY:55.189
;MINZ:0.24
;MAXX:132.821
;MAXY:128.358
;MAXZ:5.89
;Generated with Cura_SteamEngine 4.12.1
M140 S50
M105
M190 S50
M104 S200
M105
M109 S200
M82 ;absolute extrusion mode
M201 X500.00 Y500.00 Z100.00 E5000.00 ;Setup machine max acceleration
M203 X500.00 Y500.00 Z10.00 E50.00 ;Setup machine max feedrate
M204 P500.00 R1000.00 T500.00 ;Setup Print/Retract/Travel acceleration
M205 X8.00 Y8.00 Z0.40 E5.00 ;Setup Jerk
M220 S100 ;Reset Feedrate
M221 S100 ;Reset Flowrate

G28 ;Home

G92 E0 ;Reset Extruder
G1 Z2.0 F3000 ;Move Z Axis up
G1 X10.1 Y20 Z0.28 F5000.0 ;Move to start position
G1 X10.1 Y200.0 Z0.28 F1500.0 E15 ;Draw the first line
G1 X10.4 Y200.0 Z0.28 F5000.0 ;Move to side a little
G1 X10.4 Y20 Z0.28 F1500.0 E30 ;Draw the second line
G92 E0 ;Reset Extruder
G1 Z2.0 F3000 ;Move Z Axis up

G92 E0
G92 E0
G1 F2700 E-5
;LAYER_COUNT:24
;LAYER:-6
M107
G0 F12000 X90.789 Y62.823 Z0.24
;TYPE:SUPPORT-INTERFACE
G1 F2700 E0
G1 F1800 X90.903 Y62.671 E0.01517
G1 X91.449 Y61.988 E0.08497
G1 X91.557 Y61.862 E0.09821
G1 X92.169 Y61.201 E0.17012
G1 X92.318 Y61.052 E0.18694
G1 X92.941 Y60.472 E0.25489
G1 X93.087 Y60.346 E0.27028
G1 X93.773 Y59.793 E0.34062
G1 X93.915 Y59.687 E0.35476
G1 X94.655 Y59.176 E0.42655
G1 X94.785 Y59.094 E0.43882
G1 X95.551 Y58.644 E0.50973
G1 X95.73 Y58.547 E0.52598
G1 X96.528 Y58.154 E0.59699
G1 X96.662 Y58.094 E0.60871
G1 X97.509 Y57.75 E0.68168
G1 X97.664 Y57.694 E0.69484
G1 X98.509 Y57.421 E0.76572
G1 X98.7 Y57.367 E0.78157
G1 X99.082 Y57.275 E0.81293
G1 X99.251 Y57.225 E0.827
G1 X102.897 Y56.34 E1.12649
G1 X103.934 Y56.128 E1.21098
G1 X104.069 Y56.105 E1.22191
G1 X104.97 Y55.989 E1.29443
G1 X105.16 Y55.972 E1.30966
G1 X106.022 Y55.925 E1.37857
G1 X106.213 Y55.921 E1.39382
G1 X107.116 Y55.936 E1.46591
G1 X107.258 Y55.944 E1.47726
G1 X108.168 Y56.027 E1.5502
G1 X108.325 Y56.047 E1.56284
G1 X109.231 Y56.197 E1.63614
G1 X109.383 Y56.228 E1.64852
G1 X110.25 Y56.437 E1.71971
G1 X110.414 Y56.483 E1.73331
G1 X111.262 Y56.755 E1.8044
G1 X111.452 Y56.823 E1.82051
G1 X112.266 Y57.151 E1.89056
G1 X112.402 Y57.211 E1.90243
G1 X113.264 Y57.634 E1.97907
G1 X113.34 Y57.674 E1.98593
G1 X113.936 Y58.015 E2.04074
G1 X114.128 Y58.132 E2.05869
G1 X114.916 Y58.649 E2.13392
G1 X115.051 Y58.745 E2.14714
G1 X115.786 Y59.308 E2.22105
G1 X115.889 Y59.393 E2.23171
G1 X116.569 Y59.998 E2.30436
G1 X116.679 Y60.103 E2.3165
G1 X117.323 Y60.766 E2.39028
G1 X117.43 Y60.885 E2.40306
G1 X118.011 Y61.578 E2.47524
G1 X118.113 Y61.71 E2.48856
G1 X118.633 Y62.432 E2.55959
G1 X118.724 Y62.568 E2.57265
G1 X119.207 Y63.352 E2.64615
G1 X119.284 Y63.489 E2.6587
G1 X119.697 Y64.284 E2.73021
G1 X119.768 Y64.435 E2.74353
G1 X120.123 Y65.262 E2.81537
G1 X120.187 Y65.427 E2.8295
G1 X120.474 Y66.258 E2.89968
G1 X120.524 Y66.423 E2.91344
G1 X120.725 Y67.156 E2.97411
G1 X121.324 Y69.624 E3.17684
G1 X121.525 Y70.266 E3.23054
G1 X121.881 Y71.017 E3.29688
G1 X122.005 Y71.242 E3.31739
G1 X122.401 Y72.063 E3.39015
G1 X122.468 Y72.217 E3.40355
G1 X122.796 Y73.047 E3.47479
G1 X122.856 Y73.215 E3.48903
G1 X123.121 Y74.064 E3.56003
G1 X123.165 Y74.223 E3.5732
G1 X123.371 Y75.101 E3.64519
G1 X123.404 Y75.269 E3.65885
G1 X123.546 Y76.161 E3.73095
G1 X123.564 Y76.317 E3.74349
G1 X123.639 Y77.2 E3.81423
G1 X123.648 Y77.387 E3.82917
G1 X123.658 Y78.296 E3.90174
G1 X123.655 Y78.433 E3.91267
G1 X123.598 Y79.359 E3.98673
G1 X123.591 Y79.436 E3.9929
G1 X123.567 Y80.104 E4.04626
G1 X123.63 Y80.78 E4.10046
G1 X123.715 Y81.207 E4.13521
G1 X123.763 Y81.405 E4.15147
G1 X123.961 Y82.045 E4.20495
G1 X124.244 Y82.667 E4.2595
G1 X124.622 Y83.273 E4.31651
G1 X124.831 Y83.563 E4.34504
G1 X124.923 Y83.701 E4.35828
G1 X125.406 Y84.485 E4.43179
G1 X125.483 Y84.622 E4.44433
G1 X125.896 Y85.417 E4.51585
G1 X125.967 Y85.568 E4.52917
G1 X126.322 Y86.395 E4.60101
G1 X126.386 Y86.56 E4.61513
G1 X126.674 Y87.395 E4.68564
G1 X126.722 Y87.552 E4.69874
G1 X126.937 Y88.338 E4.76379
G1 X127.565 Y90.919 E4.97583
G1 X127.581 Y90.989 E4.98156
G1 X127.774 Y91.932 E5.05839
G1 X127.802 Y92.1 E5.07199
G1 X127.919 Y92.998 E5.14428
G1 X127.933 Y93.143 E5.15591
G1 X127.983 Y94.038 E5.22746
G1 X127.986 Y94.217 E5.24175
G1 X127.971 Y95.131 E5.31472
G1 X127.965 Y95.261 E5.32511
G1 X127.881 Y96.185 E5.39917
G1 X127.872 Y96.259 E5.40512
G1 X127.828 Y96.928 E5.45864
G1 X127.87 Y97.61 E5.51318
G1 X127.998 Y98.281 E5.56771
G1 X128.21 Y98.93 E5.62221
G1 X128.501 Y99.546 E5.67659
G1 X128.612 Y99.746 E5.69485
G1 X128.851 Y100.098 E5.72881
G1 X128.933 Y100.221 E5.74061
G1 X129.416 Y101.005 E5.81412
G1 X129.493 Y101.142 E5.82667
G1 X129.906 Y101.937 E5.89818
G1 X129.977 Y102.088 E5.9115
G1 X130.332 Y102.915 E5.98334
G1 X130.396 Y103.08 E5.99746
G1 X130.691 Y103.935 E6.06966
G1 X130.726 Y104.049 E6.07918
G1 X130.931 Y104.798 E6.14117
G1 X131.353 Y106.535 E6.28386
G1 X131.541 Y107.445 E6.35803
G1 X131.576 Y107.652 E6.37479
G1 X131.69 Y108.53 E6.44546
G1 X131.706 Y108.694 E6.45862
G1 X131.757 Y109.585 E6.52986
G1 X131.76 Y109.759 E6.54375
G1 X131.745 Y110.657 E6.61544
G1 X131.737 Y110.829 E6.62918
G1 X131.658 Y111.706 E6.69947
G1 X131.634 Y111.896 E6.71476
G1 X131.488 Y112.791 E6.78715
G1 X131.463 Y112.914 E6.79717
G1 X131.247 Y113.814 E6.87105
G1 X131.202 Y113.973 E6.88424
G1 X130.926 Y114.842 E6.95702
G1 X130.897 Y114.922 E6.96381
G1 X130.737 Y115.46 E7.00862
G1 X130.609 Y115.992 E7.0523
G1 X130.555 Y116.191 E7.06876
G1 X130.294 Y117.011 E7.13745
G1 X130.228 Y117.194 E7.15298
G1 X129.897 Y118.021 E7.22408
G1 X129.835 Y118.161 E7.23631
G1 X129.431 Y118.99 E7.30992
G1 X129.361 Y119.122 E7.32185
G1 X129.032 Y119.7 E7.37494
G1 X128.883 Y119.945 E7.39783
G1 X128.37 Y120.725 E7.47235
G1 X128.272 Y120.863 E7.48586
G1 X127.742 Y121.553 E7.55531
G1 X127.611 Y121.714 E7.57188
G1 X127.015 Y122.381 E7.64328
G1 X126.926 Y122.473 E7.6535
G1 X126.251 Y123.129 E7.72863
G1 X126.146 Y123.223 E7.73988
G1 X125.443 Y123.811 E7.81304
G1 X125.317 Y123.909 E7.82578
G1 X124.586 Y124.434 E7.89762
G1 X124.456 Y124.521 E7.91011
G1 X123.666 Y125.006 E7.98411
G1 X123.545 Y125.075 E7.99523
G1 X122.731 Y125.497 E8.06842
G1 X122.589 Y125.563 E8.08092
G1 X121.74 Y125.926 E8.15462
G1 X121.608 Y125.977 E8.16592
G1 X120.745 Y126.274 E8.23877
G1 X120.619 Y126.313 E8.2493
G1 X119.872 Y126.517 E8.31111
G1 X118.242 Y126.911 E8.44497
G1 X117.341 Y127.095 E8.51838
G1 X117.143 Y127.128 E8.5344
G1 X116.271 Y127.241 E8.60459
G1 X116.086 Y127.258 E8.61942
G1 X115.219 Y127.305 E8.68873
G1 X115.028 Y127.309 E8.70398
G1 X114.125 Y127.294 E8.77607
G1 X113.983 Y127.286 E8.78742
G1 X113.073 Y127.203 E8.86037
G1 X112.916 Y127.183 E8.873
G1 X112 Y127.031 E8.94712
G1 X111.883 Y127.008 E8.95664
G1 X110.977 Y126.79 E9.03102
G1 X110.828 Y126.748 E9.04338
G1 X109.979 Y126.476 E9.11454
G1 X109.789 Y126.408 E9.13065
G1 X108.975 Y126.08 E9.20071
G1 X108.835 Y126.018 E9.21293
G1 X107.983 Y125.6 E9.28868
G1 X107.892 Y125.551 E9.29693
G1 X107.329 Y125.231 E9.34863
G1 X107.162 Y125.129 E9.36425
G1 X106.376 Y124.619 E9.43904
G1 X106.235 Y124.52 E9.45279
G1 X105.532 Y123.986 E9.52326
G1 X105.386 Y123.867 E9.5383
G1 X104.708 Y123.27 E9.61041
G1 X104.615 Y123.181 E9.62068
G1 X103.962 Y122.515 E9.69514
G1 X103.85 Y122.392 E9.70842
G1 X103.583 Y122.077 E9.74138
G1 X103.438 Y121.901 E9.75958
G1 X102.958 Y121.444 E9.81249
G1 X102.336 Y120.803 E9.88378
G1 X102.219 Y120.673 E9.89774
G1 X101.638 Y119.98 E9.96993
G1 X101.536 Y119.848 E9.98325
G1 X101.004 Y119.109 E10.05593
G1 X100.925 Y118.99 E10.06733
G1 X100.442 Y118.206 E10.14084
G1 X100.364 Y118.067 E10.15356
G1 X99.952 Y117.274 E10.2249
G1 X99.881 Y117.123 E10.23822
G1 X99.526 Y116.296 E10.31006
G1 X99.462 Y116.131 E10.32418
G1 X99.171 Y115.287 E10.39545
G1 X99.125 Y115.135 E10.40812
G1 X98.924 Y114.4 E10.46895
G1 X98.522 Y112.745 E10.6049
G1 X98.492 Y112.613 E10.61571
G1 X98.314 Y111.742 E10.68667
G1 X98.28 Y111.538 E10.70318
G1 X98.166 Y110.654 E10.77433
G1 X98.151 Y110.494 E10.78716
G1 X98.102 Y109.616 E10.85735
G1 X98.099 Y109.437 E10.87164
G1 X98.114 Y108.525 E10.94445
G1 X98.122 Y108.38 E10.95604
G1 X98.211 Y107.419 E11.03308
G1 X98.257 Y106.75 E11.08661
G1 X98.217 Y106.068 E11.14114
G1 X98.09 Y105.397 E11.19566
G1 X97.881 Y104.747 E11.25016
G1 X97.59 Y104.129 E11.30469
G1 X97.538 Y104.025 E11.31397
G1 X97.151 Y103.442 E11.36983
G1 X96.668 Y102.658 E11.44333
G1 X96.591 Y102.521 E11.45588
G1 X96.178 Y101.726 E11.52739
G1 X96.107 Y101.575 E11.54071
G1 X95.752 Y100.748 E11.61255
G1 X95.688 Y100.583 E11.62667
G1 X95.397 Y99.738 E11.69801
G1 X95.351 Y99.587 E11.71061
G1 X95.15 Y98.852 E11.77144
G1 X94.51 Y96.219 E11.98774
G1 X94.304 Y95.222 E12.069
G1 X94.27 Y95.019 E12.08543
G1 X94.156 Y94.135 E12.15658
G1 X94.141 Y93.973 E12.16957
G1 X94.092 Y93.095 E12.23976
G1 X94.089 Y92.917 E12.25397
G1 X94.104 Y92.005 E12.32678
G1 X94.112 Y91.855 E12.33877
G1 X94.146 Y91.48 E12.36883
G1 X94.166 Y90.81 E12.42234
G1 X94.099 Y90.131 E12.4768
G1 X93.946 Y89.464 E12.53143
G1 X93.711 Y88.823 E12.58592
G1 X93.395 Y88.214 E12.64069
G1 X93.174 Y87.908 E12.67082
G1 X93.192 Y87.895 E12.6726
G1 X92.756 Y87.343 E12.72875
G1 X92.229 Y86.628 E12.79965
G1 X92.147 Y86.507 E12.81132
G1 X91.648 Y85.713 E12.88617
G1 X91.584 Y85.603 E12.89633
G1 X91.162 Y84.808 E12.96818
G1 X91.081 Y84.641 E12.98299
G1 X90.715 Y83.814 E13.05519
G1 X90.665 Y83.687 E13.06608
G1 X90.355 Y82.82 E13.13958
G1 X90.299 Y82.644 E13.15432
G1 X90.08 Y81.852 E13.21992
G1 X90.042 Y81.708 E13.2318
G1 X88.401 Y74.958 E13.78631
G1 X88.373 Y74.83 E13.79677
G1 X88.189 Y73.933 E13.86986
G1 X88.159 Y73.753 E13.88443
G1 X88.044 Y72.866 E13.95583
G1 X88.028 Y72.698 E13.9693
G1 X87.979 Y71.821 E14.03941
G1 X87.976 Y71.643 E14.05363
G1 X87.991 Y70.738 E14.12588
G1 X87.999 Y70.583 E14.13827
G1 X88.079 Y69.693 E14.2096
G1 X88.101 Y69.522 E14.22336
G1 X88.252 Y68.603 E14.2977
G1 X88.275 Y68.488 E14.30706
G1 X88.49 Y67.593 E14.38054
G1 X88.539 Y67.418 E14.39504
G1 X88.813 Y66.564 E14.46664
G1 X88.864 Y66.421 E14.47876
G1 X89.195 Y65.597 E14.54964
G1 X89.279 Y65.41 E14.566
G1 X89.657 Y64.638 E14.63462
G1 X89.741 Y64.48 E14.6489
G1 X90.208 Y63.679 E14.72291
G1 X90.284 Y63.56 E14.73419
G1 X90.789 Y62.823 E14.8055
G0 F12000 X91.2 Y62.299
G1 F1800 X91.2 Y84.879 E16.60794
G0 F12000 X92.8 Y87.398
G1 F1800 X92.8 Y60.603 E18.74683
G0 F12000 X94.4 Y59.352
G1 F1800 X94.4 Y95.686 E21.64716
G1 F2700 E16.64716
G0 F12000 X93.442 Y96.319
G0 X94.292 Y99.698
G0 X94.768 Y101.157
G0 X96 Y101.325
G1 F2700 E21.64716
G1 F1800 X96 Y58.414 E25.07251
G0 F12000 X97.6 Y57.717
G1 F1800 X97.6 Y104.15 E28.77899
G1 F2700 E23.77899
G0 F12000 X96.889 Y105.139
G0 X97.109 Y110.778
G0 X97.386 Y112.447
G0 X98.101 Y115.426
G0 X99.2 Y115.371
G1 F2700 E28.77899
G1 F1800 X99.2 Y57.24 E33.41926
G0 F12000 X100.8 Y56.849
G1 F1800 X100.8 Y118.787 E38.36342
G0 F12000 X102.4 Y120.868
G1 F1800 X102.4 Y56.46 E43.50474
G0 F12000 X104 Y56.116
G1 F1800 X104 Y122.553 E48.80803
G0 F12000 X105.6 Y124.037
G1 F1800 X105.6 Y55.948 E54.24319
G0 F12000 X107.2 Y55.941
G1 F1800 X107.2 Y125.152 E59.76791
G0 F12000 X108.8 Y126
G1 F1800 X108.8 Y56.126 E65.34555
G0 F12000 X110.4 Y56.48
G1 F1800 X110.4 Y126.61 E70.94363
G0 F12000 X112 Y127.031
G1 F1800 X112 Y57.044 E76.5303
G0 F12000 X113.6 Y57.823
G1 F1800 X113.6 Y127.251 E82.07234
G0 F12000 X115.2 Y127.306
G1 F1800 X115.2 Y58.86 E87.536
G0 F12000 X116.8 Y60.228
G1 F1800 X116.8 Y127.173 E92.87984
G0 F12000 X118.4 Y126.873
G1 F1800 X118.4 Y62.109 E98.04958
G0 F12000 X120 Y64.976
G1 F1800 X120 Y126.483 E102.95933
G0 F12000 X121.6 Y125.98
G1 F1800 X121.6 Y70.425 E107.39397
G0 F12000 X123.2 Y74.373
G1 F1800 X123.2 Y125.254 E111.45552
G0 F12000 X124.8 Y124.281
G1 F1800 X124.8 Y83.52 E114.70924
G0 F12000 X126.4 Y86.601
G1 F1800 X126.4 Y122.985 E117.61356
G0 F12000 X128 Y121.218
G1 F1800 X128 Y98.288 E119.44394
G0 F12000 X129.6 Y101.348
G1 F1800 X129.6 Y118.644 E120.82458
G1 F2700 E115.82458
G0 F12000 X130.798 Y118.616
G0 X131.203 Y117.599
G0 X132.215 Y114.303
G0 X131.2 Y113.98
G1 F2700 E120.82458
G1 F1800 X131.2 Y105.906 E121.46908
G1 F2700 E116.46908
G0 F12000 X132.235 Y105.653
G0 X132.63 Y107.503
G0 X132.821 Y109.555
G0 X132.8 Y110.893
G0 X132.536 Y112.974
G0 X132.224 Y114.273
G0 X131.22 Y117.58
G0 X130.377 Y119.479
G0 X129.245 Y121.332
G0 X128.423 Y122.401
G0 X126.98 Y123.905
G0 X125.947 Y124.767
G0 X124.209 Y125.922
G0 X123.017 Y126.538
G0 X121.069 Y127.288
G0 X117.526 Y128.144
G0 X116.162 Y128.319
G0 X114.095 Y128.358
G0 X112.761 Y128.237
G0 X110.711 Y127.821
G0 X109.418 Y127.406
G0 X107.384 Y126.487
G0 X105.601 Y125.376
G0 X103.996 Y124.06
G0 X101.41 Y121.366
G0 X100.133 Y119.721
G0 X99.43 Y118.579
G0 X98.542 Y116.705
G0 X97.881 Y114.617
G0 X89.898 Y85.238
G0 X88.566 Y80.141
G0 X89.6 Y79.889
G1 F2700 E121.46908
G1 F1800 X89.6 Y64.754 E122.67722
G1 F2700 E117.67722
G0 F12000 X88.312 Y64.964
G0 X87.803 Y66.229
G0 X87.237 Y68.252
G0 X87.177 Y68.625
G0 X86.94 Y70.477
G0 X88 Y70.571
G1 F2700 E122.67722
G1 F1800 X88 Y72.196 E122.80693
G1 F2700 E117.80693
G0 F300 X88 Y72.196 Z0.54
G0 F12000 X86.915 Y71.85
G0 X86.939 Y70.5
G0 X87.203 Y68.418
G0 X87.521 Y67.105
G0 X88.219 Y65.173
G0 X88.815 Y63.956
G0 X89.716 Y62.531
G0 X90.633 Y61.305
G0 X91.556 Y61.861
;TIME_ELAPSED:64.507384
;LAYER:-5
;TYPE:SUPPORT
G1 F2700 E122.80693
G1 F1800 X91.448 Y61.987 E122.82349
G1 X90.925 Y62.641 E122.90705
G1 X129.564 Y101.28 E128.35943
G1 X129.905 Y101.936 E128.4332
G1 X129.976 Y102.087 E128.44985
G1 X130.331 Y102.915 E128.53974
G1 X130.395 Y103.079 E128.55731
G1 X130.63 Y103.76 E128.62919
G1 X90.342 Y63.472 E134.31426
G1 X90.283 Y63.56 E134.32483
G1 X90.207 Y63.679 E134.33892
G1 X89.811 Y64.355 E134.4171
G1 X131.147 Y105.691 E140.25005
G1 X131.352 Y106.535 E140.33671
G1 X131.54 Y107.444 E140.42933
G1 X131.551 Y107.509 E140.43591
G1 X89.334 Y65.292 E146.39319
G1 X89.277 Y65.41 E146.40626
G1 X89.194 Y65.596 E146.42659
G1 X88.916 Y66.289 E146.50109
G1 X131.728 Y109.1 E152.54226
G1 X131.755 Y109.585 E152.59072
G1 X131.759 Y109.758 E152.60799
G1 X131.746 Y110.533 E152.68533
G1 X88.56 Y67.347 E158.77934
G1 X88.538 Y67.418 E158.78676
G1 X88.489 Y67.593 E158.80489
G1 X88.276 Y68.477 E158.89562
G1 X131.64 Y111.841 E165.01475
G1 X131.632 Y111.896 E165.0203
G1 X131.487 Y112.791 E165.11076
G1 X131.462 Y112.913 E165.12319
G1 X131.431 Y113.046 E165.13682
G1 X88.077 Y69.693 E171.25446
G1 X87.998 Y70.583 E171.34362
G1 X87.99 Y70.738 E171.35911
G1 X87.985 Y71.014 E171.38665
G1 X131.139 Y114.168 E177.47614
G1 X130.925 Y114.841 E177.54661
G1 X130.896 Y114.921 E177.5551
G1 X130.8 Y115.244 E177.58872
G1 X88.013 Y72.457 E183.62643
G1 X88.027 Y72.698 E183.65052
G1 X88.043 Y72.865 E183.66726
G1 X88.158 Y73.753 E183.7566
G1 X88.188 Y73.932 E183.77471
G1 X88.217 Y74.075 E183.78927
G1 X130.5 Y116.358 E189.75586
G1 X130.293 Y117.011 E189.82421
G1 X130.227 Y117.193 E189.84353
G1 X130.14 Y117.412 E189.86704
G1 X88.629 Y75.901 E195.72469
G1 X89.084 Y77.77 E195.91663
G1 X129.716 Y118.402 E201.65024
G1 X129.43 Y118.99 E201.71549
G1 X129.36 Y119.122 E201.73039
G1 X129.237 Y119.338 E201.7552
G1 X89.538 Y79.638 E207.35722
G1 X89.992 Y81.507 E207.54914
G1 X128.703 Y120.218 E213.01168
G1 X128.368 Y120.725 E213.07231
G1 X128.271 Y120.863 E213.08914
G1 X128.125 Y121.054 E213.11313
G1 X90.612 Y83.541 E218.40662
G1 X90.664 Y83.686 E218.42199
G1 X90.714 Y83.814 E218.4357
G1 X91.08 Y84.641 E218.52594
G1 X91.16 Y84.808 E218.54442
G1 X91.583 Y85.603 E218.63427
G1 X91.647 Y85.713 E218.64697
G1 X92.117 Y86.46 E218.73503
G1 X127.497 Y121.84 E223.72753
G1 X127.014 Y122.381 E223.7999
G1 X126.924 Y122.473 E223.81274
G1 X126.818 Y122.575 E223.82742
G1 X94.016 Y89.773 E228.45614
G1 X94.098 Y90.131 E228.49278
G1 X94.165 Y90.809 E228.56076
G1 X94.149 Y91.321 E228.61187
G1 X126.094 Y123.265 E233.11959
G1 X125.442 Y123.811 E233.20444
G1 X125.319 Y123.905 E233.21989
G1 X94.091 Y92.677 E237.6265
G1 X94.088 Y92.917 E237.65045
G1 X94.091 Y93.095 E237.66821
G1 X94.139 Y93.973 E237.75595
G1 X94.154 Y94.135 E237.77218
G1 X94.157 Y94.157 E237.7744
G1 X124.493 Y124.493 E242.05514
G1 X124.456 Y124.52 E242.05971
G1 X123.665 Y125.005 E242.15229
G1 X123.617 Y125.032 E242.15778
G1 X94.432 Y95.846 E246.27617
