;FLAVOR:Marlin
;TIME:2657
;Filament used: 1.72357m
;Layer height: 0.2
;MINX:93.2
;MINY:94.2
;MINZ:0.2
;MAXX:126.8
;MAXY:133.8
;MAXZ:25
;Generated with Cura_SteamEngine 4.12.1
M140 S55
M105
M190 S55
M104 S205
M105
M109 S205
M82 ;absolute extrusion mode
M201 X500.00 Y500.00 Z100.00 E5000.00 ;Setup machine max acceleration
M203 X500.00 Y500.00 Z10.00 E50.00 ;Setup machine max feedrate
M204 P500.00 R1000.00 T500.00 ;Setup Print/Retract/Travel acceleration
M205 X8.00 Y8.00 Z0.40 E5.00 ;Setup Jerk
M220 S100 ;Reset Feedrate
M221 S100 ;Reset Flowrate

G28 ;Home

G92 E0 ;Reset Extruder
G1 Z2.0 F3000 ;Move Z Axis up
G1 X10.1 Y20 Z0.28 F5000.0 ;Move to start position
G1 X10.1 Y200.0 Z0.28 F1500.0 E15 ;Draw the first line
G1 X10.4 Y200.0 Z0.28 F5000.0 ;Move to side a little
G1 X10.4 Y20 Z0.28 F1500.0 E30 ;Draw the second line
G92 E0 ;Reset Extruder
G1 Z2.0 F3000 ;Move Z Axis up

G92 E0
G92 E0
G1 F2700 E-5
;LAYER_COUNT:125
;LAYER:0
M107
;MESH:motor_cover.obj
G0 F6000 X108.993 Y124.6 Z0.2
;TYPE:WALL-INNER
G1 F2700 E0
G1 F600 X106.39 Y103.4 E0.71041
G1 X125.6 Y103.4 E1.34934
G1 X125.6 Y124.6 E2.05445
G1 X108.993 Y124.6 E2.6068
G0 F6000 X108.639 Y125
G1 F600 X105.938 Y103 E3.34402
G1 X126 Y103 E4.01128
G1 X126 Y125 E4.74301
G1 X108.639 Y125 E5.32044
G0 F6000 X108.285 Y125.4
G1 F600 X105.486 Y102.6 E6.08446
G1 X126.4 Y102.6 E6.78006
G1 X126.4 Y125.4 E7.53839
G1 X108.285 Y125.4 E8.1409
G0 F6000 X107.931 Y125.8
;TYPE:WALL-OUTER
G1 F600 X105.034 Y102.2 E8.93173
G1 X126.8 Y102.2 E9.65567
G1 X126.8 Y125.8 E10.44061
G1 X107.931 Y125.8 E11.0682
G0 F6000 X108.174 Y125.526
G0 X109.339 Y124.49
G0 X109.339 Y124.21
;TYPE:SKIN
G1 F600 X106.832 Y103.79 E11.75247
G1 X125.21 Y103.79 E12.36372
G1 X125.21 Y124.21 E13.0429
G1 X109.339 Y124.21 E13.57077
G0 F6000 X109.907 Y124.049
G1 F600 X109.421 Y123.563 E13.59363
G0 F6000 X109.342 Y122.918
G1 F600 X110.472 Y124.049 E13.6468
G0 F6000 X111.038 Y124.049
G1 F600 X109.262 Y122.273 E13.73034
G0 F6000 X109.183 Y121.628
G1 F600 X111.604 Y124.049 E13.84422
G0 F6000 X112.169 Y124.049
G1 F600 X109.104 Y120.983 E13.98841
G0 F6000 X109.025 Y120.338
G1 F600 X112.735 Y124.049 E14.16294
G0 F6000 X113.301 Y124.049
G1 F600 X108.946 Y119.694 E14.36778
G0 F6000 X108.866 Y119.049
G1 F600 X113.866 Y124.049 E14.60297
G0 F6000 X114.432 Y124.049
G1 F600 X108.787 Y118.404 E14.86849
G0 F6000 X108.708 Y117.759
G1 F600 X114.998 Y124.049 E15.16436
G0 F6000 X115.563 Y124.049
G1 F600 X108.629 Y117.114 E15.49053
G0 F6000 X108.55 Y116.47
G1 F600 X116.129 Y124.049 E15.84703
G0 F6000 X116.695 Y124.049
G1 F600 X108.471 Y115.825 E16.23386
G0 F6000 X108.392 Y115.18
G1 F600 X117.26 Y124.049 E16.651
G0 F6000 X117.826 Y124.049
G1 F600 X108.313 Y114.535 E17.09849
G0 F6000 X108.234 Y113.89
G1 F600 X118.392 Y124.049 E17.57632
G0 F6000 X118.957 Y124.049
G1 F600 X108.154 Y113.245 E18.08448
G0 F6000 X108.075 Y112.601
G1 F600 X119.523 Y124.049 E18.62296
G0 F6000 X120.089 Y124.049
G1 F600 X107.996 Y111.956 E19.19178
G0 F6000 X107.917 Y111.311
G1 F600 X120.655 Y124.049 E19.79093
G0 F6000 X121.22 Y124.049
G1 F600 X107.838 Y110.666 E20.4204
G0 F6000 X107.758 Y110.021
G1 F600 X121.786 Y124.049 E21.08024
G0 F6000 X122.352 Y124.049
G1 F600 X107.679 Y109.376 E21.77041
G0 F6000 X107.6 Y108.731
G1 F600 X122.917 Y124.049 E22.4909
G0 F6000 X123.483 Y124.049
G1 F600 X107.521 Y108.086 E23.24173
G0 F6000 X107.442 Y107.442
G1 F600 X124.049 Y124.049 E24.02287
G0 F6000 X124.614 Y124.049
G1 F600 X107.362 Y106.797 E24.83435
G0 F6000 X107.283 Y106.152
G1 F600 X125.049 Y123.918 E25.67001
G0 F6000 X125.049 Y123.352
G1 F600 X107.204 Y105.507 E26.50938
G0 F6000 X107.125 Y104.862
G1 F600 X125.049 Y122.786 E27.35247
G0 F6000 X125.049 Y122.221
G1 F600 X107.046 Y104.217 E28.1993
G0 F6000 X107.344 Y103.95
G1 F600 X125.049 Y121.655 E29.03209
G0 F6000 X125.049 Y121.089
G1 F600 X107.91 Y103.95 E29.83826
G0 F6000 X108.475 Y103.95
G1 F600 X125.049 Y120.524 E30.61785
G0 F6000 X125.049 Y119.958
G1 F600 X109.041 Y103.95 E31.37081
G0 F6000 X109.607 Y103.95
G1 F600 X125.049 Y119.392 E32.09716
G0 F6000 X125.049 Y118.827
G1 F600 X110.172 Y103.95 E32.79693
G0 F6000 X110.738 Y103.95
G1 F600 X125.049 Y118.261 E33.47007
G0 F6000 X125.049 Y117.695
G1 F600 X111.304 Y103.95 E34.11659
G0 F6000 X111.869 Y103.95
G1 F600 X125.049 Y117.13 E34.73654
G0 F6000 X125.049 Y116.564
G1 F600 X112.435 Y103.95 E35.32987
G0 F6000 X113.001 Y103.95
G1 F600 X125.049 Y115.998 E35.89657
G0 F6000 X125.049 Y115.433
G1 F600 X113.567 Y103.95 E36.43667
G0 F6000 X114.132 Y103.95
G1 F600 X125.049 Y114.867 E36.95017
G0 F6000 X125.049 Y114.301
G1 F600 X114.698 Y103.95 E37.43705
G0 F6000 X115.264 Y103.95
G1 F600 X125.049 Y113.736 E37.89733
G0 F6000 X125.049 Y113.17
G1 F600 X115.829 Y103.95 E38.33101
G0 F6000 X116.395 Y103.95
G1 F600 X125.049 Y112.604 E38.73807
G0 F6000 X125.049 Y112.038
G1 F600 X116.961 Y103.95 E39.1185
G0 F6000 X117.526 Y103.95
G1 F600 X125.049 Y111.473 E39.47236
G0 F6000 X125.049 Y110.907
G1 F600 X118.092 Y103.95 E39.7996
G0 F6000 X118.658 Y103.95
G1 F600 X125.049 Y110.341 E40.10021
G0 F6000 X125.049 Y109.776
G1 F600 X119.223 Y103.95 E40.37425
G0 F6000 X119.789 Y103.95
G1 F600 X125.049 Y109.21 E40.62166
G0 F6000 X125.049 Y108.644
G1 F600 X120.355 Y103.95 E40.84245
G0 F6000 X120.92 Y103.95
G1 F600 X125.049 Y108.079 E41.03667
G0 F6000 X125.049 Y107.513
G1 F600 X121.486 Y103.95 E41.20426
G0 F6000 X122.052 Y103.95
G1 F600 X125.049 Y106.947 E41.34523
G0 F6000 X125.049 Y106.382
G1 F600 X122.617 Y103.95 E41.45962
G0 F6000 X123.183 Y103.95
G1 F600 X125.049 Y105.816 E41.5474
G0 F6000 X125.049 Y105.25
G1 F600 X123.749 Y103.95 E41.60854
G0 F6000 X124.315 Y103.95
G1 F600 X125.049 Y104.685 E41.64309
G0 F6000 X125.049 Y104.119
G1 F600 X124.88 Y103.95 E41.65104
G0 F6000 X124.88 Y103.21
G1 F2700 E36.65104
G0 F6000 X106.598 Y103.584
G0 X107.899 Y123.894
G0 X106.843 Y124.023
G0 X104.19 Y124.349
G0 X103.134 Y124.478
G0 X102.142 Y124.6
;TYPE:WALL-INNER
G1 F2700 E41.65104
G1 F600 X101.993 Y124.6 E41.656
G1 X99.39 Y103.4 E42.36641
G1 X99.539 Y103.4 E42.37136
G1 X102.142 Y124.6 E42.63703
G0 F6000 X102.594 Y125
G1 F600 X101.639 Y125 E42.66879
G1 X98.938 Y103 E43.40601
G1 X99.893 Y103 E43.43777
G1 X102.594 Y125 E44.17499
G0 F6000 X103.046 Y125.4
G1 F600 X101.285 Y125.4 E44.23356
G1 X98.486 Y102.6 E44.99758
G1 X100.247 Y102.6 E45.05616
G1 X103.046 Y125.4 E45.82018
G0 F6000 X103.498 Y125.8
;TYPE:WALL-OUTER
G1 F600 X100.931 Y125.8 E45.90556
G1 X98.034 Y102.2 E46.69639
G1 X100.601 Y102.2 E46.78177
G1 X103.498 Y125.8 E47.5726
G0 F6000 X102.838 Y125.35
G1 F2700 E42.5726
G0 F6000 X100.899 Y123.894
G0 X99.843 Y124.023
G0 X97.19 Y124.349
G0 X96.134 Y124.478
G0 X95.142 Y124.6
;TYPE:WALL-INNER
G1 F2700 E47.5726
G1 F600 X94.4 Y124.6 E47.59728
G1 X94.4 Y121.818 E47.68981
G1 X94.4 Y118.557 E47.79827
G1 X94.797 Y121.793 E47.85258
M104 S240
G1 X95.142 Y124.6 E47.94664
G0 F6000 X95.594 Y125
G1 F600 X94 Y125 E47.99966
G1 X94 Y115.278 E48.32301
G1 X94 Y112.016 E48.43151
G1 X94.397 Y115.253 E48.48584
G1 X95.594 Y125 E48.81246
G0 F6000 X96.046 Y125.4
G1 F600 X93.6 Y125.4 E48.89381
G1 X93.6 Y108.737 E49.44803
G1 X93.6 Y105.475 E49.55652
G1 X93.997 Y108.712 E49.61085
G1 X96.046 Y125.4 E50.17006
G0 F6000 X96.498 Y125.8
;TYPE:WALL-OUTER
G1 F600 X93.2 Y125.8 E50.27975
G1 X93.2 Y102.2 E51.06469
G1 X93.601 Y102.2 E51.07803
G1 X96.498 Y125.8 E51.86886
G0 F6000 X96.198 Y125.534
G0 X95.002 Y124.361
G0 X94.951 Y124.367
;TYPE:SKIN
G1 F600 X94.559 Y123.975 E51.8873
G0 F6000 X94.872 Y123.722
G1 F600 X94.559 Y123.409 E51.90202
G0 F6000 X94.793 Y123.077
G1 F600 X94.559 Y122.844 E51.913
G0 F6000 X94.714 Y122.432
G1 F600 X94.559 Y122.278 E51.92027
G0 F6000 X94.51 Y122.278
G0 X94.357 Y118.398
;TYPE:SKIN
G1 F600 X94.175 Y118.216 E51.92455
G0 F6000 X94.389 Y118.148
G1 F600 X94.369 Y117.845 E51.93122
G1 X94.23 Y115.726 E51.97784
G0 F6000 X94.175 Y115.671
G0 X94.033 Y111.852
G0 X93.903 Y111.722
G1 F600 X93.983 Y111.519 E51.98334
G1 X93.824 Y109.098 E52.04446
G0 F6000 X93.774 Y109.047
G0 X93.5 Y105.322
G0 X93.408 Y105.288
G1 F600 X93.542 Y105.138 E52.04915
G1 X93.517 Y103.983 E52.07606
G1 X93.438 Y102.772 E52.10434
G0 F6000 X93.463 Y102.514
G1 F600 X93.374 Y102.425 E52.10643
G1 F2700 E47.10643
;MESH:NONMESH
G0 F300 X93.374 Y102.425 Z0.4
G0 F6000 X93.45 Y103.03
G0 X96.258 Y125.587
G0 X97.326 Y125.456
G0 X100.175 Y126.654
G0 X104.459 Y126.651
G0 X106.875 Y124.284
G0 X107.931 Y124.155
G0 X108.993 Y124.6
;TIME_ELAPSED:171.797514
;LAYER:1
M140 S70
M106 S42.5
;TYPE:WALL-INNER
;MESH:motor_cover.obj
G1 F2700 E52.10643
G1 F1500 X106.39 Y103.4 E52.81684
G1 X125.6 Y103.4 E53.45577
G1 X125.6 Y124.6 E54.16088
G1 X108.993 Y124.6 E54.71323
G0 F9000 X108.639 Y125
G1 F1500 X105.938 Y103 E55.45045
G1 X126 Y103 E56.11771
G1 X126 Y125 E56.84944
G1 X108.639 Y125 E57.42687
G0 F9000 X108.285 Y125.4
G1 F1500 X105.486 Y102.6 E58.19089
G1 X126.4 Y102.6 E58.88649
G1 X126.4 Y125.4 E59.64482
G1 X108.285 Y125.4 E60.24733
G0 F9000 X107.931 Y125.8
;TYPE:WALL-OUTER
G1 F1500 X105.034 Y102.2 E61.03816
G1 X126.8 Y102.2 E61.7621
G1 X126.8 Y125.8 E62.54704
G1 X107.931 Y125.8 E63.17463
G0 F9000 X108.174 Y125.526
G0 X109.339 Y124.49
G0 X109.339 Y124.21
;TYPE:SKIN
G1 F1500 X106.832 Y103.79 E63.8589
G1 X125.21 Y103.79 E64.47015
G1 X125.21 Y124.21 E65.14933
G1 X109.339 Y124.21 E65.6772
G0 F9000 X109.339 Y124.49
G0 X125.418 Y124.418
G0 X125.49 Y123.852
G0 X125.049 Y123.852
G1 F1500 X124.851 Y124.049 E65.68649
G0 F9000 X124.286 Y124.049
G1 F1500 X125.049 Y123.286 E65.72238
G0 F9000 X125.049 Y122.721
G1 F1500 X123.72 Y124.049 E65.78486
G0 F9000 X123.154 Y124.049
G1 F1500 X125.049 Y122.155 E65.87398
G0 F9000 X125.049 Y121.589
G1 F1500 X122.588 Y124.049 E65.98971
G0 F9000 X122.023 Y124.049
G1 F1500 X125.049 Y121.024 E66.13202
G0 F9000 X125.049 Y120.458
G1 F1500 X121.457 Y124.049 E66.30095
G0 F9000 X120.891 Y124.049
G1 F1500 X125.049 Y119.892 E66.49651
G0 F9000 X125.049 Y119.327
G1 F1500 X120.326 Y124.049 E66.71864
G0 F9000 X119.76 Y124.049
G1 F1500 X125.049 Y118.761 E66.9674
G0 F9000 X125.049 Y118.195
G1 F1500 X119.194 Y124.049 E67.24277
G0 F9000 X118.629 Y124.049
G1 F1500 X125.049 Y117.63 E67.54473
G0 F9000 X125.049 Y117.064
G1 F1500 X118.063 Y124.049 E67.8733
G0 F9000 X117.497 Y124.049
G1 F1500 X125.049 Y116.498 E68.2285
G0 F9000 X125.049 Y115.932
G1 F1500 X116.932 Y124.049 E68.6103
G0 F9000 X116.366 Y124.049
G1 F1500 X125.049 Y115.367 E69.0187
G0 F9000 X125.049 Y114.801
G1 F1500 X115.8 Y124.049 E69.45372
G0 F9000 X115.235 Y124.049
G1 F1500 X125.049 Y114.235 E69.91534
G0 F9000 X125.049 Y113.67
G1 F1500 X114.669 Y124.049 E70.40356
G0 F9000 X114.103 Y124.049
G1 F1500 X125.049 Y113.104 E70.91841
G0 F9000 X125.049 Y112.538
G1 F1500 X113.538 Y124.049 E71.45985
G0 F9000 X112.972 Y124.049
G1 F1500 X125.049 Y111.973 E72.02789
G0 F9000 X125.049 Y111.407
G1 F1500 X112.406 Y124.049 E72.62255
G0 F9000 X111.84 Y124.049
G1 F1500 X125.049 Y110.841 E73.24384
G0 F9000 X125.049 Y110.276
G1 F1500 X111.275 Y124.049 E73.8917
G0 F9000 X110.709 Y124.049
G1 F1500 X125.049 Y109.71 E74.56619
G0 F9000 X125.049 Y109.144
G1 F1500 X110.143 Y124.049 E75.2673
G0 F9000 X109.578 Y124.049
G1 F1500 X125.049 Y108.579 E75.99498
G0 F9000 X125.049 Y108.013
G1 F1500 X109.43 Y123.631 E76.72963
G0 F9000 X109.368 Y123.127
G1 F1500 X125.049 Y107.447 E77.46719
G0 F9000 X125.049 Y106.882
G1 F1500 X109.306 Y122.624 E78.20767
G0 F9000 X109.245 Y122.12
G1 F1500 X125.049 Y106.316 E78.95104
G0 F9000 X125.049 Y105.75
G1 F1500 X109.182 Y121.616 E79.69736
G0 F9000 X109.121 Y121.112
G1 F1500 X125.049 Y105.184 E80.44656
G0 F9000 X125.049 Y104.619
G1 F1500 X109.059 Y120.609 E81.19868
G0 F9000 X108.997 Y120.104
G1 F1500 X125.049 Y104.053 E81.95369
G0 F9000 X124.586 Y103.95
G1 F1500 X108.935 Y119.601 E82.68987
G0 F9000 X108.873 Y119.097
G1 F1500 X124.02 Y103.95 E83.40234
G0 F9000 X123.455 Y103.95
G1 F1500 X108.811 Y118.593 E84.09112
G0 F9000 X108.75 Y118.089
G1 F1500 X122.889 Y103.95 E84.75618
G0 F9000 X122.323 Y103.95
G1 F1500 X108.687 Y117.586 E85.39757
G0 F9000 X108.626 Y117.082
G1 F1500 X121.758 Y103.95 E86.01526
G0 F9000 X121.192 Y103.95
G1 F1500 X108.564 Y116.578 E86.60924
G0 F9000 X108.502 Y116.074
G1 F1500 X120.626 Y103.95 E87.17952
G0 F9000 X120.061 Y103.95
G1 F1500 X108.44 Y115.57 E87.72611
G0 F9000 X108.378 Y115.066
G1 F1500 X119.495 Y103.95 E88.249
G0 F9000 X118.929 Y103.95
G1 F1500 X108.316 Y114.563 E88.7482
G0 F9000 X108.255 Y114.059
G1 F1500 X118.364 Y103.95 E89.2237
G0 F9000 X117.798 Y103.95
G1 F1500 X108.192 Y113.555 E89.67551
G0 F9000 X108.131 Y113.051
G1 F1500 X117.232 Y103.95 E90.10359
G0 F9000 X116.666 Y103.95
G1 F1500 X108.069 Y112.548 E90.50799
G0 F9000 X108.007 Y112.043
G1 F1500 X116.101 Y103.95 E90.88869
G0 F9000 X115.535 Y103.95
G1 F1500 X107.945 Y111.54 E91.2457
G0 F9000 X107.883 Y111.036
G1 F1500 X114.969 Y103.95 E91.579
G0 F9000 X114.404 Y103.95
G1 F1500 X107.821 Y110.532 E91.88862
G0 F9000 X107.76 Y110.028
G1 F1500 X113.838 Y103.95 E92.17451
G0 F9000 X113.272 Y103.95
G1 F1500 X107.698 Y109.524 E92.4367
G0 F9000 X107.636 Y109.021
G1 F1500 X112.707 Y103.95 E92.67522
G0 F9000 X112.141 Y103.95
G1 F1500 X107.574 Y108.516 E92.89002
G0 F9000 X107.512 Y108.013
G1 F1500 X111.575 Y103.95 E93.08113
G0 F9000 X111.01 Y103.95
G1 F1500 X107.451 Y107.509 E93.24853
G0 F9000 X107.389 Y107.005
G1 F1500 X110.444 Y103.95 E93.39223
G0 F9000 X109.878 Y103.95
G1 F1500 X107.327 Y106.501 E93.51222
G0 F9000 X107.265 Y105.998
G1 F1500 X109.313 Y103.95 E93.60855
G0 F9000 X108.747 Y103.95
G1 F1500 X107.203 Y105.493 E93.68115
G0 F9000 X107.141 Y104.99
G1 F1500 X108.181 Y103.95 E93.73007
G0 F9000 X107.615 Y103.95
G1 F1500 X107.08 Y104.486 E93.75526
G0 F9000 X106.342 Y104.575
G1 F2700 E88.75526
G0 F9000 X107.899 Y123.894
G0 X106.843 Y124.023
G0 X104.19 Y124.349
G0 X103.134 Y124.478
G0 X102.142 Y124.6
;TYPE:WALL-INNER
G1 F2700 E93.75526
G1 F1500 X101.993 Y124.6 E93.76022
G1 X99.39 Y103.4 E94.47063
G1 X99.539 Y103.4 E94.47558
G1 X102.142 Y124.6 E94.74125
G0 F9000 X102.594 Y125
G1 F1500 X101.639 Y125 E94.77301
G1 X98.938 Y103 E95.51023
G1 X99.893 Y103 E95.54199
G1 X102.594 Y125 E96.27921
G0 F9000 X103.046 Y125.4
G1 F1500 X101.285 Y125.4 E96.33778
G1 X98.486 Y102.6 E97.1018
G1 X100.247 Y102.6 E97.16037
G1 X103.046 Y125.4 E97.9244
G0 F9000 X103.498 Y125.8
;TYPE:WALL-OUTER
G1 F1500 X100.931 Y125.8 E98.00978
G1 X98.034 Y102.2 E98.80061
G1 X100.601 Y102.2 E98.88599
G1 X103.498 Y125.8 E99.67682
G0 F9000 X102.838 Y125.35
G1 F2700 E94.67682
G0 F9000 X100.899 Y123.894
G0 X99.843 Y124.023
G0 X97.19 Y124.349
G0 X96.134 Y124.478
G0 X95.142 Y124.6
;TYPE:WALL-INNER
G1 F2700 E99.67682
G1 F1500 X94.4 Y124.6 E99.7015
G1 X94.4 Y121.818 E99.79403
G1 X94.4 Y118.557 E99.90249
G1 X94.797 Y121.793 E99.9568
G1 X95.142 Y124.6 E100.05086
G0 F9000 X95.594 Y125
G1 F1500 X94 Y125 E100.10388
G1 X94 Y115.278 E100.42723
G1 X94 Y112.016 E100.53573
G1 X94.397 Y115.253 E100.59005
G1 X95.594 Y125 E100.91668
G0 F9000 X96.046 Y125.4
G1 F1500 X93.6 Y125.4 E100.99803
G1 X93.6 Y108.737 E101.55224
G1 X93.6 Y105.475 E101.66074
G1 X93.997 Y108.712 E101.71507
G1 X96.046 Y125.4 E102.27428
G0 F9000 X96.498 Y125.8
;TYPE:WALL-OUTER
G1 F1500 X93.2 Y125.8 E102.38397
G1 X93.2 Y102.2 E103.16891
G1 X93.601 Y102.2 E103.18225
G1 X96.498 Y125.8 E103.97308
G0 F9000 X96.198 Y125.534
G0 X94.51 Y124.36
G0 X94.559 Y124.36
;TYPE:SKIN
G1 F1500 X94.907 Y124.013 E103.98942
G0 F9000 X94.559 Y123.794
G1 F1500 X94.845 Y123.508 E104.00288
G0 F9000 X94.559 Y123.228
G1 F1500 X94.784 Y123.004 E104.01344
G0 F9000 X94.559 Y122.663
G1 F1500 X94.721 Y122.501 E104.02106
G0 F9000 X94.559 Y122.097
G1 F1500 X94.66 Y121.997 E104.02578
G0 F9000 X94.711 Y121.991
G0 X94.294 Y118.403
G0 X94.433 Y118.263
;TYPE:SKIN
G1 F1500 X94.359 Y118.055 E104.03132
G1 X94.219 Y115.649 E104.09177
G0 F9000 X94.263 Y115.605
G0 X94.057 Y111.852
G0 X94.123 Y111.785
G1 F1500 X93.967 Y111.659 E104.09615
G1 X93.812 Y108.985 E104.15466
G0 F9000 X93.85 Y108.948
G0 X93.519 Y105.319
G0 X93.647 Y105.19
G1 F1500 X93.559 Y104.995 E104.16038
G1 X93.435 Y102.855 E104.2177
G0 F9000 X93.374 Y102.635
G1 F1500 X93.466 Y102.543 E104.21987
G1 F2700 E99.21987
;MESH:NONMESH
G0 F300 X93.466 Y102.543 Z0.6
G0 F9000 X93.45 Y103.03
G0 X96.258 Y125.587
G0 X97.326 Y125.456
