;FLAVOR:Marlin
;TIME:1301
;Filament used: 0.502262m
;Layer height: 0.12
;MINX:93.693
;MINY:93.709
;MINZ:0.144
;MAXX:126.296
;MAXY:126.286
;MAXZ:4.674
;Generated with Cura_SteamEngine 4.8.0
M140 S50
M105
M190 S50
M104 S200
M105
M109 S200
M82 ;absolute extrusion mode
M201 X500.00 Y500.00 Z100.00 E5000.00 ;Setup machine max acceleration
M203 X500.00 Y500.00 Z10.00 E50.00 ;Setup machine max feedrate
M204 P500.00 R1000.00 T500.00 ;Setup Print/Retract/Travel acceleration
M205 X8.00 Y8.00 Z0.40 E5.00 ;Setup Jerk
M220 S100 ;Reset Feedrate
M221 S100 ;Reset Flowrate

G28 ;Home

G92 E0 ;Reset Extruder
G1 Z2.0 F3000 ;Move Z Axis up
G1 X10.1 Y20 Z0.28 F5000.0 ;Move to start position
G1 X10.1 Y200.0 Z0.28 F1500.0 E15 ;Draw the first line
G1 X10.4 Y200.0 Z0.28 F5000.0 ;Move to side a little
G1 X10.4 Y20 Z0.28 F1500.0 E30 ;Draw the second line
G92 E0 ;Reset Extruder
G1 Z2.0 F3000 ;Move Z Axis up

G92 E0
G92 E0
G1 F2700 E-5
;LAYER_COUNT:33
;LAYER:-6
M107
G0 F12000 X100.057 Y98.499 Z0.144
;TYPE:SUPPORT-INTERFACE
G1 F2700 E0
G1 F1800 X100.47 Y98.126 E0.02665
G1 X100.626 Y97.998 E0.03632
G1 X100.989 Y97.722 E0.05816
G1 X101.105 Y97.641 E0.06493
G1 X101.429 Y97.427 E0.08353
G1 X101.678 Y97.284 E0.09728
G1 X101.942 Y97.154 E0.11138
G1 X102.212 Y97.041 E0.1254
G1 X102.272 Y97.021 E0.12843
G1 X102.892 Y96.763 E0.16059
G1 X103.561 Y96.369 E0.19777
G1 X103.875 Y96.153 E0.21603
G1 X104.09 Y96.023 E0.22806
G1 X104.385 Y95.872 E0.24393
G1 X104.873 Y95.667 E0.26928
G1 X105.021 Y95.611 E0.27686
G1 X105.494 Y95.456 E0.3007
G1 X105.617 Y95.42 E0.30684
G1 X105.965 Y95.33 E0.32406
G1 X106.275 Y95.27 E0.33918
G1 X106.564 Y95.234 E0.35313
G1 X106.842 Y95.216 E0.36647
G1 X106.916 Y95.216 E0.37002
G1 X107.588 Y95.173 E0.40227
G1 X108.437 Y94.994 E0.44382
G1 X108.639 Y94.933 E0.45393
G1 X108.893 Y94.874 E0.46642
G1 X109.225 Y94.823 E0.48251
G1 X109.789 Y94.781 E0.50959
G1 X110.004 Y94.774 E0.5199
G1 X110.444 Y94.78 E0.54097
G1 X110.618 Y94.788 E0.54931
G1 X110.977 Y94.816 E0.56656
G1 X111.262 Y94.857 E0.58035
G1 X111.544 Y94.915 E0.59414
G1 X111.81 Y94.987 E0.60734
G1 X111.893 Y95.016 E0.61155
G1 X112.543 Y95.193 E0.64381
G1 X113.387 Y95.298 E0.68455
G1 X113.641 Y95.31 E0.69673
G1 X113.9 Y95.337 E0.7092
G1 X114.239 Y95.4 E0.72571
G1 X114.755 Y95.536 E0.75127
G1 X114.952 Y95.596 E0.76113
G1 X115.379 Y95.749 E0.78286
G1 X115.516 Y95.803 E0.78991
G1 X115.86 Y95.952 E0.80787
G1 X116.122 Y96.085 E0.82194
G1 X116.369 Y96.231 E0.83568
G1 X116.611 Y96.395 E0.84968
G1 X116.681 Y96.45 E0.85395
G1 X117.239 Y96.827 E0.8862
G1 X117.954 Y97.179 E0.92437
G1 X118.242 Y97.293 E0.9392
G1 X118.509 Y97.421 E0.95339
G1 X118.765 Y97.563 E0.96741
G1 X119.052 Y97.747 E0.98373
G1 X119.219 Y97.867 E0.99358
G1 X119.449 Y98.053 E1.00775
G1 X119.856 Y98.4 E1.03337
G1 X119.935 Y98.472 E1.03849
G1 X120.226 Y98.755 E1.05793
G1 X120.42 Y98.969 E1.07176
G1 X120.595 Y99.189 E1.08523
G1 X120.768 Y99.437 E1.09971
G1 X121.186 Y99.962 E1.13185
G1 X121.678 Y100.44 E1.1647
G1 X121.935 Y100.659 E1.18087
G1 X122.109 Y100.83 E1.19256
G1 X122.352 Y101.104 E1.2101
G1 X122.657 Y101.505 E1.23423
G1 X122.784 Y101.687 E1.24486
G1 X123.017 Y102.054 E1.26568
G1 X123.1 Y102.194 E1.27347
G1 X123.275 Y102.514 E1.29094
G1 X123.403 Y102.785 E1.3053
G1 X123.508 Y103.049 E1.3189
G1 X123.599 Y103.33 E1.33305
G1 X123.622 Y103.419 E1.33745
G1 X123.83 Y104.058 E1.36964
G1 X124.184 Y104.785 E1.40837
G1 X124.327 Y105.028 E1.42187
G1 X124.46 Y105.291 E1.43599
G1 X124.579 Y105.579 E1.45091
G1 X124.744 Y106.079 E1.47613
G1 X124.802 Y106.283 E1.48629
G1 X124.909 Y106.73 E1.5083
G1 X124.934 Y106.848 E1.51408
G1 X125.003 Y107.244 E1.53333
G1 X125.033 Y107.52 E1.54663
G1 X125.046 Y107.835 E1.56173
G1 X125.041 Y108.105 E1.57466
G1 X125.034 Y108.194 E1.57893
G1 X125.023 Y108.866 E1.61112
G1 X125.111 Y109.611 E1.64705
G1 X125.187 Y110.004 E1.66623
G1 X125.223 Y110.291 E1.68008
G1 X125.239 Y110.597 E1.69475
G1 X125.232 Y111.083 E1.71803
G1 X125.222 Y111.264 E1.72672
G1 X125.179 Y111.722 E1.74875
G1 X125.157 Y111.893 E1.75701
G1 X125.1 Y112.254 E1.77451
G1 X125.043 Y112.514 E1.78726
G1 X124.956 Y112.811 E1.80208
G1 X124.857 Y113.085 E1.81603
G1 X124.788 Y113.244 E1.82433
G1 X124.56 Y113.876 E1.85651
G1 X124.399 Y114.64 E1.89391
G1 X124.366 Y114.886 E1.9058
G1 X124.308 Y115.176 E1.91996
G1 X124.236 Y115.441 E1.93311
G1 X124.103 Y115.835 E1.95303
G1 X124.055 Y115.964 E1.95962
G1 X123.853 Y116.451 E1.98487
G1 X123.814 Y116.538 E1.98944
G1 X123.631 Y116.91 E2.0093
G1 X123.492 Y117.151 E2.02262
G1 X123.331 Y117.397 E2.0367
G1 X123.159 Y117.626 E2.05042
G1 X122.595 Y118.281 E2.09182
G1 X122.61 Y118.294 E2.09277
G1 X122.331 Y118.705 E2.11656
G1 X122.324 Y118.703 E2.11691
G1 X121.958 Y119.384 E2.15394
G1 X121.78 Y119.662 E2.16975
G1 X121.482 Y120.063 E2.19368
G1 X121.345 Y120.232 E2.20409
G1 X121.039 Y120.58 E2.22629
G1 X120.953 Y120.671 E2.23229
G1 X120.67 Y120.954 E2.25145
G1 X120.449 Y121.149 E2.26557
G1 X120.22 Y121.326 E2.27943
G1 X119.98 Y121.488 E2.2933
G1 X119.6 Y121.712 E2.31443
G1 X119.045 Y122.088 E2.34653
G1 X118.589 Y122.486 E2.37552
G1 X118.359 Y122.709 E2.39087
G1 X118.152 Y122.889 E2.40401
G1 X117.896 Y123.079 E2.41927
G1 X117.44 Y123.367 E2.44511
G1 X117.289 Y123.454 E2.45345
G1 X116.886 Y123.665 E2.47524
G1 X116.731 Y123.74 E2.48349
G1 X116.412 Y123.883 E2.50023
G1 X116.133 Y123.986 E2.51447
G1 X115.853 Y124.071 E2.52849
G1 X115.56 Y124.139 E2.54289
G1 X115.502 Y124.149 E2.54571
G1 X114.847 Y124.3 E2.57791
G1 X114.074 Y124.598 E2.61759
G1 X113.791 Y124.734 E2.63262
G1 X113.545 Y124.833 E2.64532
G1 X113.241 Y124.93 E2.66061
G1 X112.752 Y125.048 E2.6847
G1 X112.517 Y125.094 E2.69617
G1 X112.082 Y125.161 E2.71725
G1 X111.948 Y125.178 E2.72372
G1 X111.565 Y125.213 E2.74214
G1 X111.285 Y125.221 E2.75555
G1 X110.98 Y125.209 E2.77017
G1 X110.704 Y125.182 E2.78345
G1 X110.603 Y125.165 E2.78836
G1 X109.933 Y125.098 E2.82061
G1 X109.122 Y125.131 E2.85948
G1 X108.812 Y125.168 E2.87444
G1 X108.576 Y125.18 E2.88575
G1 X108.213 Y125.172 E2.90314
G1 X107.714 Y125.124 E2.92715
G1 X107.515 Y125.097 E2.93677
G1 X107.049 Y125.013 E2.95945
G1 X106.927 Y124.987 E2.96543
G1 X106.555 Y124.896 E2.98377
G1 X106.265 Y124.805 E2.99832
G1 X106.006 Y124.706 E3.0116
G1 X105.74 Y124.583 E3.02564
G1 X105.61 Y124.513 E3.03271
G1 X104.996 Y124.232 E3.06505
G1 X104.676 Y124.14 E3.081
G1 X104.681 Y124.119 E3.08203
G1 X103.881 Y123.917 E3.12155
G1 X103.564 Y123.812 E3.13755
G1 X103.093 Y123.616 E3.16198
G1 X102.917 Y123.535 E3.17126
G1 X102.479 Y123.309 E3.19486
G1 X102.381 Y123.254 E3.20025
G1 X102.044 Y123.054 E3.21902
G1 X101.805 Y122.89 E3.2329
G1 X101.565 Y122.702 E3.2475
G1 X101.359 Y122.518 E3.26073
G1 X101.057 Y122.212 E3.28132
G1 X100.555 Y121.764 E3.31355
G1 X100.341 Y121.621 E3.32587
G1 X100.344 Y121.615 E3.32619
G1 X99.662 Y121.17 E3.3652
G1 X99.435 Y121.001 E3.37875
G1 X99.175 Y120.78 E3.39509
G1 X99.007 Y120.622 E3.40614
G1 X98.827 Y120.433 E3.41864
G1 X98.469 Y120.033 E3.44435
G1 X98.388 Y119.938 E3.45033
G1 X98.153 Y119.638 E3.46858
G1 X97.991 Y119.404 E3.48221
G1 X97.837 Y119.147 E3.49656
G1 X97.706 Y118.895 E3.51017
G1 X97.675 Y118.826 E3.51379
G1 X97.366 Y118.229 E3.54598
G1 X96.932 Y117.611 E3.58215
G1 X96.665 Y117.284 E3.60237
G1 X96.506 Y117.061 E3.61549
G1 X96.347 Y116.801 E3.63009
G1 X96.12 Y116.366 E3.65359
G1 X96.033 Y116.179 E3.66346
G1 X95.849 Y115.745 E3.68604
G1 X95.799 Y115.613 E3.6928
G1 X95.678 Y115.268 E3.71031
G1 X95.601 Y114.993 E3.72399
G1 X95.541 Y114.715 E3.73761
G1 X95.497 Y114.417 E3.75204
G1 X95.49 Y114.333 E3.75608
G1 X95.39 Y113.667 E3.78833
G1 X95.183 Y112.958 E3.82371
G1 X95.044 Y112.581 E3.84295
G1 X94.956 Y112.284 E3.85779
G1 X94.892 Y111.998 E3.87182
G1 X94.816 Y111.491 E3.89638
G1 X94.798 Y111.324 E3.90442
G1 X94.764 Y110.845 E3.92742
G1 X94.76 Y110.721 E3.93336
G1 X94.757 Y110.32 E3.95257
G1 X94.773 Y110.049 E3.96557
G1 X94.811 Y109.734 E3.98077
G1 X94.858 Y109.483 E3.993
G1 X94.88 Y109.399 E3.99716
G1 X95.003 Y108.735 E4.0295
G1 X95.038 Y107.913 E4.0689
G1 X95.028 Y107.617 E4.08309
G1 X95.036 Y107.362 E4.09531
G1 X95.07 Y107.022 E4.11167
G1 X95.166 Y106.485 E4.1378
G1 X95.208 Y106.297 E4.14703
G1 X95.325 Y105.863 E4.16856
G1 X95.37 Y105.713 E4.17606
G1 X95.489 Y105.361 E4.19385
G1 X95.604 Y105.08 E4.20839
G1 X95.725 Y104.833 E4.22157
G1 X95.873 Y104.572 E4.23594
G1 X95.906 Y104.522 E4.23881
G1 X96.238 Y103.936 E4.27106
G1 X96.552 Y103.131 E4.31245
G1 X96.621 Y102.899 E4.32404
G1 X96.702 Y102.679 E4.33527
G1 X96.852 Y102.351 E4.35254
G1 X97.121 Y101.865 E4.37915
G1 X97.224 Y101.697 E4.38859
G1 X97.492 Y101.299 E4.41157
G1 X97.552 Y101.215 E4.41651
G1 X97.802 Y100.89 E4.43615
G1 X97.988 Y100.678 E4.44966
G1 X98.189 Y100.476 E4.46331
G1 X98.401 Y100.289 E4.47685
G1 X98.467 Y100.237 E4.48087
G1 X98.972 Y99.79 E4.51317
G1 X99.516 Y99.145 E4.55358
G1 X99.649 Y98.959 E4.56453
G1 X99.818 Y98.751 E4.57737
G1 X100.057 Y98.499 E4.594
G0 F12000 X100.8 Y97.865
G1 F1800 X100.8 Y121.982 E5.74908
G0 F12000 X99.2 Y120.801
G1 F1800 X99.2 Y99.519 E6.76837
G0 F12000 X97.6 Y101.152
G1 F1800 X97.6 Y118.681 E7.60792
G0 F12000 X96 Y116.101
G1 F1800 X96 Y104.356 E8.17044
G1 F2700 E3.17044
G0 F12000 X95.275 Y103.475
G0 X95.901 Y101.872
G0 X96.701 Y100.576
G0 X97.459 Y99.701
G0 X99.317 Y97.733
G0 X100.389 Y96.857
G0 X101.497 Y96.187
G0 X102.4 Y96.967
G1 F2700 E8.17044
G1 F1800 X102.4 Y123.264 E9.42992
G0 F12000 X104 Y123.947
G1 F1800 X104 Y96.077 E10.76474
G0 F12000 X105.6 Y95.424
G1 F1800 X105.6 Y124.508 E12.15771
G0 F12000 X107.2 Y125.04
G1 F1800 X107.2 Y95.197 E13.58703
G0 F12000 X108.8 Y94.895
G1 F1800 X108.8 Y125.169 E15.03699
G0 F12000 X110.4 Y125.144
G1 F1800 X110.4 Y94.78 E16.49126
G0 F12000 X112 Y95.046
G1 F1800 X112 Y125.172 E17.93413
G0 F12000 X113.6 Y124.811
G1 F1800 X113.6 Y95.309 E19.34712
G0 F12000 X115.2 Y95.685
G1 F1800 X115.2 Y124.219 E20.71374
G0 F12000 X116.8 Y123.707
G1 F1800 X116.8 Y96.531 E22.01533
G0 F12000 X118.4 Y97.369
G1 F1800 X118.4 Y122.67 E23.22711
G0 F12000 X120 Y121.475
G1 F1800 X120 Y98.536 E24.32576
G0 F12000 X121.6 Y100.365
G1 F1800 X121.6 Y119.905 E25.26162
G0 F12000 X123.2 Y117.572
G1 F1800 X123.2 Y102.377 E25.98938
G0 F12000 X124.8 Y106.276
G1 F1800 X124.8 Y113.217 E26.32182
G1 F2700 E21.32182
G0 F300 X124.8 Y113.217 Z0.324
G0 F12000 X125.586 Y114.17
G0 X125.254 Y115.754
G0 X124.573 Y117.407
G0 X124.438 Y117.625
G0 X122.653 Y120.272
G0 X121.481 Y120.063
;TIME_ELAPSED:26.940501
;LAYER:-5
;TYPE:SUPPORT
G1 F2700 E26.32182
G1 F1800 X121.779 Y119.662 E26.35173
G1 X121.957 Y119.383 E26.37154
G1 X122.046 Y119.218 E26.38277
G1 X100.74 Y97.911 E28.18671
G1 X100.988 Y97.721 E28.20542
G1 X101.104 Y97.64 E28.21389
G1 X101.428 Y97.427 E28.2371
G1 X101.582 Y97.339 E28.24772
G1 X122.579 Y118.337 E30.0255
G1 X122.608 Y118.294 E30.02861
G1 X122.594 Y118.281 E30.02975
G1 X123.158 Y117.625 E30.08154
G1 X123.211 Y117.555 E30.0868
G1 X102.558 Y96.901 E31.83546
G1 X102.891 Y96.763 E31.85704
G1 X103.485 Y96.414 E31.89829
G1 X123.746 Y116.675 E33.61371
G1 X123.812 Y116.538 E33.62282
G1 X123.852 Y116.45 E33.6286
G1 X124.054 Y115.964 E33.66011
G1 X124.102 Y115.834 E33.66841
G1 X124.158 Y115.672 E33.67867
G1 X104.366 Y95.881 E35.35435
G1 X104.384 Y95.872 E35.35555
G1 X104.872 Y95.667 E35.38724
G1 X105.02 Y95.611 E35.39672
G1 X105.39 Y95.49 E35.42002
G1 X124.423 Y114.523 E37.03148
G1 X124.558 Y113.876 E37.07105
G1 X124.726 Y113.412 E37.10059
G1 X106.549 Y95.235 E38.63957
G1 X106.563 Y95.233 E38.64042
G1 X106.841 Y95.216 E38.6571
G1 X106.915 Y95.215 E38.66153
G1 X107.587 Y95.173 E38.70184
G1 X107.846 Y95.118 E38.71769
G1 X125.078 Y112.35 E40.17666
G1 X125.099 Y112.253 E40.1826
G1 X125.156 Y111.892 E40.20448
G1 X125.178 Y111.722 E40.21474
G1 X125.22 Y111.263 E40.24234
G1 X125.23 Y111.088 E40.25283
G1 X109 Y94.858 E41.62697
G1 X109.223 Y94.823 E41.64048
G1 X109.788 Y94.78 E41.67441
G1 X110.003 Y94.773 E41.68729
G1 X110.334 Y94.778 E41.7071
G1 X125.103 Y109.547 E42.95754
G1 X125.022 Y108.866 E42.9986
G1 X125.033 Y108.194 E43.03884
G1 X125.04 Y108.105 E43.04418
G1 X125.041 Y108.07 E43.04628
G1 X112.021 Y95.051 E44.14859
G1 X112.542 Y95.192 E44.18091
G1 X113.385 Y95.298 E44.23177
G1 X113.639 Y95.31 E44.247
G1 X113.701 Y95.316 E44.25073
G1 X124.843 Y106.458 E45.19408
G1 X124.8 Y106.283 E45.20487
G1 X124.743 Y106.078 E45.21761
G1 X124.578 Y105.578 E45.24913
G1 X124.459 Y105.291 E45.26773
G1 X124.326 Y105.027 E45.28543
G1 X124.183 Y104.784 E45.30231
G1 X123.829 Y104.058 E45.35066
G1 X123.815 Y104.016 E45.35332
G1 X115.667 Y95.868 E46.04318
G1 X115.859 Y95.951 E46.0557
G1 X116.121 Y96.085 E46.07332
G1 X116.367 Y96.23 E46.09041
G1 X116.609 Y96.394 E46.10792
G1 X116.68 Y96.45 E46.11333
G1 X117.238 Y96.826 E46.15361
G1 X117.953 Y97.179 E46.20135
G1 X118.241 Y97.292 E46.21987
G1 X118.508 Y97.42 E46.2376
G1 X118.764 Y97.562 E46.25513
G1 X118.796 Y97.583 E46.25742
G1 X122.459 Y101.246 E46.56755
G0 F12000 X122.351 Y101.104
G1 F1800 X122.108 Y100.829 E46.58952
G1 X121.934 Y100.658 E46.60413
G1 X121.677 Y100.44 E46.6243
G1 X121.185 Y99.962 E46.66537
G1 X120.767 Y99.436 E46.70559
G1 X120.594 Y99.188 E46.7237
G1 X120.419 Y98.968 E46.74053
G1 X120.225 Y98.754 E46.75782
G1 X119.934 Y98.472 E46.78208
G1 X119.855 Y98.4 E46.78848
G1 X119.448 Y98.053 E46.8205
G1 X119.218 Y97.866 E46.83824
G1 X119.051 Y97.747 E46.85052
G1 X118.796 Y97.583 E46.86867
G1 F2700 E41.86867
G0 F12000 X119.641 Y96.86
G0 X120.989 Y98.013
G0 X123.165 Y100.417
G0 X124.028 Y101.674
G0 X124.515 Y102.702
G0 X125.58 Y105.216
G0 X125.981 Y106.655
G0 X126.11 Y107.81
G0 X126.296 Y111.112
G0 X126.147 Y112.449
G0 X125.049 Y116.346
G0 X124.401 Y117.707
G0 X122.335 Y120.7
G0 X121.48 Y120.066
G1 F2700 E46.86867
G1 F1800 X99.986 Y98.572 E48.68849
G1 X99.817 Y98.75 E48.70319
G1 X99.648 Y98.959 E48.71928
G1 X99.515 Y99.144 E48.73292
G1 X99.345 Y99.345 E48.74868
G1 X120.811 Y120.811 E50.56613
G1 X120.669 Y120.952 E50.57811
G1 X120.449 Y121.147 E50.59571
G1 X120.219 Y121.325 E50.61312
G1 X120.034 Y121.449 E50.62646
G1 X98.655 Y100.069 E52.43658
G1 X98.466 Y100.235 E52.45164
G1 X98.4 Y100.288 E52.45671
G1 X98.188 Y100.475 E52.47364
G1 X97.988 Y100.677 E52.49065
G1 X97.922 Y100.751 E52.49659
G1 X119.172 Y122 E54.29571
G1 X119.044 Y122.086 E54.30494
G1 X118.588 Y122.485 E54.34122
G1 X118.412 Y122.655 E54.35587
G1 X97.316 Y101.558 E56.14203
G1 X97.224 Y101.696 E56.15196
G1 X97.121 Y101.864 E56.16376
G1 X96.851 Y102.35 E56.19705
G1 X96.801 Y102.458 E56.20417
G1 X117.605 Y123.262 E57.96557
G1 X117.439 Y123.366 E57.9773
G1 X117.289 Y123.453 E57.98768
G1 X116.886 Y123.664 E58.01491
G1 X116.73 Y123.739 E58.02528
G1 X116.687 Y123.758 E58.02809
G1 X96.413 Y103.484 E59.74462
G1 X96.237 Y103.935 E59.7736
G1 X95.952 Y104.437 E59.80816
G1 X115.635 Y124.12 E61.47465
G1 X115.559 Y124.138 E61.47933
G1 X115.501 Y124.148 E61.48285
G1 X114.846 Y124.299 E61.52309
G1 X114.523 Y124.423 E61.54381
G1 X95.481 Y105.38 E63.15607
G1 X95.37 Y105.712 E63.17703
G1 X95.325 Y105.862 E63.1864
G1 X95.207 Y106.296 E63.21333
G1 X95.166 Y106.48 E63.22462
G1 X113.524 Y124.838 E64.77892
G1 X113.241 Y124.929 E64.79672
G1 X112.751 Y125.046 E64.82688
G1 X112.516 Y125.093 E64.84123
G1 X112.385 Y125.113 E64.84916
G1 X95.033 Y107.76 E66.31834
G1 X95.038 Y107.912 E66.32744
G1 X95.003 Y108.733 E66.37664
G1 X94.938 Y109.081 E66.39783
G1 X111.069 Y125.211 E67.76354
G1 X110.979 Y125.208 E67.76894
G1 X110.703 Y125.181 E67.78554
G1 X110.603 Y125.164 E67.79161
G1 X109.933 Y125.097 E67.83192
G1 X109.556 Y125.112 E67.85451
G1 X94.757 Y110.313 E69.10749
G1 X94.757 Y110.319 E69.10785
G1 X94.76 Y110.72 E69.13186
G1 X94.764 Y110.843 E69.13922
G1 X94.798 Y111.323 E69.16803
G1 X94.815 Y111.49 E69.17808
G1 X94.868 Y111.838 E69.19916
G1 X108.199 Y125.169 E70.32785
G1 X107.714 Y125.123 E70.35701
G1 X107.514 Y125.096 E70.3691
G1 X107.048 Y125.012 E70.39744
G1 X106.926 Y124.986 E70.40491
G1 X106.554 Y124.895 E70.42784
G1 X106.49 Y124.875 E70.43185
G1 X95.409 Y113.793 E71.37008
G1 X95.489 Y114.332 E71.40271
G1 X95.496 Y114.416 E71.40775
G1 X95.54 Y114.714 E71.42579
G1 X95.6 Y114.992 E71.44281
G1 X95.677 Y115.267 E71.45991
G1 X95.791 Y115.59 E71.48042
G1 X104.196 Y123.995 E72.19204
G1 X103.881 Y123.916 E72.21148
