;FLAVOR:Marlin
;TIME:4700
;Filament used: 4.72115m
;Layer height: 0.2
;MINX:74.936
;MINY:71.84
;MINZ:0.24
;MAXX:145.064
;MAXY:155.246
;MAXZ:8.09
;Generated with Cura_SteamEngine 4.12.1
M140 S50
M105
M190 S50
M104 S200
M105
M109 S200
M82 ;absolute extrusion mode
M201 X500.00 Y500.00 Z100.00 E5000.00 ;Setup machine max acceleration
M203 X500.00 Y500.00 Z10.00 E50.00 ;Setup machine max feedrate
M204 P500.00 R1000.00 T500.00 ;Setup Print/Retract/Travel acceleration
M205 X8.00 Y8.00 Z0.40 E5.00 ;Setup Jerk
M220 S100 ;Reset Feedrate
M221 S100 ;Reset Flowrate

G28 ;Home

G92 E0 ;Reset Extruder
G1 Z2.0 F3000 ;Move Z Axis up
G1 X10.1 Y20 Z0.28 F5000.0 ;Move to start position
G1 X10.1 Y200.0 Z0.28 F1500.0 E15 ;Draw the first line
G1 X10.4 Y200.0 Z0.28 F5000.0 ;Move to side a little
G1 X10.4 Y20 Z0.28 F1500.0 E30 ;Draw the second line
G92 E0 ;Reset Extruder
G1 Z2.0 F3000 ;Move Z Axis up

G92 E0
G92 E0
G1 F2700 E-5
;LAYER_COUNT:35
;LAYER:-6
M107
G0 F12000 X82.5 Y84.981 Z0.24
;TYPE:SUPPORT-INTERFACE
G1 F2700 E0
G1 F1800 X84.933 Y82.56 E0.27398
G1 X84.992 Y82.505 E0.28042
G1 X85.317 Y82.216 E0.31514
G1 X85.419 Y82.13 E0.32579
G1 X88.076 Y80.011 E0.59707
G1 X88.186 Y79.926 E0.60817
G1 X88.496 Y79.705 E0.63856
G1 X88.597 Y79.637 E0.64828
G1 X91.493 Y77.803 E0.9219
G1 X91.623 Y77.725 E0.93401
G1 X91.948 Y77.544 E0.9637
G1 X92.072 Y77.478 E0.97491
G1 X95.129 Y75.983 E1.24655
G1 X95.269 Y75.919 E1.25884
G1 X95.627 Y75.768 E1.28986
G1 X95.72 Y75.731 E1.29785
G1 X98.957 Y74.562 E1.57257
G1 X99.066 Y74.526 E1.58173
G1 X99.461 Y74.407 E1.61466
G1 X99.559 Y74.381 E1.62276
G1 X102.901 Y73.572 E1.89724
G1 X103.023 Y73.546 E1.90719
G1 X103.421 Y73.472 E1.93951
G1 X103.525 Y73.456 E1.94791
G1 X106.939 Y73.017 E2.22267
G1 X107.046 Y73.006 E2.23126
G1 X107.464 Y72.975 E2.26472
G1 X107.579 Y72.97 E2.2739
G1 X110.997 Y72.905 E2.54679
G1 X111.128 Y72.907 E2.55725
G1 X111.552 Y72.921 E2.59112
G1 X111.632 Y72.926 E2.59751
G1 X115.069 Y73.236 E2.87298
G1 X115.167 Y73.248 E2.88086
G1 X115.566 Y73.306 E2.91305
G1 X115.716 Y73.333 E2.92522
G1 X119.058 Y74.007 E3.19736
G1 X119.166 Y74.032 E3.20621
G1 X119.559 Y74.134 E3.23862
G1 X119.699 Y74.174 E3.25024
G1 X122.945 Y75.208 E3.52218
G1 X123.062 Y75.249 E3.53208
G1 X123.412 Y75.381 E3.56194
G1 X123.553 Y75.439 E3.57411
G1 X126.697 Y76.833 E3.84864
G1 X126.773 Y76.87 E3.85538
G1 X127.155 Y77.066 E3.88966
G1 X127.252 Y77.118 E3.89844
G1 X130.223 Y78.845 E4.17276
G1 X130.311 Y78.899 E4.181
G1 X130.661 Y79.129 E4.21443
G1 X130.747 Y79.188 E4.22275
G1 X133.498 Y81.217 E4.49562
G1 X133.618 Y81.311 E4.50779
G1 X133.917 Y81.557 E4.53869
G1 X134.01 Y81.638 E4.54854
G1 X136.534 Y83.965 E4.82257
G1 X136.62 Y84.05 E4.83223
G1 X136.895 Y84.334 E4.86378
G1 X136.973 Y84.418 E4.87293
G1 X139.225 Y87 E5.14642
G1 X139.302 Y87.092 E5.156
G1 X139.522 Y87.374 E5.18455
G1 X139.625 Y87.511 E5.19823
G1 X141.379 Y90.005 E5.44162
G1 X141.439 Y90.093 E5.45012
G1 X141.638 Y90.41 E5.47999
G1 X141.717 Y90.544 E5.49241
G1 X143.363 Y93.487 E5.76158
G1 X143.44 Y93.636 E5.77497
G1 X143.602 Y93.976 E5.80503
G1 X143.709 Y94.24 E5.82777
G1 X143.805 Y94.528 E5.852
G1 X143.875 Y94.796 E5.87412
G1 X143.932 Y95.087 E5.89779
G1 X143.971 Y95.376 E5.92106
G1 X143.995 Y95.755 E5.95138
G1 X144 Y95.916 E5.96424
G1 X144 Y135.016 E9.08537
G1 X143.994 Y135.276 E9.10613
G1 X143.915 Y136.754 E9.22428
G1 X143.907 Y136.856 E9.23244
G1 X143.864 Y137.26 E9.26487
G1 X143.851 Y137.364 E9.27324
G1 X143.628 Y138.755 E9.38569
G1 X143.598 Y138.907 E9.39806
G1 X143.496 Y139.353 E9.43458
G1 X143.449 Y139.533 E9.44943
G1 X142.813 Y141.64 E9.62512
G1 X142.76 Y141.795 E9.63819
G1 X142.559 Y142.314 E9.68262
G1 X142.497 Y142.46 E9.69528
G1 X141.73 Y144.079 E9.83829
G1 X141.647 Y144.237 E9.85253
G1 X141.37 Y144.724 E9.89726
G1 X141.285 Y144.861 E9.91013
G1 X140.066 Y146.673 E10.08445
G1 X139.96 Y146.819 E10.09885
G1 X139.627 Y147.242 E10.14183
G1 X139.515 Y147.374 E10.15565
G1 X138.285 Y148.717 E10.30102
G1 X138.198 Y148.806 E10.31095
G1 X137.79 Y149.19 E10.35568
G1 X137.659 Y149.304 E10.36954
G1 X135.964 Y150.675 E10.54356
G1 X135.807 Y150.792 E10.55919
G1 X135.327 Y151.119 E10.60555
G1 X135.159 Y151.224 E10.62137
G1 X133.263 Y152.302 E10.79547
G1 X133.112 Y152.381 E10.80907
G1 X132.646 Y152.604 E10.85031
G1 X132.489 Y152.672 E10.86396
G1 X130.914 Y153.287 E10.99893
G1 X130.812 Y153.323 E11.00757
G1 X130.315 Y153.479 E11.04915
G1 X130.154 Y153.523 E11.06247
G1 X128.26 Y153.979 E11.21798
G1 X128.083 Y154.014 E11.23238
G1 X127.545 Y154.1 E11.27587
G1 X127.349 Y154.124 E11.29163
G1 X125.069 Y154.31 E11.47424
G1 X124.646 Y154.326 E11.50803
G1 X95.298 Y154.326 E13.85071
G1 X94.985 Y154.317 E13.87571
G1 X93.566 Y154.24 E13.98915
G1 X93.456 Y154.231 E13.99796
G1 X93.057 Y154.189 E14.02998
G1 X92.951 Y154.175 E14.03852
G1 X91.561 Y153.952 E14.15089
G1 X91.413 Y153.923 E14.16293
G1 X90.951 Y153.816 E14.20078
G1 X90.771 Y153.769 E14.21563
G1 X88.695 Y153.14 E14.38879
G1 X88.503 Y153.075 E14.40497
G1 X88.004 Y152.883 E14.44765
G1 X87.861 Y152.821 E14.46009
G1 X86.222 Y152.044 E14.60488
G1 X86.093 Y151.976 E14.61652
G1 X85.587 Y151.688 E14.663
G1 X85.46 Y151.609 E14.67493
G1 X83.647 Y150.388 E14.84942
G1 X83.49 Y150.274 E14.8649
G1 X83.076 Y149.947 E14.90702
G1 X82.948 Y149.839 E14.92039
G1 X81.605 Y148.608 E15.06581
G1 X81.503 Y148.507 E15.07727
G1 X81.109 Y148.086 E15.1233
G1 X81.008 Y147.97 E15.13557
G1 X79.64 Y146.275 E15.30945
G1 X79.531 Y146.129 E15.32399
G1 X79.187 Y145.623 E15.37283
G1 X79.101 Y145.485 E15.38581
G1 X78.009 Y143.562 E15.56234
G1 X77.938 Y143.427 E15.57451
G1 X77.728 Y142.982 E15.61379
G1 X77.648 Y142.799 E15.62973
G1 X77.041 Y141.245 E15.76291
G1 X76.997 Y141.119 E15.77356
G1 X76.844 Y140.636 E15.814
G1 X76.806 Y140.496 E15.82558
G1 X76.341 Y138.565 E15.98413
G1 X76.316 Y138.441 E15.99423
G1 X76.22 Y137.843 E16.04257
G1 X76.202 Y137.691 E16.05479
G1 X76.018 Y135.448 E16.23444
G1 X76.002 Y135.067 E16.26488
G1 X76 Y134.951 E16.27414
G1 X76 Y95.902 E19.3912
G1 X76.004 Y95.776 E19.40126
G1 X76.028 Y95.399 E19.43142
G1 X76.065 Y95.101 E19.45539
G1 X76.12 Y94.817 E19.47848
G1 X76.195 Y94.531 E19.50208
G1 X76.284 Y94.259 E19.52493
G1 X76.392 Y93.985 E19.54844
G1 X76.538 Y93.675 E19.57579
G1 X76.587 Y93.577 E19.58453
G1 X77.886 Y91.185 E19.80181
G1 X78.079 Y90.862 E19.83185
G1 X79.567 Y88.6 E20.04798
G1 X79.839 Y88.224 E20.08502
G1 X79.903 Y88.141 E20.09339
G1 X82.064 Y85.464 E20.36801
G1 X82.136 Y85.379 E20.3769
G1 X82.392 Y85.095 E20.40743
G1 X82.5 Y84.981 E20.41996
G0 F12000 X83.2 Y84.284
G1 F1800 X83.2 Y150.044 E25.66921
G0 F12000 X84.8 Y151.164
G1 F1800 X84.8 Y82.692 E31.13494
G0 F12000 X86.4 Y81.347
G1 F1800 X86.4 Y152.128 E36.78499
G0 F12000 X88 Y152.881
G1 F1800 X88 Y80.071 E42.59699
G0 F12000 X89.6 Y79.001
G1 F1800 X89.6 Y153.414 E48.53696
G0 F12000 X91.2 Y153.873
G1 F1800 X91.2 Y77.988 E54.59443
G0 F12000 X92.8 Y77.121
G1 F1800 X92.8 Y154.15 E60.74322
G0 F12000 X94.4 Y154.285
G1 F1800 X94.4 Y76.339 E66.96521
G0 F12000 X96 Y75.629
G1 F1800 X96 Y154.326 E73.24714
G0 F12000 X97.6 Y154.326
G1 F1800 X97.6 Y75.052 E79.57513
G0 F12000 X99.2 Y74.485
G1 F1800 X99.2 Y154.326 E85.94839
G0 F12000 X100.8 Y154.326
G1 F1800 X100.8 Y74.08 E92.35397
G0 F12000 X102.4 Y73.693
G1 F1800 X102.4 Y154.326 E98.79044
G0 F12000 X104 Y154.326
G1 F1800 X104 Y73.394 E105.25079
G0 F12000 X105.6 Y73.189
G1 F1800 X105.6 Y154.326 E111.72749
G0 F12000 X107.2 Y154.326
G1 F1800 X107.2 Y72.994 E118.21977
G0 F12000 X108.8 Y72.946
G1 F1800 X108.8 Y154.326 E124.71587
G0 F12000 X110.4 Y154.326
G1 F1800 X110.4 Y72.916 E131.21437
G0 F12000 X112 Y72.96
G1 F1800 X112 Y154.326 E137.70935
G0 F12000 X113.6 Y154.326
G1 F1800 X113.6 Y73.104 E144.19284
G0 F12000 X115.2 Y73.253
G1 F1800 X115.2 Y154.326 E150.66444
G0 F12000 X116.8 Y154.326
G1 F1800 X116.8 Y73.552 E157.11217
G0 F12000 X118.4 Y73.875
G1 F1800 X118.4 Y154.326 E163.53412
G0 F12000 X120 Y154.326
G1 F1800 X120 Y74.27 E169.92453
G0 F12000 X121.6 Y74.78
G1 F1800 X121.6 Y154.326 E176.27424
G0 F12000 X123.2 Y154.326
G1 F1800 X123.2 Y75.302 E182.58228
G0 F12000 X124.8 Y75.992
G1 F1800 X124.8 Y154.321 E188.83484
G0 F12000 X126.4 Y154.202
G1 F1800 X126.4 Y76.702 E195.02122
G0 F12000 X128 Y77.553
G1 F1800 X128 Y154.028 E201.12579
G0 F12000 X129.6 Y153.657
G1 F1800 X129.6 Y78.483 E207.1265
G0 F12000 X131.2 Y79.523
G1 F1800 X131.2 Y153.176 E213.0058
G0 F12000 X132.8 Y152.531
G1 F1800 X132.8 Y80.703 E218.73942
G0 F12000 X134.4 Y81.998
G1 F1800 X134.4 Y151.656 E224.29983
G0 F12000 X136 Y150.646
G1 F1800 X136 Y83.473 E229.66187
G0 F12000 X137.6 Y85.137
G1 F1800 X137.6 Y149.352 E234.78778
G0 F12000 X139.2 Y147.718
G1 F1800 X139.2 Y86.972 E239.63679
G0 F12000 X140.8 Y89.182
G1 F1800 X140.8 Y145.582 E244.13888
G0 F12000 X142.4 Y142.665
G1 F1800 X142.4 Y91.766 E248.20186
G1 F2700 E243.20186
G0 F12000 X143.328 Y91.246
G0 X142.256 Y89.404
G0 X140.038 Y86.313
G0 X137.264 Y83.191
G0 X134.147 Y80.373
G0 X130.765 Y77.929
G0 X127.136 Y75.864
G0 X123.284 Y74.199
G0 X119.288 Y72.967
G0 X115.186 Y72.178
G0 X110.992 Y71.84
G0 X106.813 Y71.96
G0 X102.661 Y72.534
G0 X98.615 Y73.554
G0 X94.668 Y75.023
G0 X90.931 Y76.899
G0 X87.424 Y79.169
G0 X84.19 Y81.798
G0 X81.543 Y84.482
G0 X80.771 Y85.37
G0 X81.6 Y86.038
G1 F2700 E248.20186
G1 F1800 X81.6 Y148.603 E253.19607
G0 F12000 X80 Y146.721
G1 F1800 X80 Y88.02 E257.88184
G0 F12000 X78.4 Y90.374
G1 F1800 X78.4 Y144.25 E262.18245
G0 F12000 X76.8 Y140.471
G1 F1800 X76.8 Y93.184 E265.95711
G1 F2700 E260.95711
G0 F300 X76.8 Y93.184 Z0.54
G0 F12000 X75.646 Y93.079
G0 X75.173 Y94.229
G0 X74.968 Y95.297
G0 X74.957 Y135.526
G0 X75.167 Y137.998
G0 X76.34 Y138.564
;TIME_ELAPSED:123.817495
;LAYER:-5
;TYPE:SUPPORT
G1 F2700 E265.95711
G1 F1800 X76.315 Y138.44 E265.96973
G1 X76.219 Y137.842 E266.03016
G1 X76.202 Y137.69 E266.04542
G1 X76.141 Y136.952 E266.11931
G1 X93.414 Y154.225 E268.55672
G1 X93.456 Y154.23 E268.56094
G1 X93.566 Y154.239 E268.57195
G1 X94.915 Y154.312 E268.70675
G1 X76.016 Y135.413 E271.37361
G1 X76.001 Y135.066 E271.40826
G1 X75.999 Y134.949 E271.41994
G1 X75.999 Y133.982 E271.51643
G1 X96.341 Y154.324 E274.3869
G1 X97.756 Y154.324 E274.52809
G1 X75.999 Y132.568 E277.59817
G1 X75.999 Y131.154 E277.73926
G1 X99.17 Y154.324 E281.00887
G1 X100.584 Y154.324 E281.14995
G1 X75.999 Y129.739 E284.61916
G1 X75.999 Y128.325 E284.76025
G1 X101.998 Y154.324 E288.42899
G1 X103.412 Y154.324 E288.57008
G1 X75.999 Y126.911 E292.43835
G1 X75.999 Y125.497 E292.57944
G1 X104.827 Y154.324 E296.64731
G1 X106.241 Y154.324 E296.7884
G1 X75.999 Y124.083 E301.05581
G1 X75.999 Y122.668 E301.197
G1 X107.655 Y154.324 E305.664
G1 X109.069 Y154.324 E305.80509
G1 X75.999 Y121.254 E310.47162
G1 X75.999 Y119.84 E310.61271
G1 X110.484 Y154.324 E315.47885
G1 X111.898 Y154.324 E315.61994
G1 X75.999 Y118.426 E320.6856
G1 X75.999 Y117.012 E320.82669
G1 X113.312 Y154.324 E326.09189
G1 X114.726 Y154.324 E326.23298
G1 X75.999 Y115.597 E331.69778
G1 X75.999 Y114.183 E331.83887
G1 X116.14 Y154.324 E337.50319
G1 X117.555 Y154.324 E337.64438
G1 X75.999 Y112.769 E343.50831
G1 X75.999 Y111.355 E343.6494
G1 X118.969 Y154.324 E349.71286
G1 X120.383 Y154.324 E349.85395
G1 X75.999 Y109.94 E356.11702
G1 X75.999 Y108.526 E356.25811
G1 X121.797 Y154.324 E362.7207
G1 X123.211 Y154.324 E362.86179
G1 X75.999 Y107.112 E369.52391
G1 X75.999 Y105.698 E369.665
G1 X124.626 Y154.324 E376.52672
G1 X124.645 Y154.324 E376.52862
G1 X125.068 Y154.309 E376.57085
G1 X125.952 Y154.236 E376.65936
G1 X75.999 Y104.284 E383.7082
G1 X75.999 Y102.869 E383.84939
G1 X127.26 Y154.13 E391.08287
G1 X127.349 Y154.123 E391.09178
G1 X127.545 Y154.099 E391.11148
G1 X128.083 Y154.012 E391.16586
G1 X128.259 Y153.978 E391.18374
G1 X128.471 Y153.927 E391.2055
G1 X75.999 Y101.455 E398.60987
G1 X75.999 Y100.041 E398.75096
G1 X129.611 Y153.652 E406.31612
G1 X130.153 Y153.522 E406.37173
G1 X130.314 Y153.478 E406.38839
G1 X130.722 Y153.349 E406.43108
G1 X75.999 Y98.627 E414.15302
G1 X75.999 Y97.213 E414.29411
G1 X131.747 Y152.96 E422.16068
G1 X132.489 Y152.671 E422.24014
G1 X132.646 Y152.603 E422.25721
G1 X132.752 Y152.551 E422.26899
G1 X76.002 Y95.801 E430.27703
G1 X76.004 Y95.774 E430.27973
G1 X76.028 Y95.398 E430.31732
G1 X76.064 Y95.1 E430.34727
G1 X76.12 Y94.815 E430.37626
G1 X76.184 Y94.569 E430.40162
G1 X133.679 Y152.064 E438.51478
G1 X134.58 Y151.551 E438.61824
G1 X76.593 Y93.564 E446.80083
G1 X77.09 Y92.647 E446.9049
G1 X135.466 Y151.022 E455.14232
G1 X135.807 Y150.791 E455.18341
G1 X135.963 Y150.674 E455.20287
G1 X136.277 Y150.419 E455.24323
G1 X77.588 Y91.73 E463.52488
G1 X77.886 Y91.184 E463.58695
G1 X78.079 Y90.861 E463.62449
G1 X78.1 Y90.828 E463.6284
G1 X137.059 Y149.787 E471.94815
G1 X137.658 Y149.303 E472.02499
G1 X137.789 Y149.189 E472.04232
G1 X137.833 Y149.147 E472.04839
G1 X78.661 Y89.975 E480.3982
G1 X79.222 Y89.122 E480.50007
G1 X138.539 Y148.439 E488.87034
G1 X139.215 Y147.701 E488.9702
G1 X79.796 Y88.281 E497.35493
G1 X79.838 Y88.223 E497.36207
G1 X79.903 Y88.14 E497.37259
G1 X80.423 Y87.494 E497.45534
G1 X139.866 Y146.937 E505.84339
G1 X139.959 Y146.818 E505.85846
G1 X140.066 Y146.672 E505.87652
G1 X140.448 Y146.105 E505.94474
G1 X81.055 Y86.712 E514.32573
G1 X81.687 Y85.929 E514.42614
G1 X141.016 Y145.259 E522.79817
G1 X141.284 Y144.86 E522.84613
G1 X141.37 Y144.723 E522.86227
G1 X141.56 Y144.389 E522.90061
G1 X82.331 Y85.16 E531.25846
G1 X82.392 Y85.094 E531.26743
G1 X82.499 Y84.98 E531.28303
G1 X83.034 Y84.448 E531.35831
G1 X142.03 Y143.445 E539.68336
G1 X142.485 Y142.485 E539.78936
G1 X83.743 Y83.743 E548.07849
G1 X84.452 Y83.038 E548.17826
G1 X142.868 Y141.454 E556.42138
G1 X143.196 Y140.368 E556.53458
G1 X85.172 Y82.343 E564.72246
G1 X85.315 Y82.216 E564.74155
G1 X85.418 Y82.13 E564.75494
G1 X85.949 Y81.706 E564.82274
G1 X143.514 Y139.271 E572.94578
G1 X143.597 Y138.906 E572.98313
G1 X143.626 Y138.754 E572.99857
G1 X143.736 Y138.079 E573.06681
G1 X86.736 Y81.079 E581.11013
G1 X87.523 Y80.452 E581.21053
G1 X143.908 Y136.837 E589.16706
G1 X143.913 Y136.753 E589.17546
G1 X143.981 Y135.496 E589.30107
G1 X88.317 Y79.832 E597.15586
G1 X88.495 Y79.705 E597.17768
G1 X88.596 Y79.637 E597.18982
G1 X89.172 Y79.273 E597.25781
G1 X143.999 Y134.099 E604.99442
G1 X143.999 Y132.685 E605.13551
G1 X90.038 Y78.724 E612.74999
G1 X90.904 Y78.176 E612.85225
G1 X143.999 Y131.271 E620.34453
G1 X143.999 Y129.857 E620.48562
G1 X91.779 Y77.637 E627.85442
G1 X91.947 Y77.543 E627.87363
G1 X92.07 Y77.477 E627.88756
G1 X92.717 Y77.161 E627.95941
G1 X143.999 Y128.443 E635.19585
G1 X143.999 Y127.028 E635.33704
G1 X93.668 Y76.697 E642.43929
G1 X94.617 Y76.233 E642.54469
G1 X143.999 Y125.614 E649.51296
G1 X143.999 Y124.2 E649.65405
G1 X95.584 Y75.785 E656.48593
G1 X95.626 Y75.767 E656.49048
G1 X95.719 Y75.731 E656.50044
G1 X96.619 Y75.406 E656.59591
G1 X143.999 Y122.786 E663.28174
G1 X143.999 Y121.372 E663.42283
G1 X97.658 Y75.031 E669.96205
G1 X98.697 Y74.656 E670.07227
G1 X143.999 Y119.957 E676.4648
G1 X143.999 Y118.543 E676.60589
G1 X99.783 Y74.327 E682.84524
G1 X100.921 Y74.051 E682.96208
G1 X143.999 Y117.129 E689.04085
G1 X143.999 Y115.715 E689.18194
G1 X102.06 Y73.775 E695.10006
G1 X102.9 Y73.572 E695.18629
G1 X103.022 Y73.546 E695.19874
G1 X103.21 Y73.511 E695.21782
G1 X143.999 Y114.3 E700.97359
G1 X143.999 Y112.886 E701.11467
G1 X104.45 Y73.337 E706.69547
G1 X105.703 Y73.176 E706.82152
G1 X143.999 Y111.472 E712.2255
G1 X143.999 Y110.058 E712.36659
G1 X106.956 Y73.015 E717.59375
G1 X107.044 Y73.005 E717.60259
G1 X107.463 Y72.974 E717.64451
G1 X107.578 Y72.969 E717.656
G1 X108.311 Y72.956 E717.72915
G1 X143.999 Y108.644 E722.76511
G1 X143.999 Y107.229 E722.9063
G1 X109.699 Y72.929 E727.7464
G1 X110.996 Y72.904 E727.87584
G1 X111.09 Y72.906 E727.88522
G1 X143.999 Y105.815 E732.52904
G1 X143.999 Y104.401 E732.67013
G1 X112.613 Y73.015 E737.09903
G1 X114.167 Y73.155 E737.25472
G1 X143.999 Y102.987 E741.46434
G1 X143.999 Y101.573 E741.60543
G1 X115.77 Y73.343 E745.58891
G1 X117.542 Y73.701 E745.7693
G1 X143.999 Y100.158 E749.50266
G1 X143.999 Y98.744 E749.64375
G1 X119.329 Y74.075 E753.12489
G1 X119.558 Y74.133 E753.14846
G1 X119.698 Y74.173 E753.16299
G1 X121.377 Y74.708 E753.33882
