;FLAVOR:Marlin
;TIME:2371
;Filament used: 1.443m
;Layer height: 0.2
;MINX:96.335
;MINY:67.848
;MINZ:0.2
;MAXX:123.666
;MAXY:133.313
;MAXZ:10
;Generated with Cura_SteamEngine 4.12.1
M140 S55
M105
M190 S55
M104 S205
M105
M109 S205
M82 ;absolute extrusion mode
M201 X500.00 Y500.00 Z100.00 E5000.00 ;Setup machine max acceleration
M203 X500.00 Y500.00 Z10.00 E50.00 ;Setup machine max feedrate
M204 P500.00 R1000.00 T500.00 ;Setup Print/Retract/Travel acceleration
M205 X8.00 Y8.00 Z0.40 E5.00 ;Setup Jerk
M220 S100 ;Reset Feedrate
M221 S100 ;Reset Flowrate

G28 ;Home

G92 E0 ;Reset Extruder
G1 Z2.0 F3000 ;Move Z Axis up
G1 X10.1 Y20 Z0.28 F5000.0 ;Move to start position
G1 X10.1 Y200.0 Z0.28 F1500.0 E15 ;Draw the first line
G1 X10.4 Y200.0 Z0.28 F5000.0 ;Move to side a little
G1 X10.4 Y20 Z0.28 F1500.0 E30 ;Draw the second line
G92 E0 ;Reset Extruder
G1 Z2.0 F3000 ;Move Z Axis up

G92 E0
G92 E0
G1 F2700 E-5
;LAYER_COUNT:50
;LAYER:0
M107
;MESH:hull_rear_plate.obj
G0 F6000 X99.693 Y83.14 Z0.2
;TYPE:WALL-INNER
G1 F2700 E0
G1 F600 X100.069 Y83.048 E0.01287
G1 X100.4 Y82.875 E0.0253
G1 X100.4 Y86.048 E0.13083
G1 X117.6 Y86.048 E0.70291
G1 X117.6 Y82.875 E0.80844
G1 X117.931 Y83.048 E0.82086
G1 X118.307 Y83.14 E0.83374
G1 X118.693 Y83.14 E0.84658
G1 X119.069 Y83.048 E0.85945
G1 X119.411 Y82.869 E0.87229
G1 X119.702 Y82.61 E0.88525
G1 X119.92 Y82.292 E0.89807
G1 X120.058 Y81.932 E0.91089
G1 X120.104 Y81.548 E0.92376
G1 X120.058 Y81.163 E0.93665
G1 X119.92 Y80.802 E0.94951
G1 X119.702 Y80.484 E0.96233
G1 X119.41 Y80.227 E0.97527
G1 X119.07 Y80.048 E0.98805
G1 X118.694 Y79.955 E1.00093
G1 X118.306 Y79.955 E1.01383
G1 X117.93 Y80.048 E1.02672
G1 X117.6 Y80.222 E1.03913
G1 X117.6 Y77.048 E1.14469
G1 X100.4 Y77.048 E1.71677
G1 X100.4 Y80.222 E1.82234
G1 X100.07 Y80.048 E1.83474
G1 X99.694 Y79.955 E1.84763
G1 X99.306 Y79.955 E1.86053
G1 X98.93 Y80.048 E1.87341
G1 X98.59 Y80.227 E1.88619
G1 X98.298 Y80.484 E1.89913
G1 X98.08 Y80.802 E1.91195
G1 X97.942 Y81.163 E1.92481
G1 X97.896 Y81.548 E1.93771
G1 X97.942 Y81.932 E1.95057
G1 X98.08 Y82.292 E1.96339
G1 X98.298 Y82.61 E1.97622
G1 X98.589 Y82.869 E1.98917
G1 X98.931 Y83.048 E2.00201
G1 X99.307 Y83.14 E2.01489
G1 X99.693 Y83.14 E2.02772
G0 F6000 X99.645 Y82.74
;TYPE:WALL-OUTER
G1 F600 X99.926 Y82.671 E2.03735
G1 X100.182 Y82.537 E2.04696
G1 X100.4 Y82.344 E2.05664
G1 X100.563 Y82.105 E2.06626
G1 X100.667 Y81.835 E2.07589
G1 X100.701 Y81.548 E2.0855
G1 X100.667 Y81.26 E2.09515
G1 X100.563 Y80.989 E2.1048
G1 X100.4 Y80.751 E2.11439
G1 X100.182 Y80.559 E2.12406
G1 X99.927 Y80.425 E2.13364
G1 X99.645 Y80.355 E2.1433
G1 X99.355 Y80.355 E2.15295
G1 X99.073 Y80.425 E2.16261
G1 X98.818 Y80.559 E2.17219
G1 X98.6 Y80.751 E2.18185
G1 X98.437 Y80.989 E2.19145
G1 X98.333 Y81.26 E2.2011
G1 X98.299 Y81.548 E2.21075
G1 X98.333 Y81.835 E2.22036
G1 X98.437 Y82.105 E2.22998
G1 X98.6 Y82.344 E2.23961
G1 X98.818 Y82.537 E2.24929
G1 X99.074 Y82.671 E2.2589
G1 X99.355 Y82.74 E2.26852
G1 X99.645 Y82.74 E2.27817
G0 F6000 X99.697 Y83.176
G1 F2700 E-2.72183
G0 F6000 X100.672 Y85.776
G0 X117.328 Y85.776
G0 X118.308 Y82.934
G1 F2700 E2.27817
G0 F6000 X118.355 Y82.74
G1 F600 X118.645 Y82.74 E2.28782
G1 X118.926 Y82.671 E2.29744
G1 X119.182 Y82.537 E2.30705
G1 X119.4 Y82.344 E2.31673
G1 X119.563 Y82.105 E2.32636
G1 X119.667 Y81.835 E2.33598
G1 X119.701 Y81.548 E2.34559
G1 X119.667 Y81.26 E2.35524
G1 X119.563 Y80.989 E2.36489
G1 X119.4 Y80.751 E2.37449
G1 X119.182 Y80.559 E2.38415
G1 X118.927 Y80.425 E2.39373
G1 X118.645 Y80.355 E2.40339
G1 X118.355 Y80.355 E2.41304
G1 X118.073 Y80.425 E2.4227
G1 X117.818 Y80.559 E2.43228
G1 X117.6 Y80.751 E2.44194
G1 X117.437 Y80.989 E2.45154
G1 X117.333 Y81.26 E2.46119
G1 X117.299 Y81.548 E2.47084
G1 X117.333 Y81.835 E2.48045
G1 X117.437 Y82.105 E2.49007
G1 X117.6 Y82.344 E2.4997
G1 X117.818 Y82.537 E2.50938
G1 X118.074 Y82.671 E2.51899
G1 X118.355 Y82.74 E2.52861
G0 F6000 X118.303 Y83.176
G1 F2700 E-2.47139
G0 F6000 X117.4 Y85.648
G1 F2700 E2.52861
G0 F6000 X117.2 Y85.648
G1 F600 X117.2 Y77.448 E2.80135
G1 X100.8 Y77.448 E3.34681
G1 X100.8 Y85.648 E3.61955
G1 X117.2 Y85.648 E4.16501
G1 F2700 E-0.83499
G0 F6000 X117.4 Y85.648
G0 X116.708 Y85.754
G0 X108.261 Y87.058
G0 X108.261 Y84.783
G0 X108.011 Y106.067
G0 X108.261 Y103.813
G0 X109.059 Y105.884
G0 X109.342 Y110.648
G0 X109.302 Y113.969
G0 X109.059 Y118.411
G0 X108.261 Y120.292
;TYPE:WALL-INNER
G1 F2700 E4.16501
G1 F600 X108.763 Y120.168 E4.18221
G1 X109.228 Y119.927 E4.19963
G1 X109.618 Y119.58 E4.21699
G1 X109.913 Y119.151 E4.23431
G1 X110 Y118.92 E4.24252
G1 X110.087 Y119.151 E4.2447
G1 X110.382 Y119.58 E4.26202
G1 X110.772 Y119.927 E4.27938
G1 X111.237 Y120.168 E4.2968
G1 X111.739 Y120.292 E4.314
G1 X112.261 Y120.292 E4.33136
G1 X112.763 Y120.168 E4.34856
G1 X113.228 Y119.927 E4.36598
G1 X113.618 Y119.58 E4.38334
G1 X113.913 Y119.151 E4.40066
G1 X114.097 Y118.663 E4.41801
G1 X114.16 Y118.148 E4.43526
G1 X114.097 Y117.632 E4.45255
G1 X113.914 Y117.148 E4.46976
G1 X114.097 Y116.663 E4.487
G1 X114.16 Y116.148 E4.50426
G1 X114.097 Y115.632 E4.52155
G1 X113.913 Y115.144 E4.5389
G1 X113.894 Y115.116 E4.54002
G1 X114.134 Y114.766 E4.55414
G1 X114.34 Y114.226 E4.57336
G1 X114.41 Y113.648 E4.59272
G1 X114.34 Y113.069 E4.61212
G1 X114.134 Y112.528 E4.63138
G1 X113.872 Y112.147 E4.64675
G1 X114.134 Y111.766 E4.66213
G1 X114.34 Y111.226 E4.68136
G1 X114.41 Y110.648 E4.70072
G1 X114.34 Y110.069 E4.72012
G1 X114.134 Y109.528 E4.73937
G1 X113.894 Y109.178 E4.75349
G1 X113.913 Y109.151 E4.75459
G1 X114.097 Y108.663 E4.77193
G1 X114.16 Y108.148 E4.78919
G1 X114.097 Y107.632 E4.80648
G1 X113.914 Y107.148 E4.82369
G1 X114.097 Y106.663 E4.84093
G1 X114.16 Y106.148 E4.85819
G1 X114.097 Y105.632 E4.87548
G1 X113.913 Y105.144 E4.89282
G1 X113.618 Y104.715 E4.91014
G1 X113.228 Y104.368 E4.9275
G1 X112.763 Y104.127 E4.94492
G1 X112.261 Y104.003 E4.96212
G1 X111.739 Y104.003 E4.97948
G1 X111.237 Y104.127 E4.99668
G1 X110.772 Y104.368 E5.0141
G1 X110.382 Y104.715 E5.03146
G1 X110.087 Y105.144 E5.04878
G1 X110 Y105.375 E5.05699
G1 X109.913 Y105.144 E5.05917
G1 X109.618 Y104.715 E5.07649
G1 X109.228 Y104.368 E5.09385
G1 X108.763 Y104.127 E5.11127
G1 X108.261 Y104.003 E5.12847
G1 X107.739 Y104.003 E5.14583
G1 X107.237 Y104.127 E5.16303
G1 X106.772 Y104.368 E5.18045
G1 X106.382 Y104.715 E5.19781
G1 X106.087 Y105.144 E5.21513
G1 X105.903 Y105.632 E5.23247
G1 X105.84 Y106.148 E5.24976
G1 X105.903 Y106.663 E5.26702
G1 X106.086 Y107.148 E5.28426
G1 X105.903 Y107.632 E5.30147
G1 X105.84 Y108.148 E5.31876
G1 X105.903 Y108.663 E5.33602
G1 X106.087 Y109.151 E5.35336
G1 X106.106 Y109.178 E5.35446
G1 X105.866 Y109.528 E5.36858
G1 X105.66 Y110.069 E5.38783
G1 X105.59 Y110.648 E5.40723
G1 X105.66 Y111.226 E5.42659
G1 X105.866 Y111.766 E5.44582
G1 X106.128 Y112.147 E5.4612
G1 X105.866 Y112.528 E5.47658
G1 X105.66 Y113.069 E5.49583
G1 X105.59 Y113.648 E5.51523
G1 X105.66 Y114.226 E5.53459
G1 X105.866 Y114.766 E5.55382
G1 X106.106 Y115.116 E5.56793
G1 X106.087 Y115.144 E5.56906
G1 X105.903 Y115.632 E5.5864
G1 X105.84 Y116.148 E5.60369
G1 X105.903 Y116.663 E5.62095
G1 X106.086 Y117.148 E5.63819
G1 X105.903 Y117.632 E5.6554
G1 X105.84 Y118.148 E5.67269
G1 X105.903 Y118.663 E5.68995
G1 X106.087 Y119.151 E5.70729
G1 X106.382 Y119.58 E5.72461
G1 X106.772 Y119.927 E5.74197
G1 X107.237 Y120.168 E5.75939
G1 X107.739 Y120.292 E5.77659
G1 X108.261 Y120.292 E5.79395
G0 F6000 X108.212 Y119.892
G1 F600 X108.621 Y119.791 E5.80796
G1 X108.999 Y119.595 E5.82213
G1 X109.316 Y119.313 E5.83624
G1 X109.556 Y118.964 E5.85033
G1 X109.706 Y118.567 E5.86444
G1 X109.757 Y118.148 E5.87848
G1 X109.706 Y117.728 E5.89255
G1 X109.556 Y117.331 E5.90667
G1 X109.43 Y117.147 E5.91408
G1 X109.556 Y116.964 E5.92147
G1 X109.706 Y116.567 E5.93559
G1 X109.757 Y116.148 E5.94963
G1 X109.706 Y115.728 E5.9637
G1 X109.556 Y115.331 E5.97782
G1 X109.385 Y115.082 E5.98786
G1 X109.504 Y114.976 E5.99316
G1 X109.777 Y114.579 E6.00919
G1 X109.949 Y114.129 E6.02521
G1 X110 Y113.706 E6.03938
G1 X110.051 Y114.129 E6.04124
G1 X110.223 Y114.579 E6.05727
G1 X110.496 Y114.976 E6.07329
G1 X110.615 Y115.082 E6.07859
G1 X110.444 Y115.331 E6.08864
G1 X110.294 Y115.728 E6.10275
G1 X110.243 Y116.148 E6.11683
G1 X110.294 Y116.567 E6.13087
G1 X110.444 Y116.964 E6.14498
G1 X110.57 Y117.147 E6.15237
G1 X110.444 Y117.331 E6.15979
G1 X110.294 Y117.728 E6.1739
G1 X110.243 Y118.148 E6.18798
G1 X110.294 Y118.567 E6.20201
G1 X110.444 Y118.964 E6.21613
G1 X110.684 Y119.313 E6.23022
G1 X111.001 Y119.595 E6.24433
G1 X111.379 Y119.791 E6.25849
G1 X111.788 Y119.892 E6.2725
G1 X112.212 Y119.892 E6.2866
G1 X112.621 Y119.791 E6.30062
G1 X112.999 Y119.595 E6.31478
G1 X113.316 Y119.313 E6.32889
G1 X113.556 Y118.964 E6.34298
G1 X113.706 Y118.567 E6.35709
G1 X113.757 Y118.148 E6.37113
G1 X113.706 Y117.728 E6.3852
G1 X113.556 Y117.331 E6.39932
G1 X113.43 Y117.147 E6.40674
G1 X113.556 Y116.964 E6.41413
G1 X113.706 Y116.567 E6.42824
G1 X113.757 Y116.148 E6.44228
G1 X113.706 Y115.728 E6.45635
G1 X113.556 Y115.331 E6.47047
G1 X113.385 Y115.082 E6.48051
G1 X113.504 Y114.976 E6.48581
G1 X113.777 Y114.579 E6.50184
G1 X113.949 Y114.129 E6.51786
G1 X114.007 Y113.648 E6.53398
G1 X113.949 Y113.166 E6.55012
G1 X113.777 Y112.715 E6.56618
G1 X113.504 Y112.317 E6.58223
G1 X113.312 Y112.148 E6.59074
G1 X113.504 Y111.976 E6.59496
G1 X113.777 Y111.579 E6.61099
G1 X113.949 Y111.129 E6.62701
G1 X114.007 Y110.648 E6.64312
G1 X113.949 Y110.166 E6.65927
G1 X113.777 Y109.715 E6.67532
G1 X113.504 Y109.317 E6.69138
G1 X113.385 Y109.212 E6.69666
G1 X113.556 Y108.964 E6.70667
G1 X113.706 Y108.567 E6.72079
G1 X113.757 Y108.148 E6.73483
G1 X113.706 Y107.728 E6.7489
G1 X113.556 Y107.331 E6.76302
G1 X113.43 Y107.147 E6.77043
G1 X113.556 Y106.964 E6.77782
G1 X113.706 Y106.567 E6.79194
G1 X113.757 Y106.148 E6.80598
G1 X113.706 Y105.728 E6.82005
G1 X113.556 Y105.331 E6.83416
G1 X113.316 Y104.982 E6.84825
G1 X112.999 Y104.7 E6.86236
G1 X112.621 Y104.504 E6.87653
G1 X112.212 Y104.403 E6.89054
G1 X111.788 Y104.403 E6.90464
G1 X111.379 Y104.504 E6.91865
G1 X111.001 Y104.7 E6.93281
G1 X110.684 Y104.982 E6.94693
G1 X110.444 Y105.331 E6.96101
G1 X110.294 Y105.728 E6.97513
G1 X110.243 Y106.148 E6.9892
G1 X110.294 Y106.567 E7.00324
G1 X110.444 Y106.964 E7.01735
G1 X110.57 Y107.147 E7.02474
G1 X110.444 Y107.331 E7.03216
G1 X110.294 Y107.728 E7.04628
G1 X110.243 Y108.148 E7.06035
G1 X110.294 Y108.567 E7.07439
G1 X110.444 Y108.964 E7.0885
G1 X110.615 Y109.212 E7.09852
G1 X110.496 Y109.317 E7.1038
G1 X110.223 Y109.715 E7.11985
G1 X110.051 Y110.166 E7.13591
G1 X110 Y110.59 E7.15011
G1 X109.949 Y110.166 E7.15198
G1 X109.777 Y109.715 E7.16803
G1 X109.504 Y109.317 E7.18408
G1 X109.385 Y109.212 E7.18936
G1 X109.556 Y108.964 E7.19938
G1 X109.706 Y108.567 E7.2135
G1 X109.757 Y108.148 E7.22754
G1 X109.706 Y107.728 E7.24161
G1 X109.556 Y107.331 E7.25572
G1 X109.43 Y107.147 E7.26314
G1 X109.556 Y106.964 E7.27053
G1 X109.706 Y106.567 E7.28465
G1 X109.757 Y106.148 E7.29869
G1 X109.706 Y105.728 E7.31276
G1 X109.556 Y105.331 E7.32687
G1 X109.316 Y104.982 E7.34096
G1 X108.999 Y104.7 E7.35507
G1 X108.621 Y104.504 E7.36923
G1 X108.212 Y104.403 E7.38325
G1 X107.788 Y104.403 E7.39735
G1 X107.379 Y104.504 E7.41136
G1 X107.001 Y104.7 E7.42552
G1 X106.684 Y104.982 E7.43963
G1 X106.444 Y105.331 E7.45372
G1 X106.294 Y105.728 E7.46784
G1 X106.243 Y106.148 E7.48191
G1 X106.294 Y106.567 E7.49595
G1 X106.444 Y106.964 E7.51006
G1 X106.57 Y107.147 E7.51745
G1 X106.444 Y107.331 E7.52487
G1 X106.294 Y107.728 E7.53898
G1 X106.243 Y108.148 E7.55306
G1 X106.294 Y108.567 E7.5671
G1 X106.444 Y108.964 E7.58121
G1 X106.615 Y109.212 E7.59123
G1 X106.496 Y109.317 E7.59651
G1 X106.223 Y109.715 E7.61256
G1 X106.051 Y110.166 E7.62862
G1 X105.993 Y110.648 E7.64476
G1 X106.051 Y111.129 E7.66088
G1 X106.223 Y111.579 E7.6769
G1 X106.496 Y111.976 E7.69292
G1 X106.688 Y112.147 E7.70148
G1 X106.496 Y112.317 E7.70565
G1 X106.223 Y112.715 E7.7217
G1 X106.051 Y113.166 E7.73776
G1 X105.993 Y113.648 E7.75391
G1 X106.051 Y114.129 E7.77002
G1 X106.223 Y114.579 E7.78604
G1 X106.496 Y114.976 E7.80207
G1 X106.615 Y115.082 E7.80737
G1 X106.444 Y115.331 E7.81742
G1 X106.294 Y115.728 E7.83153
G1 X106.243 Y116.148 E7.8456
G1 X106.294 Y116.567 E7.85964
G1 X106.444 Y116.964 E7.87376
G1 X106.57 Y117.147 E7.88115
G1 X106.444 Y117.331 E7.88856
G1 X106.294 Y117.728 E7.90268
G1 X106.243 Y118.148 E7.91675
G1 X106.294 Y118.567 E7.93079
G1 X106.444 Y118.964 E7.94491
G1 X106.684 Y119.313 E7.95899
G1 X107.001 Y119.595 E7.9731
G1 X107.379 Y119.791 E7.98727
G1 X107.788 Y119.892 E8.00128
G1 X108.212 Y119.892 E8.01538
G0 F6000 X108.163 Y119.492
G1 F600 X108.479 Y119.414 E8.02621
G1 X108.77 Y119.263 E8.03711
G1 X109.014 Y119.046 E8.04797
G1 X109.199 Y118.777 E8.05883
G1 X109.315 Y118.471 E8.06971
G1 X109.354 Y118.148 E8.08053
G1 X109.315 Y117.824 E8.09139
G1 X109.199 Y117.518 E8.10227
G1 X109.014 Y117.249 E8.11313
G1 X108.9 Y117.148 E8.1182
G1 X109.014 Y117.046 E8.12019
G1 X109.199 Y116.777 E8.13105
G1 X109.315 Y116.471 E8.14193
G1 X109.354 Y116.148 E8.15276
G1 X109.315 Y115.824 E8.16361
G1 X109.199 Y115.518 E8.17449
G1 X109.014 Y115.249 E8.18535
G1 X108.778 Y115.039 E8.19586
G1 X108.911 Y114.969 E8.19675
G1 X109.202 Y114.71 E8.2097
G1 X109.42 Y114.392 E8.22253
G1 X109.558 Y114.032 E8.23535
G1 X109.604 Y113.648 E8.24821
G1 X109.558 Y113.263 E8.26111
G1 X109.42 Y112.902 E8.27396
G1 X109.202 Y112.584 E8.28679
G1 X108.91 Y112.327 E8.29972
G1 X108.569 Y112.148 E8.31253
G1 X108.911 Y111.969 E8.31911
G1 X109.202 Y111.71 E8.33207
G1 X109.42 Y111.392 E8.34489
G1 X109.558 Y111.032 E8.35771
G1 X109.604 Y110.648 E8.37058
G1 X109.558 Y110.263 E8.38347
G1 X109.42 Y109.902 E8.39633
G1 X109.202 Y109.584 E8.40915
G1 X108.91 Y109.327 E8.42209
G1 X108.777 Y109.257 E8.42709
G1 X109.014 Y109.046 E8.43353
G1 X109.199 Y108.777 E8.44439
G1 X109.315 Y108.471 E8.45527
G1 X109.354 Y108.148 E8.46609
G1 X109.315 Y107.824 E8.47695
G1 X109.199 Y107.518 E8.48783
G1 X109.014 Y107.249 E8.49869
G1 X108.9 Y107.148 E8.50376
G1 X109.014 Y107.046 E8.50575
G1 X109.199 Y106.777 E8.51661
G1 X109.315 Y106.471 E8.52749
G1 X109.354 Y106.148 E8.53831
G1 X109.315 Y105.824 E8.54917
G1 X109.199 Y105.518 E8.56005
G1 X109.014 Y105.249 E8.57091
G1 X108.77 Y105.032 E8.58177
G1 X108.479 Y104.881 E8.59268
G1 X108.163 Y104.803 E8.6035
G1 X107.837 Y104.803 E8.61434
G1 X107.521 Y104.881 E8.62517
G1 X107.23 Y105.032 E8.63607
G1 X106.986 Y105.249 E8.64693
G1 X106.801 Y105.518 E8.65779
G1 X106.685 Y105.824 E8.66868
G1 X106.646 Y106.148 E8.67953
G1 X106.685 Y106.471 E8.69035
G1 X106.801 Y106.777 E8.70124
G1 X106.986 Y107.046 E8.7121
G1 X107.1 Y107.148 E8.71718
G1 X106.986 Y107.249 E8.71916
G1 X106.801 Y107.518 E8.73002
G1 X106.685 Y107.824 E8.74091
G1 X106.646 Y108.148 E8.75176
G1 X106.685 Y108.471 E8.76258
G1 X106.801 Y108.777 E8.77347
G1 X106.986 Y109.046 E8.78432
G1 X107.223 Y109.257 E8.79488
G1 X107.09 Y109.327 E8.79576
G1 X106.798 Y109.584 E8.8087
G1 X106.58 Y109.902 E8.82152
G1 X106.442 Y110.263 E8.83438
G1 X106.396 Y110.648 E8.84727
G1 X106.442 Y111.032 E8.86014
G1 X106.58 Y111.392 E8.87296
G1 X106.798 Y111.71 E8.88578
G1 X107.089 Y111.969 E8.89874
G1 X107.43 Y112.148 E8.91155
G1 X107.09 Y112.327 E8.91808
G1 X106.798 Y112.584 E8.93102
G1 X106.58 Y112.902 E8.94384
G1 X106.442 Y113.263 E8.9567
G1 X106.396 Y113.648 E8.96959
G1 X106.442 Y114.032 E8.98246
G1 X106.58 Y114.392 E8.99528
G1 X106.798 Y114.71 E9.0081
G1 X107.089 Y114.969 E9.02106
G1 X107.222 Y115.039 E9.02606
G1 X106.986 Y115.249 E9.03245
G1 X106.801 Y115.518 E9.04331
G1 X106.685 Y115.824 E9.05419
G1 X106.646 Y116.148 E9.06505
G1 X106.685 Y116.471 E9.07587
G1 X106.801 Y116.777 E9.08675
G1 X106.986 Y117.046 E9.09761
G1 X107.1 Y117.148 E9.1027
G1 X106.986 Y117.249 E9.10468
G1 X106.801 Y117.518 E9.11554
G1 X106.685 Y117.824 E9.12642
G1 X106.646 Y118.148 E9.13728
G1 X106.685 Y118.471 E9.1481
G1 X106.801 Y118.777 E9.15898
G1 X106.986 Y119.046 E9.16984
G1 X107.23 Y119.263 E9.1807
G1 X107.521 Y119.414 E9.1916
G1 X107.837 Y119.492 E9.20243
G1 X108.163 Y119.492 E9.21327
G0 F6000 X108.114 Y119.092
;TYPE:WALL-OUTER
G1 F600 X108.337 Y119.037 E9.22091
