;FLAVOR:Marlin
;TIME:4683
;Filament used: 4.63139m
;Layer height: 0.2
;MINX:75.606
;MINY:61.782
;MINZ:0.24
;MAXX:144.436
;MAXY:144.817
;MAXZ:8.09
;Generated with Cura_SteamEngine 4.12.1
M140 S50
M105
M190 S50
M104 S200
M105
M109 S200
M82 ;absolute extrusion mode
M201 X500.00 Y500.00 Z100.00 E5000.00 ;Setup machine max acceleration
M203 X500.00 Y500.00 Z10.00 E50.00 ;Setup machine max feedrate
M204 P500.00 R1000.00 T500.00 ;Setup Print/Retract/Travel acceleration
M205 X8.00 Y8.00 Z0.40 E5.00 ;Setup Jerk
M220 S100 ;Reset Feedrate
M221 S100 ;Reset Flowrate

G28 ;Home

G92 E0 ;Reset Extruder
G1 Z2.0 F3000 ;Move Z Axis up
G1 X10.1 Y20 Z0.28 F5000.0 ;Move to start position
G1 X10.1 Y200.0 Z0.28 F1500.0 E15 ;Draw the first line
G1 X10.4 Y200.0 Z0.28 F5000.0 ;Move to side a little
G1 X10.4 Y20 Z0.28 F1500.0 E30 ;Draw the second line
G92 E0 ;Reset Extruder
G1 Z2.0 F3000 ;Move Z Axis up

G92 E0
G92 E0
G1 F2700 E-5
;LAYER_COUNT:35
;LAYER:-6
M107
G0 F12000 X82.806 Y75.508 Z0.24
;TYPE:SUPPORT-INTERFACE
G1 F2700 E0
G1 F1800 X84.874 Y73.254 E0.24418
G1 X84.98 Y73.145 E0.25631
G1 X85.22 Y72.91 E0.28313
G1 X85.326 Y72.811 E0.29471
G1 X87.597 Y70.796 E0.53706
G1 X87.697 Y70.712 E0.54748
G1 X87.964 Y70.498 E0.5748
G1 X88.099 Y70.396 E0.5883
G1 X90.57 Y68.624 E0.83102
G1 X90.662 Y68.561 E0.83992
G1 X90.986 Y68.353 E0.87066
G1 X91.088 Y68.29 E0.88023
G1 X93.734 Y66.779 E1.12346
G1 X93.867 Y66.708 E1.13549
G1 X94.182 Y66.549 E1.16366
G1 X94.301 Y66.493 E1.17416
G1 X97.084 Y65.265 E1.41697
G1 X97.206 Y65.215 E1.4275
G1 X97.536 Y65.089 E1.45569
G1 X97.682 Y65.038 E1.46804
G1 X100.601 Y64.094 E1.71293
G1 X100.676 Y64.072 E1.71917
G1 X101.064 Y63.969 E1.75121
G1 X101.165 Y63.945 E1.7595
G1 X104.143 Y63.313 E2.00251
G1 X104.301 Y63.284 E2.01533
G1 X104.751 Y63.214 E2.05168
G1 X107.831 Y62.887 E2.29893
G1 X108.32 Y62.859 E2.33802
G1 X108.422 Y62.856 E2.34617
G1 X111.467 Y62.847 E2.58923
G1 X111.622 Y62.851 E2.60161
G1 X111.981 Y62.868 E2.6303
G1 X112.105 Y62.877 E2.64023
G1 X115.161 Y63.186 E2.88541
G1 X115.636 Y63.256 E2.92374
G1 X115.741 Y63.276 E2.93227
G1 X118.774 Y63.902 E3.17948
G1 X119.231 Y64.019 E3.21714
G1 X119.342 Y64.051 E3.22636
G1 X122.272 Y64.981 E3.47174
G1 X122.364 Y65.013 E3.47952
G1 X122.722 Y65.149 E3.51009
G1 X122.845 Y65.199 E3.52069
G1 X125.648 Y66.418 E3.76468
G1 X125.744 Y66.462 E3.77311
G1 X126.061 Y66.62 E3.80138
G1 X126.216 Y66.702 E3.81538
G1 X128.862 Y68.195 E4.0579
G1 X128.944 Y68.244 E4.06552
G1 X129.254 Y68.44 E4.0948
G1 X129.401 Y68.539 E4.10894
G1 X131.85 Y70.276 E4.34861
G1 X131.968 Y70.364 E4.36036
G1 X132.251 Y70.587 E4.38913
G1 X132.344 Y70.664 E4.39876
G1 X134.661 Y72.697 E4.64482
G1 X134.728 Y72.759 E4.65211
G1 X135.003 Y73.026 E4.6827
G1 X135.1 Y73.126 E4.69382
G1 X137.165 Y75.354 E4.93631
G1 X137.245 Y75.445 E4.94598
G1 X137.488 Y75.735 E4.97619
G1 X137.562 Y75.828 E4.98567
G1 X139.412 Y78.291 E5.23156
G1 X139.464 Y78.364 E5.23872
G1 X139.7 Y78.713 E5.27235
G1 X141.332 Y81.428 E5.52521
G1 X141.38 Y81.514 E5.53307
G1 X141.554 Y81.842 E5.56271
G1 X141.61 Y81.954 E5.57271
G1 X142.904 Y84.718 E5.81632
G1 X142.952 Y84.83 E5.82605
G1 X143.099 Y85.202 E5.85798
G1 X143.185 Y85.47 E5.88045
G1 X143.246 Y85.717 E5.90076
G1 X143.308 Y86.068 E5.92921
G1 X143.36 Y86.644 E5.97537
G1 X143.371 Y86.877 E5.99399
G1 X143.371 Y125.675 E9.09102
G1 X143.36 Y126.035 E9.11977
G1 X143.352 Y126.163 E9.13001
G1 X143.194 Y128.17 E9.29071
G1 X143.178 Y128.307 E9.30172
G1 X143.086 Y128.892 E9.34899
G1 X143.055 Y129.049 E9.36176
G1 X142.598 Y130.954 E9.51814
G1 X142.547 Y131.134 E9.53308
G1 X142.365 Y131.692 E9.57993
G1 X142.315 Y131.829 E9.59157
G1 X141.56 Y133.65 E9.74893
G1 X141.493 Y133.797 E9.76183
G1 X141.228 Y134.318 E9.80848
G1 X141.143 Y134.471 E9.82246
G1 X140.118 Y136.143 E9.97901
G1 X140.028 Y136.278 E9.99196
G1 X139.684 Y136.754 E10.03884
G1 X139.59 Y136.873 E10.05094
G1 X138.31 Y138.372 E10.20829
G1 X138.199 Y138.493 E10.22139
G1 X137.772 Y138.92 E10.2696
G1 X137.66 Y139.023 E10.28174
G1 X136.169 Y140.297 E10.43829
G1 X136.035 Y140.403 E10.45193
G1 X135.551 Y140.754 E10.49966
G1 X135.434 Y140.832 E10.51088
G1 X133.757 Y141.861 E10.66794
G1 X133.582 Y141.958 E10.68391
G1 X133.105 Y142.201 E10.72664
G1 X132.928 Y142.282 E10.74218
G1 X131.11 Y143.036 E10.89929
G1 X130.97 Y143.087 E10.91118
G1 X130.412 Y143.269 E10.95803
G1 X130.242 Y143.317 E10.97213
G1 X128.328 Y143.777 E11.12927
G1 X128.182 Y143.806 E11.14115
G1 X127.593 Y143.899 E11.18875
G1 X127.449 Y143.916 E11.20032
G1 X125.441 Y144.074 E11.3611
G1 X125.072 Y144.09 E11.39059
G1 X124.951 Y144.093 E11.40025
G1 X94.93 Y144.093 E13.79666
G1 X94.539 Y144.079 E13.82789
G1 X92.481 Y143.918 E13.99267
G1 X92.318 Y143.899 E14.00577
G1 X91.731 Y143.807 E14.0532
G1 X91.587 Y143.778 E14.06492
G1 X89.696 Y143.324 E14.22016
G1 X89.526 Y143.276 E14.23426
G1 X88.968 Y143.094 E14.28111
G1 X88.815 Y143.038 E14.29412
G1 X87.025 Y142.296 E14.44879
G1 X86.895 Y142.236 E14.46022
G1 X86.352 Y141.96 E14.50884
G1 X86.209 Y141.881 E14.52188
G1 X84.542 Y140.859 E14.67797
G1 X84.434 Y140.788 E14.68828
G1 X83.952 Y140.436 E14.73593
G1 X83.803 Y140.318 E14.7511
G1 X82.352 Y139.078 E14.90346
G1 X82.217 Y138.954 E14.91809
G1 X81.81 Y138.547 E14.96404
G1 X81.685 Y138.411 E14.97878
G1 X80.432 Y136.945 E15.13272
G1 X80.336 Y136.822 E15.14518
G1 X79.989 Y136.346 E15.1922
G1 X79.893 Y136.202 E15.20601
G1 X78.889 Y134.564 E15.35937
G1 X78.8 Y134.405 E15.37392
G1 X78.543 Y133.901 E15.41908
G1 X78.454 Y133.707 E15.43612
G1 X77.718 Y131.928 E15.5898
G1 X77.672 Y131.803 E15.60043
G1 X77.489 Y131.238 E15.64784
G1 X77.438 Y131.054 E15.66308
G1 X76.988 Y129.184 E15.81661
G1 X76.956 Y129.026 E15.82948
G1 X76.862 Y128.433 E15.87741
G1 X76.845 Y128.291 E15.88882
G1 X76.687 Y126.279 E16.04992
G1 X76.671 Y125.826 E16.08611
G1 X76.671 Y86.967 E19.188
G1 X76.675 Y86.841 E19.19806
G1 X76.699 Y86.464 E19.22822
G1 X76.736 Y86.169 E19.25195
G1 X76.786 Y85.909 E19.27308
G1 X76.874 Y85.583 E19.30004
G1 X77.072 Y85.032 E19.34677
G1 X77.144 Y84.854 E19.3621
G1 X78.407 Y82.117 E19.60272
G1 X78.619 Y81.709 E19.63942
G1 X78.7 Y81.565 E19.65261
G1 X80.251 Y78.947 E19.89551
G1 X80.528 Y78.528 E19.93561
G1 X80.596 Y78.432 E19.945
G1 X82.404 Y75.999 E20.18696
G1 X82.499 Y75.876 E20.19937
G1 X82.737 Y75.587 E20.22926
G1 X82.806 Y75.508 E20.23763
G0 F12000 X83.2 Y75.078
G1 F1800 X83.2 Y139.802 E25.40418
G0 F12000 X84.8 Y141.017
G1 F1800 X84.8 Y73.334 E30.80693
G0 F12000 X86.4 Y71.858
G1 F1800 X86.4 Y141.984 E36.40469
G0 F12000 X88 Y142.7
G1 F1800 X88 Y70.47 E42.1704
G0 F12000 X89.6 Y69.319
G1 F1800 X89.6 Y143.296 E48.07556
G0 F12000 X91.2 Y143.685
G1 F1800 X91.2 Y68.226 E54.09903
G0 F12000 X92.8 Y67.312
G1 F1800 X92.8 Y143.942 E60.21596
G0 F12000 X94.4 Y144.068
G1 F1800 X94.4 Y66.449 E66.41185
G0 F12000 X96 Y65.743
G1 F1800 X96 Y144.093 E72.66608
G0 F12000 X97.6 Y144.093
G1 F1800 X97.6 Y65.066 E78.97436
G0 F12000 X99.2 Y64.547
G1 F1800 X99.2 Y144.093 E85.32407
G0 F12000 X100.8 Y144.093
G1 F1800 X100.8 Y64.039 E91.71432
G0 F12000 X102.4 Y63.682
G1 F1800 X102.4 Y144.093 E98.13308
G0 F12000 X104 Y144.093
G1 F1800 X104 Y63.343 E104.57889
G0 F12000 X105.6 Y63.123
G1 F1800 X105.6 Y144.093 E111.04227
G0 F12000 X107.2 Y144.093
G1 F1800 X107.2 Y62.953 E117.51921
G0 F12000 X108.8 Y62.854
G1 F1800 X108.8 Y144.093 E124.00406
G0 F12000 X110.4 Y144.093
G1 F1800 X110.4 Y62.85 E130.48923
G0 F12000 X112 Y62.87
G1 F1800 X112 Y144.093 E136.9728
G0 F12000 X113.6 Y144.093
G1 F1800 X113.6 Y63.029 E143.44368
G0 F12000 X115.2 Y63.192
G1 F1800 X115.2 Y144.093 E149.90155
G0 F12000 X116.8 Y144.093
G1 F1800 X116.8 Y63.495 E156.33523
G0 F12000 X118.4 Y63.825
G1 F1800 X118.4 Y144.093 E162.74257
G0 F12000 X120 Y144.093
G1 F1800 X120 Y64.26 E169.11518
G0 F12000 X121.6 Y64.768
G1 F1800 X121.6 Y144.093 E175.44725
G0 F12000 X123.2 Y144.093
G1 F1800 X123.2 Y65.354 E181.73253
G0 F12000 X124.8 Y66.05
G1 F1800 X124.8 Y144.093 E187.96226
G0 F12000 X126.4 Y143.999
G1 F1800 X126.4 Y66.806 E194.12414
G0 F12000 X128 Y67.709
G1 F1800 X128 Y143.835 E200.20085
G0 F12000 X129.6 Y143.472
G1 F1800 X129.6 Y68.681 E206.17099
G0 F12000 X131.2 Y69.815
G1 F1800 X131.2 Y142.999 E212.01285
G0 F12000 X132.8 Y142.336
G1 F1800 X132.8 Y71.065 E217.70201
G0 F12000 X134.4 Y72.468
G1 F1800 X134.4 Y141.467 E223.20981
G0 F12000 X136 Y140.429
G1 F1800 X136 Y74.098 E228.50464
G0 F12000 X137.6 Y75.879
G1 F1800 X137.6 Y139.075 E233.54922
G0 F12000 X139.2 Y137.33
G1 F1800 X139.2 Y78.009 E238.28447
G0 F12000 X140.8 Y80.543
G1 F1800 X140.8 Y135.031 E242.63394
G0 F12000 X142.4 Y131.585
G1 F1800 X142.4 Y83.642 E246.46096
G1 F2700 E241.46096
G0 F12000 X143.364 Y83.191
G0 X142.25 Y80.889
G0 X140.269 Y77.66
G0 X137.959 Y74.645
G0 X135.37 Y71.903
G0 X132.48 Y69.418
G0 X129.402 Y67.278
G0 X126.086 Y65.447
G0 X122.612 Y63.973
G0 X118.999 Y62.861
G0 X115.279 Y62.128
G0 X111.483 Y61.782
G0 X107.732 Y61.827
G0 X103.937 Y62.269
G0 X100.282 Y63.079
G0 X96.672 Y64.284
G0 X93.225 Y65.845
G0 X89.961 Y67.752
G0 X86.905 Y69.987
G0 X84.095 Y72.528
G0 X81.812 Y75.07
G0 X80.745 Y76.446
G0 X81.6 Y77.08
G1 F2700 E246.46096
G1 F1800 X81.6 Y138.311 E251.34868
G0 F12000 X80 Y136.361
G1 F1800 X80 Y79.37 E255.89795
G0 F12000 X78.4 Y82.132
G1 F1800 X78.4 Y133.576 E260.00443
G1 F2700 E255.00443
G0 F12000 X77.417 Y133.983
G0 X76.663 Y132.143
G0 X76.409 Y131.326
G0 X76.127 Y130.135
G0 X75.785 Y128.388
G0 X76.8 Y127.717
G1 F2700 E260.00443
G1 F1800 X76.8 Y85.857 E263.34588
G1 F2700 E258.34588
G0 F300 X76.8 Y85.857 Z0.54
G0 F12000 X75.859 Y85.259
G0 X76.163 Y84.441
G0 X77.776 Y81.037
G0 X79.737 Y77.803
G0 X82.016 Y74.795
G0 X84.608 Y72.026
G0 X87.186 Y69.785
G0 X89.961 Y67.752
G0 X90.982 Y68.355
;TIME_ELAPSED:123.105485
;LAYER:-5
;TYPE:SUPPORT
G1 F2700 E263.34588
G1 F1800 X143.37 Y120.742 E270.73832
G1 X143.37 Y122.156 E270.87941
G1 X90.143 Y68.93 E278.39025
G1 X89.319 Y69.52 E278.49137
G1 X143.37 Y123.571 E286.11855
G1 X143.37 Y124.985 E286.25964
G1 X88.495 Y70.111 E294.00302
G1 X88.097 Y70.396 E294.05187
G1 X87.963 Y70.497 E294.06861
G1 X87.696 Y70.712 E294.10281
G1 X87.689 Y70.719 E294.1038
G1 X143.335 Y126.364 E301.95598
G1 X143.232 Y127.675 E302.0872
G1 X86.937 Y71.381 E310.03096
G1 X86.187 Y72.045 E310.13091
G1 X143.077 Y128.935 E318.1587
G1 X143.054 Y129.049 E318.17031
G1 X142.807 Y130.079 E318.276
G1 X85.439 Y72.711 E326.37124
G1 X85.325 Y72.81 E326.38631
G1 X85.219 Y72.909 E326.40078
G1 X84.979 Y73.145 E326.43436
G1 X84.873 Y73.254 E326.44953
G1 X84.726 Y73.413 E326.47114
G1 X142.522 Y131.208 E334.62671
G1 X142.363 Y131.692 E334.67754
G1 X142.314 Y131.829 E334.69206
G1 X142.143 Y132.243 E334.73676
G1 X84.05 Y74.15 E342.93431
G1 X83.372 Y74.887 E343.03423
G1 X141.728 Y133.242 E351.26882
G1 X141.559 Y133.649 E351.31279
G1 X141.492 Y133.797 E351.329
G1 X141.282 Y134.21 E351.37523
G1 X82.7 Y75.629 E359.64172
G1 X82.498 Y75.876 E359.67355
G1 X82.403 Y75.998 E359.68898
G1 X82.083 Y76.426 E359.7423
G1 X140.757 Y135.1 E368.02184
G1 X140.219 Y135.977 E368.1245
G1 X81.481 Y77.238 E376.41314
G1 X80.878 Y78.049 E376.51398
G1 X139.639 Y136.811 E384.80586
G1 X139.589 Y136.872 E384.81373
G1 X138.989 Y137.575 E384.90595
G1 X80.294 Y78.879 E393.18852
G1 X80.25 Y78.946 E393.19652
G1 X79.765 Y79.765 E393.29149
G1 X138.338 Y138.338 E401.55677
G1 X138.31 Y138.37 E401.56102
G1 X138.199 Y138.491 E401.5774
G1 X137.771 Y138.918 E401.63773
G1 X137.66 Y139.022 E401.6529
G1 X137.631 Y139.046 E401.65666
G1 X79.239 Y80.653 E409.89647
G1 X78.713 Y81.541 E409.99945
G1 X136.869 Y139.697 E418.20589
G1 X136.168 Y140.295 E418.29783
G1 X136.103 Y140.346 E418.30608
G1 X78.237 Y82.48 E426.47159
G1 X77.791 Y83.448 E426.57794
G1 X135.272 Y140.929 E434.68913
G1 X134.396 Y141.467 E434.79171
G1 X77.344 Y84.415 E442.84236
G1 X77.143 Y84.852 E442.89036
G1 X77.071 Y85.031 E442.90961
G1 X76.932 Y85.417 E442.95054
G1 X133.508 Y141.994 E450.9341
G1 X133.105 Y142.199 E450.97921
G1 X132.927 Y142.281 E450.99877
G1 X132.541 Y142.441 E451.04046
G1 X76.69 Y86.59 E458.92164
G1 X76.675 Y86.84 E458.94663
G1 X76.67 Y86.966 E458.95921
G1 X76.67 Y87.984 E459.06079
G1 X131.541 Y142.855 E466.80368
G1 X131.11 Y143.034 E466.85025
G1 X130.969 Y143.086 E466.86524
G1 X130.508 Y143.236 E466.91362
G1 X76.67 Y89.398 E474.51074
G1 X76.67 Y90.813 E474.65193
G1 X129.38 Y143.522 E482.08981
G1 X128.327 Y143.776 E482.19789
G1 X128.237 Y143.793 E482.20703
G1 X76.67 Y92.227 E489.48362
G1 X76.67 Y93.641 E489.62471
G1 X126.98 Y143.951 E496.72399
G1 X125.669 Y144.054 E496.85521
G1 X76.67 Y95.055 E503.7695
G1 X76.67 Y96.469 E503.91059
G1 X124.293 Y144.092 E510.63071
G1 X122.878 Y144.092 E510.7719
G1 X76.67 Y97.884 E517.29234
G1 X76.67 Y99.298 E517.43343
G1 X121.464 Y144.092 E523.75435
G1 X120.05 Y144.092 E523.89544
G1 X76.67 Y100.712 E530.01683
G1 X76.67 Y102.126 E530.15792
G1 X118.636 Y144.092 E536.07977
G1 X117.222 Y144.092 E536.22086
G1 X76.67 Y103.54 E541.94319
G1 X76.67 Y104.955 E542.08438
G1 X115.807 Y144.092 E547.60703
G1 X114.393 Y144.092 E547.74812
G1 X76.67 Y106.369 E553.07124
G1 X76.67 Y107.783 E553.21233
G1 X112.979 Y144.092 E558.33592
G1 X111.565 Y144.092 E558.47701
G1 X76.67 Y109.197 E563.40107
G1 X76.67 Y110.612 E563.54226
G1 X110.15 Y144.092 E568.26665
G1 X108.736 Y144.092 E568.40774
G1 X76.67 Y112.026 E572.9326
G1 X76.67 Y113.44 E573.07369
G1 X107.322 Y144.092 E577.39902
G1 X105.908 Y144.092 E577.54011
G1 X76.67 Y114.854 E581.66591
G1 X76.67 Y116.268 E581.807
G1 X104.494 Y144.092 E585.73326
G1 X103.079 Y144.092 E585.87445
G1 X76.67 Y117.683 E589.60105
G1 X76.67 Y119.097 E589.74214
G1 X101.665 Y144.092 E593.2692
G1 X100.251 Y144.092 E593.41029
G1 X76.67 Y120.511 E596.73782
G1 X76.67 Y121.925 E596.87891
G1 X98.837 Y144.092 E600.00692
G1 X97.423 Y144.092 E600.14801
G1 X76.67 Y123.339 E603.07648
G1 X76.67 Y124.754 E603.21767
G1 X96.008 Y144.092 E605.94647
G1 X94.929 Y144.092 E606.05413
G1 X94.582 Y144.08 E606.08878
G1 X76.683 Y126.181 E608.61452
G1 X76.687 Y126.277 E608.62411
G1 X76.799 Y127.711 E608.76763
G1 X93.05 Y143.961 E611.06075
G1 X92.481 Y143.917 E611.11769
G1 X92.317 Y143.898 E611.13417
G1 X91.73 Y143.806 E611.19345
G1 X91.587 Y143.777 E611.20801
G1 X91.408 Y143.734 E611.22638
G1 X77.028 Y129.354 E613.25555
G1 X77.438 Y131.053 E613.42995
G1 X77.485 Y131.225 E613.44774
G1 X89.537 Y143.277 E615.14841
G1 X89.526 Y143.274 E615.14954
G1 X88.968 Y143.092 E615.20811
G1 X88.814 Y143.037 E615.22442
G1 X87.223 Y142.377 E615.39629
G1 X78.384 Y133.539 E616.6435
G1 X78.454 Y133.706 E616.66157
G1 X78.542 Y133.9 E616.68282
G1 X78.799 Y134.404 E616.73927
G1 X78.889 Y134.563 E616.7575
G1 X79.893 Y136.201 E616.9492
G1 X79.988 Y136.345 E616.96642
G1 X80.335 Y136.82 E617.02511
G1 X80.431 Y136.943 E617.04068
G1 X80.763 Y137.332 E617.09171
G1 X83.432 Y140 E617.46826
G1 X82.351 Y139.077 E617.6101
G1 X82.216 Y138.953 E617.62839
G1 X81.809 Y138.546 E617.68582
G1 X81.684 Y138.41 E617.70425
G1 F2700 E612.70425
G0 F12000 X80.875 Y139.102
G0 X79.483 Y137.459
G0 X79 Y136.782
G0 X77.857 Y134.9
G0 X77.481 Y134.139
G0 X76.663 Y132.143
G0 X76.409 Y131.326
G0 X75.91 Y129.223
G0 X75.785 Y128.388
G0 X75.606 Y125.832
G0 X75.639 Y86.362
G0 X75.859 Y85.259
G0 X76.163 Y84.441
G0 X77.776 Y81.037
G0 X79.737 Y77.803
G0 X82.016 Y74.795
G0 X84.608 Y72.026
G0 X87.186 Y69.785
G0 X90.078 Y67.671
G0 X90.984 Y68.353
G1 F2700 E617.70425
G1 F1800 X91.087 Y68.29 E617.7163
G1 X91.88 Y67.838 E617.80737
G1 X143.37 Y119.328 E625.07317
G1 X143.37 Y117.914 E625.21426
G1 X92.779 Y67.323 E632.3532
G1 X93.679 Y66.809 E632.45661
G1 X143.37 Y116.5 E639.46855
G1 X143.37 Y115.085 E639.60974
G1 X94.631 Y66.347 E646.48727
G1 X95.612 Y65.914 E646.59426
G1 X143.37 Y113.671 E653.33336
G1 X143.37 Y112.257 E653.47445
G1 X96.594 Y65.481 E660.07505
G1 X97.083 Y65.265 E660.12839
G1 X97.205 Y65.214 E660.14158
G1 X97.535 Y65.089 E660.17679
G1 X97.595 Y65.068 E660.18314
G1 X143.37 Y110.843 E666.64248
G1 X143.37 Y109.429 E666.78357
G1 X98.662 Y64.721 E673.09236
G1 X99.731 Y64.375 E673.20447
G1 X143.37 Y108.014 E679.3624
G1 X143.37 Y106.6 E679.50349
G1 X100.807 Y64.037 E685.50959
G1 X101.063 Y63.968 E685.53605
G1 X101.164 Y63.945 E685.54638
G1 X101.96 Y63.776 E685.62758
G1 X143.37 Y105.186 E691.47098
G1 X143.37 Y103.772 E691.61207
