;FLAVOR:Marlin
;TIME:3145
;Filament used: 2.63124m
;Layer height: 0.2
;MINX:82.7
;MINY:72.028
;MINZ:0.2
;MAXX:138.165
;MAXY:134.496
;MAXZ:7
;Generated with Cura_SteamEngine 4.12.0
M140 S50
M105
M190 S50
M104 S200
M105
M109 S200
M82 ;absolute extrusion mode
M201 X500.00 Y500.00 Z100.00 E5000.00 ;Setup machine max acceleration
M203 X500.00 Y500.00 Z10.00 E50.00 ;Setup machine max feedrate
M204 P500.00 R1000.00 T500.00 ;Setup Print/Retract/Travel acceleration
M205 X8.00 Y8.00 Z0.40 E5.00 ;Setup Jerk
M220 S100 ;Reset Feedrate
M221 S100 ;Reset Flowrate

G28 ;Home

G92 E0 ;Reset Extruder
G1 Z2.0 F3000 ;Move Z Axis up
G1 X10.1 Y20 Z0.28 F5000.0 ;Move to start position
G1 X10.1 Y200.0 Z0.28 F1500.0 E15 ;Draw the first line
G1 X10.4 Y200.0 Z0.28 F5000.0 ;Move to side a little
G1 X10.4 Y20 Z0.28 F1500.0 E30 ;Draw the second line
G92 E0 ;Reset Extruder
G1 Z2.0 F3000 ;Move Z Axis up

G92 E0
G92 E0
G1 F2700 E-5
;LAYER_COUNT:35
;LAYER:0
M107
;MESH:turret_base.obj
G0 F6000 X88.321 Y91.249 Z0.2
;TYPE:WALL-INNER
G1 F2700 E0
G1 F1200 X88.813 Y91.127 E0.01686
G1 X89.264 Y90.892 E0.03377
G1 X89.643 Y90.555 E0.05064
G1 X89.931 Y90.139 E0.06747
G1 X90.111 Y89.663 E0.0844
G1 X90.171 Y89.16 E0.10125
G1 X90.111 Y88.657 E0.11809
G1 X89.931 Y88.181 E0.13502
G1 X89.643 Y87.764 E0.15188
G1 X89.264 Y87.427 E0.16874
G1 X88.813 Y87.192 E0.18566
G1 X88.321 Y87.07 E0.20252
G1 X87.814 Y87.07 E0.21938
G1 X87.322 Y87.192 E0.23624
G1 X86.871 Y87.427 E0.25315
G1 X86.492 Y87.764 E0.27002
G1 X86.204 Y88.181 E0.28688
G1 X86.024 Y88.657 E0.3038
G1 X85.963 Y89.16 E0.32066
G1 X86.024 Y89.663 E0.33751
G1 X86.204 Y90.139 E0.35444
G1 X86.492 Y90.555 E0.37126
G1 X86.871 Y90.892 E0.38813
G1 X87.322 Y91.127 E0.40505
G1 X87.814 Y91.249 E0.42191
G1 X88.321 Y91.249 E0.43877
G0 F6000 X88.272 Y90.849
;TYPE:WALL-OUTER
G1 F1200 X88.67 Y90.75 E0.45241
G1 X89.035 Y90.56 E0.4661
G1 X89.341 Y90.288 E0.47971
G1 X89.574 Y89.951 E0.49334
G1 X89.72 Y89.567 E0.507
G1 X89.768 Y89.16 E0.52063
G1 X89.72 Y88.753 E0.53427
G1 X89.574 Y88.368 E0.54796
G1 X89.341 Y88.031 E0.56159
G1 X89.035 Y87.759 E0.5752
G1 X88.67 Y87.569 E0.58889
G1 X88.272 Y87.47 E0.60253
G1 X87.863 Y87.47 E0.61614
G1 X87.465 Y87.569 E0.62978
G1 X87.1 Y87.759 E0.64346
G1 X86.794 Y88.031 E0.65708
G1 X86.561 Y88.368 E0.67071
G1 X86.415 Y88.753 E0.6844
G1 X86.366 Y89.16 E0.69804
G1 X86.415 Y89.567 E0.71167
G1 X86.561 Y89.951 E0.72533
G1 X86.794 Y90.288 E0.73896
G1 X87.1 Y90.56 E0.75258
G1 X87.465 Y90.75 E0.76626
G1 X87.863 Y90.849 E0.77991
G1 X88.272 Y90.849 E0.79351
G0 F6000 X88.325 Y91.285
G1 F2700 E-4.20649
G0 F6000 X89.373 Y91.05
G0 X88.542 Y89.843
G0 X131.593 Y89.843
G0 X130.762 Y91.05
G0 X131.814 Y91.249
;TYPE:WALL-INNER
G1 F2700 E0.79351
G1 F1200 X132.321 Y91.249 E0.81037
G1 X132.813 Y91.127 E0.82723
G1 X133.264 Y90.892 E0.84415
G1 X133.643 Y90.555 E0.86101
G1 X133.931 Y90.139 E0.87784
G1 X134.111 Y89.663 E0.89477
G1 X134.171 Y89.16 E0.91162
G1 X134.111 Y88.657 E0.92847
G1 X133.931 Y88.181 E0.94539
G1 X133.643 Y87.764 E0.96225
G1 X133.264 Y87.427 E0.97912
G1 X132.813 Y87.192 E0.99603
G1 X132.321 Y87.07 E1.01289
G1 X131.814 Y87.07 E1.02975
G1 X131.322 Y87.192 E1.04661
G1 X130.871 Y87.427 E1.06353
G1 X130.492 Y87.764 E1.08039
G1 X130.204 Y88.181 E1.09725
G1 X130.024 Y88.657 E1.11418
G1 X129.963 Y89.16 E1.13103
G1 X130.024 Y89.663 E1.14788
G1 X130.204 Y90.139 E1.16481
G1 X130.492 Y90.555 E1.18164
G1 X130.871 Y90.892 E1.1985
G1 X131.322 Y91.127 E1.21542
G1 X131.814 Y91.249 E1.23228
G0 F6000 X131.863 Y90.849
;TYPE:WALL-OUTER
G1 F1200 X132.272 Y90.849 E1.24588
G1 X132.67 Y90.75 E1.25952
G1 X133.035 Y90.56 E1.27321
G1 X133.341 Y90.288 E1.28683
G1 X133.574 Y89.951 E1.30045
G1 X133.72 Y89.567 E1.31412
G1 X133.768 Y89.16 E1.32775
G1 X133.72 Y88.753 E1.34138
G1 X133.574 Y88.368 E1.35507
G1 X133.341 Y88.031 E1.3687
G1 X133.035 Y87.759 E1.38232
G1 X132.67 Y87.569 E1.396
G1 X132.272 Y87.47 E1.40964
G1 X131.863 Y87.47 E1.42325
G1 X131.465 Y87.569 E1.43689
G1 X131.1 Y87.759 E1.45057
G1 X130.794 Y88.031 E1.46419
G1 X130.561 Y88.368 E1.47782
G1 X130.415 Y88.753 E1.49151
G1 X130.366 Y89.16 E1.50515
G1 X130.415 Y89.567 E1.51878
G1 X130.561 Y89.951 E1.53245
G1 X130.794 Y90.288 E1.54607
G1 X131.1 Y90.56 E1.55969
G1 X131.465 Y90.75 E1.57338
G1 X131.863 Y90.849 E1.58702
G0 F6000 X131.81 Y91.285
G1 F2700 E-3.41298
G0 F6000 X131.968 Y89.985
G0 X131.968 Y125.334
G0 X131.814 Y123.88
G0 X130.614 Y124.871
G0 X130.348 Y125.256
G0 X130.181 Y125.696
G0 X130.125 Y126.16
G0 X130.181 Y126.624
G0 X130.348 Y127.063
G0 X130.614 Y127.448
G0 X130.812 Y127.623
G0 X131.814 Y128.249
;TYPE:WALL-INNER
G1 F2700 E1.58702
G1 F1200 X132.321 Y128.249 E1.60388
G1 X132.813 Y128.127 E1.62074
G1 X133.264 Y127.892 E1.63765
G1 X133.643 Y127.555 E1.65452
G1 X133.931 Y127.139 E1.67135
G1 X134.111 Y126.663 E1.68828
G1 X134.171 Y126.16 E1.70513
G1 X134.111 Y125.657 E1.72197
G1 X133.931 Y125.181 E1.7389
G1 X133.643 Y124.764 E1.75576
G1 X133.264 Y124.427 E1.77262
G1 X132.813 Y124.192 E1.78954
G1 X132.321 Y124.07 E1.8064
G1 X131.814 Y124.07 E1.82326
G1 X131.322 Y124.192 E1.84012
G1 X130.871 Y124.427 E1.85704
G1 X130.492 Y124.764 E1.8739
G1 X130.204 Y125.181 E1.89076
G1 X130.024 Y125.657 E1.90769
G1 X129.963 Y126.16 E1.92454
G1 X130.024 Y126.663 E1.94139
G1 X130.204 Y127.139 E1.95832
G1 X130.492 Y127.555 E1.97514
G1 X130.871 Y127.892 E1.99201
G1 X131.322 Y128.127 E2.00893
G1 X131.814 Y128.249 E2.02579
G0 F6000 X131.863 Y127.849
;TYPE:WALL-OUTER
G1 F1200 X132.272 Y127.849 E2.03939
G1 X132.67 Y127.75 E2.05303
G1 X133.035 Y127.56 E2.06672
G1 X133.341 Y127.288 E2.08033
G1 X133.574 Y126.951 E2.09396
G1 X133.72 Y126.567 E2.10763
G1 X133.768 Y126.16 E2.12126
G1 X133.72 Y125.753 E2.13489
G1 X133.574 Y125.368 E2.14858
G1 X133.341 Y125.031 E2.16221
G1 X133.035 Y124.759 E2.17583
G1 X132.67 Y124.569 E2.18951
G1 X132.272 Y124.47 E2.20315
G1 X131.863 Y124.47 E2.21676
G1 X131.465 Y124.569 E2.2304
G1 X131.1 Y124.759 E2.24408
G1 X130.794 Y125.031 E2.2577
G1 X130.561 Y125.368 E2.27133
G1 X130.415 Y125.753 E2.28502
G1 X130.366 Y126.16 E2.29866
G1 X130.415 Y126.567 E2.31229
G1 X130.561 Y126.951 E2.32596
G1 X130.794 Y127.288 E2.33958
G1 X131.1 Y127.56 E2.3532
G1 X131.465 Y127.75 E2.36689
G1 X131.863 Y127.849 E2.38053
G0 F6000 X131.81 Y128.285
G1 F2700 E-2.61947
G0 F6000 X130.964 Y127.758
G0 X130.681 Y127.507
G0 X129.771 Y126.16
G0 X131.236 Y126.16
G0 X111.407 Y115.257
G0 X111.772 Y116.673
G0 X110.003 Y116.752
;TYPE:WALL-INNER
G1 F2700 E2.38053
G1 F1200 X111.724 Y116.488 E2.43844
G1 X113.357 Y115.883 E2.49636
G1 X114.833 Y114.963 E2.55421
G1 X116.096 Y113.764 E2.61213
G1 X117.09 Y112.335 E2.67002
G1 X117.777 Y110.734 E2.72797
G1 X118.126 Y109.03 E2.78582
G1 X118.126 Y107.289 E2.84373
G1 X117.777 Y105.585 E2.90158
G1 X117.09 Y103.984 E2.95952
G1 X116.096 Y102.556 E3.01739
G1 X114.833 Y101.356 E3.07534
G1 X113.357 Y100.436 E3.13319
G1 X111.724 Y99.831 E3.19111
G1 X110.003 Y99.567 E3.24902
G1 X108.265 Y99.656 E3.3069
G1 X106.579 Y100.092 E3.36482
G1 X105.017 Y100.858 E3.42268
G1 X103.641 Y101.924 E3.48058
G1 X102.506 Y103.244 E3.53848
G1 X101.662 Y104.767 E3.59639
G1 X101.14 Y106.427 E3.65427
G1 X100.964 Y108.16 E3.7122
G1 X101.14 Y109.892 E3.77011
G1 X101.662 Y111.552 E3.82799
G1 X102.506 Y113.075 E3.8859
G1 X103.641 Y114.395 E3.9438
G1 X105.017 Y115.461 E4.00169
G1 X106.579 Y116.228 E4.05957
G1 X108.265 Y116.663 E4.11748
G1 X110.003 Y116.752 E4.17537
G0 F6000 X109.983 Y116.35
;TYPE:WALL-OUTER
G1 F1200 X111.623 Y116.099 E4.23055
G1 X113.18 Y115.522 E4.28577
G1 X114.587 Y114.645 E4.34092
G1 X115.791 Y113.502 E4.39613
G1 X116.738 Y112.14 E4.45131
G1 X117.393 Y110.614 E4.50654
G1 X117.726 Y108.989 E4.56171
G1 X117.726 Y107.33 E4.61689
G1 X117.393 Y105.705 E4.67206
G1 X116.738 Y104.179 E4.7273
G1 X115.791 Y102.818 E4.78244
G1 X114.587 Y101.674 E4.83768
G1 X113.18 Y100.797 E4.89282
G1 X111.623 Y100.22 E4.94805
G1 X109.983 Y99.969 E5.00323
G1 X108.326 Y100.053 E5.05842
G1 X106.719 Y100.469 E5.11363
G1 X105.23 Y101.199 E5.16878
G1 X103.918 Y102.215 E5.22398
G1 X102.836 Y103.474 E5.27919
G1 X102.031 Y104.926 E5.33441
G1 X101.534 Y106.508 E5.38956
G1 X101.366 Y108.16 E5.44479
G1 X101.534 Y109.811 E5.49999
G1 X102.031 Y111.393 E5.55514
G1 X102.836 Y112.845 E5.61036
G1 X103.918 Y114.104 E5.66557
G1 X105.23 Y115.12 E5.72076
G1 X106.719 Y115.851 E5.77594
G1 X108.326 Y116.266 E5.83114
G1 X109.983 Y116.35 E5.88632
G0 F6000 X110.005 Y116.789
G1 F2700 E0.88632
G0 F6000 X106.512 Y116.408
G0 X107.02 Y115.036
G0 X88.897 Y126.16
G0 X90.362 Y126.16
G0 X89.521 Y127.448
G0 X89.323 Y127.623
G0 X88.321 Y128.249
;TYPE:WALL-INNER
G1 F2700 E5.88632
G1 F1200 X88.813 Y128.127 E5.90318
G1 X89.264 Y127.892 E5.92009
G1 X89.643 Y127.555 E5.93696
G1 X89.931 Y127.139 E5.95379
G1 X90.111 Y126.663 E5.97072
G1 X90.171 Y126.16 E5.98757
G1 X90.111 Y125.657 E6.00441
G1 X89.931 Y125.181 E6.02134
G1 X89.643 Y124.764 E6.0382
G1 X89.264 Y124.427 E6.05506
G1 X88.813 Y124.192 E6.07198
G1 X88.321 Y124.07 E6.08884
G1 X87.814 Y124.07 E6.1057
G1 X87.322 Y124.192 E6.12256
G1 X86.871 Y124.427 E6.13948
G1 X86.492 Y124.764 E6.15634
G1 X86.204 Y125.181 E6.1732
G1 X86.024 Y125.657 E6.19013
G1 X85.963 Y126.16 E6.20698
G1 X86.024 Y126.663 E6.22383
G1 X86.204 Y127.139 E6.24076
G1 X86.492 Y127.555 E6.25758
G1 X86.871 Y127.892 E6.27445
G1 X87.322 Y128.127 E6.29137
G1 X87.814 Y128.249 E6.30823
G1 X88.321 Y128.249 E6.32509
G0 F6000 X88.272 Y127.849
;TYPE:WALL-OUTER
G1 F1200 X88.67 Y127.75 E6.33873
G1 X89.035 Y127.56 E6.35242
G1 X89.341 Y127.288 E6.36603
G1 X89.574 Y126.951 E6.37966
G1 X89.72 Y126.567 E6.39332
G1 X89.768 Y126.16 E6.40696
G1 X89.72 Y125.753 E6.42059
G1 X89.574 Y125.368 E6.43428
G1 X89.341 Y125.031 E6.44791
G1 X89.035 Y124.759 E6.46153
G1 X88.67 Y124.569 E6.47521
G1 X88.272 Y124.47 E6.48885
G1 X87.863 Y124.47 E6.50246
G1 X87.465 Y124.569 E6.5161
G1 X87.1 Y124.759 E6.52978
G1 X86.794 Y125.031 E6.5434
G1 X86.561 Y125.368 E6.55703
G1 X86.415 Y125.753 E6.57072
G1 X86.366 Y126.16 E6.58436
G1 X86.415 Y126.567 E6.59799
G1 X86.561 Y126.951 E6.61165
G1 X86.794 Y127.288 E6.62528
G1 X87.1 Y127.56 E6.6389
G1 X87.465 Y127.75 E6.65259
G1 X87.863 Y127.849 E6.66623
G1 X88.272 Y127.849 E6.67983
G0 F6000 X88.325 Y128.285
G1 F2700 E1.67983
G0 F6000 X89.787 Y127.682
G0 X88.689 Y126.712
G0 X94.91 Y134.491
G0 X95.025 Y133.021
G0 X124.979 Y133.231
;TYPE:WALL-INNER
G1 F2700 E6.67983
G1 F1200 X95.021 Y133.231 E7.67624
G1 X93.137 Y133.082 E7.73909
G1 X91.328 Y132.648 E7.80097
G1 X89.6 Y131.933 E7.86317
G1 X88.004 Y130.955 E7.92543
G1 X86.587 Y129.744 E7.98742
G1 X85.376 Y128.327 E8.04942
G1 X84.398 Y126.731 E8.11167
G1 X83.683 Y125.003 E8.17387
G1 X83.249 Y123.194 E8.23575
G1 X83.1 Y121.312 E8.29854
G1 X83.1 Y81.639 E9.61807
G1 X85.842 Y79.665 E9.73044
G1 X88.969 Y77.788 E9.85175
G1 X92.251 Y76.172 E9.97342
G1 X95.64 Y74.84 E10.09453
G1 X99.151 Y73.788 E10.21644
G1 X102.726 Y73.034 E10.33796
G1 X106.34 Y72.581 E10.4591
G1 X110 Y72.429 E10.58094
G1 X113.66 Y72.581 E10.70278
G1 X117.274 Y73.034 E10.82392
G1 X120.849 Y73.788 E10.94544
G1 X124.36 Y74.84 E11.06735
G1 X127.749 Y76.172 E11.18846
G1 X131.031 Y77.788 E11.31013
G1 X134.158 Y79.665 E11.43144
G1 X136.9 Y81.639 E11.54381
G1 X136.9 Y121.312 E12.86334
G1 X136.751 Y123.194 E12.92613
G1 X136.317 Y125.003 E12.98801
G1 X135.602 Y126.731 E13.0502
G1 X134.624 Y128.327 E13.11246
G1 X133.413 Y129.744 E13.17446
G1 X131.996 Y130.955 E13.23645
G1 X130.4 Y131.933 E13.29871
G1 X128.672 Y132.648 E13.36091
G1 X126.863 Y133.082 E13.42278
G1 X124.979 Y133.231 E13.48564
G0 F6000 X124.997 Y133.631
;TYPE:WALL-OUTER
G1 F1200 X95.003 Y133.631 E14.48325
G1 X93.076 Y133.479 E14.54754
G1 X91.201 Y133.029 E14.61167
G1 X89.42 Y132.292 E14.67578
G1 X87.768 Y131.279 E14.74023
G1 X86.303 Y130.028 E14.80431
G1 X85.052 Y128.563 E14.86838
G1 X84.039 Y126.911 E14.93283
G1 X83.302 Y125.13 E14.99694
G1 X82.852 Y123.255 E15.06108
G1 X82.7 Y121.331 E15.12527
G1 X82.7 Y81.433 E16.45228
G1 X85.618 Y79.333 E16.57185
G1 X88.779 Y77.435 E16.69449
G1 X92.082 Y75.809 E16.81693
G1 X95.512 Y74.461 E16.93951
G1 X99.05 Y73.401 E17.06235
G1 X102.665 Y72.638 E17.18524
G1 X106.309 Y72.182 E17.30738
G1 X110 Y72.028 E17.43025
G1 X113.691 Y72.182 E17.55312
G1 X117.335 Y72.638 E17.67527
G1 X120.95 Y73.401 E17.79815
G1 X124.488 Y74.461 E17.92099
G1 X127.918 Y75.809 E18.04357
G1 X131.221 Y77.435 E18.16602
G1 X134.382 Y79.333 E18.28865
G1 X137.3 Y81.433 E18.40822
G1 X137.3 Y121.331 E19.73524
G1 X137.148 Y123.255 E19.79943
G1 X136.698 Y125.13 E19.86356
G1 X135.961 Y126.911 E19.92767
G1 X134.948 Y128.563 E19.99212
G1 X133.697 Y130.028 E20.0562
G1 X132.232 Y131.279 E20.12027
G1 X130.58 Y132.292 E20.18472
G1 X128.799 Y133.029 E20.24883
G1 X126.924 Y133.479 E20.31297
G1 X124.997 Y133.631 E20.37726
G0 F6000 X124.98 Y133.192
G0 X124.974 Y132.841
;TYPE:SKIN
G1 F1200 X95.026 Y132.841 E21.37333
G1 X93.201 Y132.696 E21.43422
G1 X91.453 Y132.277 E21.49401
G1 X89.775 Y131.583 E21.5544
G1 X88.23 Y130.636 E21.61468
G1 X86.863 Y129.468 E21.67448
G1 X85.695 Y128.101 E21.73428
G1 X84.748 Y126.556 E21.79455
G1 X84.054 Y124.878 E21.85495
G1 X83.635 Y123.13 E21.91473
G1 X83.49 Y121.312 E21.97539
G1 X83.49 Y81.838 E23.2883
G1 X86.052 Y79.994 E23.39329
G1 X89.164 Y78.125 E23.51403
G1 X92.401 Y76.531 E23.63404
G1 X95.76 Y75.211 E23.75408
G1 X99.249 Y74.166 E23.87522
G1 X102.793 Y73.419 E23.99568
G1 X106.37 Y72.97 E24.11558
G1 X110 Y72.819 E24.23642
G1 X113.63 Y72.97 E24.35726
G1 X117.207 Y73.419 E24.47717
G1 X120.751 Y74.166 E24.59763
G1 X124.24 Y75.211 E24.71877
G1 X127.599 Y76.531 E24.83881
G1 X130.836 Y78.125 E24.95882
G1 X133.948 Y79.994 E25.07955
G1 X136.51 Y81.838 E25.18454
G1 X136.51 Y121.312 E26.49745
G1 X136.365 Y123.13 E26.55811
G1 X135.946 Y124.878 E26.6179
G1 X135.252 Y126.556 E26.67829
G1 X134.305 Y128.101 E26.73856
G1 X133.137 Y129.468 E26.79837
G1 X131.77 Y130.636 E26.85817
G1 X130.225 Y131.583 E26.91844
G1 X128.547 Y132.277 E26.97884
G1 X126.799 Y132.696 E27.03862
G1 X124.974 Y132.841 E27.09951
G1 F2700 E22.09951
G0 F6000 X124.994 Y133.12
G0 X126.829 Y132.874
G0 X127.173 Y134.307
G0 X131.593 Y126.843
G0 X130.762 Y128.05
G0 X130.41 Y127.63
G1 F2700 E27.09951
G0 F6000 X130.198 Y127.816
G1 F1200 X130.648 Y128.216 E27.11954
G1 X131.183 Y128.494 E27.13959
G1 X131.767 Y128.639 E27.15961
G1 X132.368 Y128.639 E27.1796
G1 X132.952 Y128.494 E27.19961
G1 X133.487 Y128.216 E27.21966
G1 X133.937 Y127.816 E27.23969
G1 X134.278 Y127.322 E27.25965
G1 X134.493 Y126.757 E27.27976
G1 X134.563 Y126.16 E27.29975
G1 X134.493 Y125.563 E27.31974
G1 X134.278 Y124.998 E27.33985
G1 X133.937 Y124.504 E27.35982
G1 X133.487 Y124.103 E27.37986
G1 X132.952 Y123.825 E27.39992
G1 X132.368 Y123.68 E27.41993
G1 X131.767 Y123.68 E27.43992
G1 X131.183 Y123.825 E27.45993
G1 X130.648 Y124.103 E27.47999
G1 X130.198 Y124.504 E27.50003
G1 X129.857 Y124.998 E27.52
G1 X129.642 Y125.563 E27.5401
G1 X129.571 Y126.16 E27.5601
G1 X129.642 Y126.757 E27.5801
G1 X129.857 Y127.322 E27.6002
G1 X130.198 Y127.816 E27.62017
G1 F2700 E22.62017
G0 F6000 X130.41 Y127.63
G0 X129.771 Y126.16
G0 X131.236 Y126.16
G0 X114.057 Y113.958
G0 X114.95 Y115.115
G0 X113.407 Y115.983
G1 F2700 E27.62017
G0 F6000 X113.53 Y116.234
G1 F1200 X115.073 Y115.273 E27.68063
G1 X116.394 Y114.019 E27.74121
G1 X117.433 Y112.526 E27.80171
G1 X118.151 Y110.851 E27.86232
G1 X118.516 Y109.069 E27.92282
G1 X118.516 Y107.25 E27.98332
G1 X118.151 Y105.468 E28.04382
G1 X117.433 Y103.793 E28.10443
G1 X116.394 Y102.301 E28.16491
G1 X115.073 Y101.046 E28.22551
G1 X113.53 Y100.085 E28.28597
G1 X111.822 Y99.451 E28.34656
G1 X110.023 Y99.175 E28.4071
G1 X108.206 Y99.268 E28.46761
G1 X106.443 Y99.724 E28.52818
G1 X104.81 Y100.525 E28.58868
G1 X103.371 Y101.64 E28.64922
G1 X102.184 Y103.02 E28.70977
G1 X101.302 Y104.613 E28.77033
G1 X100.756 Y106.348 E28.83082
G1 X100.572 Y108.16 E28.8914
G1 X100.756 Y109.971 E28.95195
G1 X101.302 Y111.706 E29.01244
G1 X102.184 Y113.299 E29.073
G1 X103.371 Y114.679 E29.13355
G1 X104.81 Y115.794 E29.19409
G1 X106.443 Y116.596 E29.25461
G1 X108.206 Y117.051 E29.31516
G1 X110.023 Y117.144 E29.37568
G1 X111.822 Y116.868 E29.43621
G1 X113.53 Y116.234 E29.49681
G1 F2700 E24.49681
G0 F6000 X113.407 Y115.983
G0 X112.431 Y116.18
