;FLAVOR:Marlin
;TIME:671
;Filament used: 0.595241m
;Layer height: 0.2
;MINX:93.206
;MINY:92.766
;MINZ:0.24
;MAXX:127.452
;MAXY:127.654
;MAXZ:4.09
;Generated with Cura_SteamEngine 4.12.0
M140 S50
M105
M190 S50
M104 S200
M105
M109 S200
M82 ;absolute extrusion mode
M201 X500.00 Y500.00 Z100.00 E5000.00 ;Setup machine max acceleration
M203 X500.00 Y500.00 Z10.00 E50.00 ;Setup machine max feedrate
M204 P500.00 R1000.00 T500.00 ;Setup Print/Retract/Travel acceleration
M205 X8.00 Y8.00 Z0.40 E5.00 ;Setup Jerk
M220 S100 ;Reset Feedrate
M221 S100 ;Reset Flowrate

G28 ;Home

G92 E0 ;Reset Extruder
G1 Z2.0 F3000 ;Move Z Axis up
G1 X10.1 Y20 Z0.28 F5000.0 ;Move to start position
G1 X10.1 Y200.0 Z0.28 F1500.0 E15 ;Draw the first line
G1 X10.4 Y200.0 Z0.28 F5000.0 ;Move to side a little
G1 X10.4 Y20 Z0.28 F1500.0 E30 ;Draw the second line
G92 E0 ;Reset Extruder
G1 Z2.0 F3000 ;Move Z Axis up

G92 E0
G92 E0
G1 F2700 E-5
;LAYER_COUNT:15
;LAYER:-6
M107
G0 F12000 X97.863 Y98.683 Z0.24
;TYPE:SUPPORT-INTERFACE
G1 F2700 E0
G1 F1800 X98.683 Y97.863 E0.09257
G1 X98.753 Y97.797 E0.10025
G1 X99.056 Y97.525 E0.13275
G1 X100.018 Y96.745 E0.23161
G1 X100.413 Y96.456 E0.27068
G1 X100.491 Y96.402 E0.27825
G1 X101.425 Y95.795 E0.36717
G1 X101.538 Y95.726 E0.37774
G1 X101.937 Y95.495 E0.41454
G1 X102.959 Y94.975 E0.50608
G1 X103.086 Y94.914 E0.51732
G1 X103.443 Y94.756 E0.54849
G1 X103.525 Y94.722 E0.55557
G1 X104.682 Y94.28 E0.65444
G1 X105.068 Y94.155 E0.68683
G1 X105.158 Y94.128 E0.69433
G1 X106.239 Y93.839 E0.78365
G1 X106.384 Y93.804 E0.79555
G1 X106.729 Y93.731 E0.8237
G1 X106.858 Y93.707 E0.83418
G1 X107.961 Y93.533 E0.92331
G1 X108.077 Y93.518 E0.93265
G1 X108.45 Y93.479 E0.96259
G1 X108.586 Y93.467 E0.97348
G1 X109.688 Y93.41 E1.06157
G1 X109.805 Y93.407 E1.07091
G1 X110.195 Y93.407 E1.10204
G1 X110.312 Y93.41 E1.11138
G1 X111.414 Y93.468 E1.19947
G1 X111.55 Y93.479 E1.21036
G1 X111.923 Y93.518 E1.2403
G1 X112.039 Y93.533 E1.24964
G1 X113.142 Y93.707 E1.33877
G1 X113.271 Y93.731 E1.34925
G1 X113.616 Y93.804 E1.3774
G1 X113.761 Y93.838 E1.38928
G1 X114.842 Y94.128 E1.47863
G1 X114.932 Y94.155 E1.48613
G1 X115.318 Y94.28 E1.51851
G1 X116.475 Y94.722 E1.61738
G1 X116.557 Y94.756 E1.62447
G1 X116.914 Y94.914 E1.65563
G1 X117.041 Y94.975 E1.66688
G1 X118.063 Y95.495 E1.75841
G1 X118.455 Y95.722 E1.79457
G1 X118.575 Y95.795 E1.80578
G1 X119.509 Y96.402 E1.8947
G1 X119.58 Y96.451 E1.90158
G1 X119.982 Y96.745 E1.94134
G1 X120.944 Y97.525 E2.0402
G1 X121.247 Y97.797 E2.0727
G1 X121.317 Y97.863 E2.08038
G1 X122.137 Y98.683 E2.17295
G1 X122.194 Y98.743 E2.17956
G1 X122.475 Y99.056 E2.21313
G1 X123.255 Y100.018 E2.312
G1 X123.544 Y100.413 E2.35106
G1 X123.598 Y100.491 E2.35864
G1 X124.205 Y101.425 E2.44755
G1 X124.274 Y101.538 E2.45812
G1 X124.505 Y101.937 E2.49493
G1 X125.025 Y102.959 E2.58646
G1 X125.081 Y103.075 E2.59674
G1 X125.244 Y103.443 E2.62887
G1 X125.278 Y103.525 E2.63596
G1 X125.72 Y104.682 E2.73482
G1 X125.845 Y105.068 E2.76721
G1 X125.872 Y105.158 E2.77471
G1 X126.161 Y106.239 E2.86403
G1 X126.196 Y106.384 E2.87594
G1 X126.269 Y106.729 E2.90409
G1 X126.292 Y106.849 E2.91384
G1 X126.467 Y107.961 E3.0037
G1 X126.481 Y108.068 E3.01231
G1 X126.521 Y108.444 E3.04249
G1 X126.533 Y108.586 E3.05387
G1 X126.59 Y109.688 E3.14195
G1 X126.593 Y109.795 E3.1505
G1 X126.593 Y110.195 E3.18243
G1 X126.59 Y110.312 E3.19177
G1 X126.532 Y111.414 E3.27986
G1 X126.522 Y111.545 E3.29035
G1 X126.482 Y111.923 E3.32069
G1 X126.467 Y112.039 E3.33003
G1 X126.294 Y113.139 E3.41891
G1 X126.271 Y113.262 E3.4289
G1 X126.196 Y113.616 E3.45779
G1 X126.162 Y113.761 E3.46967
G1 X125.872 Y114.842 E3.55901
G1 X125.845 Y114.932 E3.56652
G1 X125.72 Y115.318 E3.5989
G1 X125.278 Y116.475 E3.69777
G1 X125.244 Y116.557 E3.70486
G1 X125.086 Y116.914 E3.73602
G1 X125.025 Y117.041 E3.74727
G1 X124.511 Y118.052 E3.8378
G1 X124.278 Y118.455 E3.87496
G1 X124.205 Y118.575 E3.88617
G1 X123.598 Y119.509 E3.97509
G1 X123.549 Y119.58 E3.98197
G1 X123.255 Y119.982 E4.02173
G1 X122.483 Y120.935 E4.11963
G1 X122.194 Y121.257 E4.15417
G1 X122.137 Y121.317 E4.16077
G1 X121.317 Y122.137 E4.25334
G1 X121.257 Y122.194 E4.25995
G1 X120.944 Y122.475 E4.29353
G1 X119.982 Y123.255 E4.39239
G1 X119.587 Y123.544 E4.43146
G1 X119.509 Y123.598 E4.43903
G1 X118.575 Y124.205 E4.52795
G1 X118.462 Y124.274 E4.53851
G1 X118.063 Y124.505 E4.57532
G1 X117.041 Y125.025 E4.66685
G1 X116.917 Y125.084 E4.67781
G1 X116.557 Y125.244 E4.70926
G1 X116.475 Y125.278 E4.71634
G1 X115.318 Y125.72 E4.81521
G1 X114.932 Y125.845 E4.8476
G1 X114.842 Y125.872 E4.8551
G1 X113.761 Y126.161 E4.94442
G1 X113.616 Y126.196 E4.95633
G1 X113.271 Y126.269 E4.98448
G1 X113.142 Y126.293 E4.99495
G1 X112.039 Y126.467 E5.08409
G1 X111.925 Y126.482 E5.09326
G1 X111.55 Y126.521 E5.12336
G1 X111.414 Y126.533 E5.13426
G1 X110.312 Y126.59 E5.22234
G1 X110.195 Y126.593 E5.23168
G1 X109.805 Y126.593 E5.26282
G1 X109.688 Y126.59 E5.27216
G1 X108.586 Y126.532 E5.36025
G1 X108.45 Y126.521 E5.37114
G1 X108.075 Y126.482 E5.40123
G1 X107.961 Y126.467 E5.41041
G1 X106.858 Y126.293 E5.49955
G1 X106.729 Y126.269 E5.51002
G1 X106.384 Y126.196 E5.53817
G1 X106.239 Y126.162 E5.55006
G1 X105.158 Y125.872 E5.6394
G1 X105.068 Y125.845 E5.6469
G1 X104.682 Y125.72 E5.67929
G1 X103.525 Y125.278 E5.77815
G1 X103.443 Y125.244 E5.78524
G1 X103.083 Y125.084 E5.81669
G1 X102.959 Y125.025 E5.82765
G1 X101.937 Y124.505 E5.91918
G1 X101.538 Y124.274 E5.95598
G1 X101.425 Y124.205 E5.96655
G1 X100.491 Y123.598 E6.05547
G1 X100.413 Y123.544 E6.06304
G1 X100.018 Y123.255 E6.10211
G1 X99.056 Y122.475 E6.20097
G1 X98.743 Y122.194 E6.23455
G1 X98.683 Y122.137 E6.24116
G1 X97.863 Y121.317 E6.33373
G1 X97.806 Y121.257 E6.34033
G1 X97.517 Y120.935 E6.37487
G1 X96.745 Y119.982 E6.47277
G1 X96.451 Y119.58 E6.51253
G1 X96.402 Y119.509 E6.51941
G1 X95.795 Y118.575 E6.60833
G1 X95.722 Y118.455 E6.61954
G1 X95.489 Y118.052 E6.6567
G1 X94.975 Y117.041 E6.74723
G1 X94.914 Y116.914 E6.75848
G1 X94.756 Y116.557 E6.78964
G1 X94.722 Y116.475 E6.79673
G1 X94.28 Y115.318 E6.8956
G1 X94.155 Y114.932 E6.92798
G1 X94.128 Y114.842 E6.93548
G1 X93.839 Y113.761 E7.0248
G1 X93.804 Y113.616 E7.03671
G1 X93.729 Y113.262 E7.0656
G1 X93.706 Y113.139 E7.07559
G1 X93.533 Y112.039 E7.16447
G1 X93.518 Y111.923 E7.17381
G1 X93.478 Y111.545 E7.20415
G1 X93.467 Y111.414 E7.21464
G1 X93.41 Y110.312 E7.30273
G1 X93.407 Y110.205 E7.31127
G1 X93.407 Y109.805 E7.3432
G1 X93.41 Y109.688 E7.35254
G1 X93.468 Y108.586 E7.44063
G1 X93.478 Y108.455 E7.45112
G1 X93.518 Y108.077 E7.48146
G1 X93.533 Y107.961 E7.4908
G1 X93.706 Y106.861 E7.57969
G1 X93.729 Y106.738 E7.58967
G1 X93.804 Y106.384 E7.61856
G1 X93.838 Y106.239 E7.63045
G1 X94.128 Y105.158 E7.71979
G1 X94.155 Y105.068 E7.72729
G1 X94.28 Y104.682 E7.75968
G1 X94.722 Y103.525 E7.85854
G1 X94.756 Y103.443 E7.86563
G1 X94.914 Y103.086 E7.89679
G1 X94.975 Y102.959 E7.90804
G1 X95.489 Y101.948 E7.99857
G1 X95.722 Y101.545 E8.03573
G1 X95.795 Y101.425 E8.04694
G1 X96.402 Y100.491 E8.13586
G1 X96.451 Y100.42 E8.14275
G1 X96.745 Y100.018 E8.1825
G1 X97.517 Y99.065 E8.2804
G1 X97.806 Y98.743 E8.31494
G1 X97.863 Y98.683 E8.32155
G0 F12000 X97.6 Y98.972
G1 F1800 X97.6 Y121.027 E10.08207
G0 F12000 X99.2 Y122.591
G1 F1800 X99.2 Y97.408 E12.09229
G0 F12000 X100.8 Y96.201
G1 F1800 X100.8 Y123.798 E14.2952
G0 F12000 X102.4 Y124.74
G1 F1800 X102.4 Y95.259 E16.6485
G0 F12000 X104 Y94.54
G1 F1800 X104 Y125.459 E19.11659
G0 F12000 X105.6 Y125.99
G1 F1800 X105.6 Y94.009 E21.66945
G0 F12000 X107.2 Y93.653
G1 F1800 X107.2 Y126.346 E24.27915
G0 F12000 X108.8 Y126.543
G1 F1800 X108.8 Y93.455 E26.92038
G0 F12000 X110.4 Y93.415
G1 F1800 X110.4 Y126.586 E29.56823
G0 F12000 X112 Y126.473
G1 F1800 X112 Y93.528 E32.19804
G0 F12000 X113.6 Y93.801
G1 F1800 X113.6 Y126.2 E34.78427
G0 F12000 X115.2 Y125.759
G1 F1800 X115.2 Y94.242 E37.30009
G0 F12000 X116.8 Y94.864
G1 F1800 X116.8 Y125.136 E39.71653
G0 F12000 X118.4 Y124.31
G1 F1800 X118.4 Y95.691 E42.00103
G0 F12000 X120 Y96.76
G1 F1800 X120 Y123.241 E44.11485
G0 F12000 X121.6 Y121.854
G1 F1800 X121.6 Y98.146 E46.00733
G0 F12000 X123.2 Y99.951
G1 F1800 X123.2 Y120.05 E47.61172
G0 F12000 X124.8 Y117.484
G1 F1800 X124.8 Y102.517 E48.80645
G1 F2700 E43.80645
G0 F12000 X125.981 Y102.492
G0 X126.802 Y104.625
G0 X127.342 Y106.674
G0 X126.4 Y107.536
G1 F2700 E48.80645
G1 F1800 X126.4 Y112.466 E49.19998
G1 F2700 E44.19998
G0 F12000 X127.452 Y112.631
G0 X127.194 Y114.018
G0 X126.684 Y115.782
G0 X125.981 Y117.508
G0 X125.109 Y119.137
G0 X124.089 Y120.644
G0 X122.896 Y122.063
G0 X121.568 Y123.341
G0 X120.107 Y124.479
G0 X118.556 Y125.448
G0 X116.864 Y126.269
G0 X115.138 Y126.894
G0 X113.326 Y127.342
G0 X111.488 Y127.594
G0 X109.653 Y127.654
G0 X107.816 Y127.522
G0 X105.982 Y127.194
G0 X104.218 Y126.684
G0 X102.492 Y125.981
G0 X100.863 Y125.109
G0 X99.356 Y124.089
G0 X97.937 Y122.896
G0 X96.659 Y121.568
G0 X96.015 Y120.741
G0 X95.108 Y119.47
G0 X96 Y118.89
G1 F2700 E49.19998
G1 F1800 X96 Y101.109 E50.61934
G0 F12000 X94.4 Y104.367
G1 F1800 X94.4 Y115.632 E51.51856
G0 F300 X94.4 Y115.632 Z0.54
G0 F12000 X95.722 Y118.454
;TIME_ELAPSED:30.771314
;LAYER:-5
;TYPE:SUPPORT
G1 F1800 X95.795 Y118.574 E51.53258
G1 X96.401 Y119.508 E51.64367
G1 X96.45 Y119.578 E51.65219
G1 X96.744 Y119.981 E51.70197
G1 X97.516 Y120.934 E51.82434
G1 X97.805 Y121.256 E51.86752
G1 X97.862 Y121.316 E51.87577
G1 X98.683 Y122.136 E51.99156
G1 X98.743 Y122.193 E51.99981
G1 X99.056 Y122.474 E52.04178
G1 X100.017 Y123.254 E52.16528
G1 X100.412 Y123.543 E52.21412
G1 X100.49 Y123.597 E52.22359
G1 X101.425 Y124.204 E52.33482
G1 X101.538 Y124.273 E52.34803
G1 X101.792 Y124.42 E52.37731
G1 X95.578 Y118.205 E53.25424
G1 X95.489 Y118.051 E53.27199
G1 X94.974 Y117.04 E53.3852
G1 X94.914 Y116.913 E53.39922
G1 X94.755 Y116.555 E53.4383
G1 X94.721 Y116.473 E53.44716
G1 X94.388 Y115.601 E53.5403
G1 X104.397 Y125.61 E54.95268
G1 X104.681 Y125.719 E54.98303
G1 X105.068 Y125.844 E55.02361
G1 X105.157 Y125.871 E55.03289
G1 X106.239 Y126.161 E55.14466
G1 X106.383 Y126.195 E55.15943
G1 X106.399 Y126.198 E55.16105
G1 X93.8 Y113.599 E56.9389
G1 X93.729 Y113.26 E56.97346
G1 X93.705 Y113.138 E56.98587
G1 X93.533 Y112.038 E57.09696
G1 X93.517 Y111.922 E57.10865
G1 X93.514 Y111.899 E57.11096
G1 X108.098 Y126.483 E59.16892
G1 X108.449 Y126.52 E59.20414
G1 X108.586 Y126.531 E59.21785
G1 X109.614 Y126.584 E59.32056
G1 X93.413 Y110.384 E61.60663
G1 X93.41 Y110.311 E61.61392
G1 X93.407 Y110.204 E61.6246
G1 X93.406 Y109.804 E61.66451
G1 X93.409 Y109.687 E61.67619
G1 X93.445 Y109.001 E61.74473
G1 X110.997 Y126.553 E64.22151
G1 X111.413 Y126.531 E64.26308
G1 X111.549 Y126.52 E64.27669
G1 X111.925 Y126.481 E64.31441
G1 X112.038 Y126.466 E64.32578
G1 X112.285 Y126.427 E64.35073
G1 X93.571 Y107.713 E66.99148
G1 X93.706 Y106.86 E67.07765
G1 X93.729 Y106.737 E67.09014
G1 X93.777 Y106.505 E67.11378
G1 X113.492 Y126.22 E69.89578
G1 X113.615 Y126.195 E69.9083
G1 X113.76 Y126.16 E69.92319
G1 X114.617 Y125.93 E70.01172
G1 X94.067 Y105.38 E72.91155
G1 X94.127 Y105.157 E72.93459
G1 X94.154 Y105.066 E72.94406
G1 X94.279 Y104.681 E72.98445
G1 X94.418 Y104.318 E73.02324
G1 X115.68 Y125.58 E76.02354
G1 X116.475 Y125.277 E76.10843
G1 X116.557 Y125.243 E76.11729
G1 X116.695 Y125.181 E76.13238
G1 X94.817 Y103.302 E79.21967
G1 X94.914 Y103.085 E79.24339
G1 X94.975 Y102.958 E79.25745
G1 X95.281 Y102.352 E79.32519
G1 X117.645 Y124.716 E82.48099
G1 X118.062 Y124.504 E82.52767
G1 X118.462 Y124.273 E82.57376
G1 X118.557 Y124.214 E82.58491
G1 X95.783 Y101.44 E85.79857
G1 X95.794 Y101.424 E85.80051
G1 X96.341 Y100.583 E85.90061
G1 X119.414 Y123.657 E89.15653
G1 X119.508 Y123.597 E89.16766
G1 X119.586 Y123.543 E89.17713
G1 X119.981 Y123.254 E89.22596
G1 X120.226 Y123.054 E89.25752
G1 X96.943 Y99.772 E92.54293
G1 X97.517 Y99.064 E92.63388
G1 X97.579 Y98.993 E92.64328
G1 X121.005 Y122.419 E95.94894
G1 X121.256 Y122.193 E95.98264
G1 X121.316 Y122.135 E95.99097
G1 X121.726 Y121.726 E96.04876
G1 X98.272 Y98.272 E99.35837
G1 X98.682 Y97.863 E99.41615
G1 X98.751 Y97.797 E99.42568
G1 X98.994 Y97.58 E99.45819
G1 X122.419 Y121.005 E102.76371
G1 X122.482 Y120.935 E102.77311
G1 X123.055 Y120.227 E102.86399
G1 X99.772 Y96.944 E106.14947
G1 X100.017 Y96.744 E106.18103
G1 X100.412 Y96.455 E106.22986
G1 X100.49 Y96.401 E106.23933
G1 X100.584 Y96.341 E106.25046
G1 X123.658 Y119.415 E109.50645
G1 X124.204 Y118.574 E109.6065
G1 X124.215 Y118.558 E109.60843
G1 X101.441 Y95.784 E112.82209
G1 X101.536 Y95.725 E112.83325
G1 X101.936 Y95.494 E112.87934
G1 X102.353 Y95.282 E112.92602
G1 X124.717 Y117.646 E116.08182
G1 X125.024 Y117.041 E116.14951
G1 X125.085 Y116.913 E116.16366
G1 X125.181 Y116.696 E116.18734
G1 X103.303 Y94.818 E119.27456
G1 X103.441 Y94.755 E119.2897
G1 X103.523 Y94.721 E119.29855
G1 X104.318 Y94.419 E119.38341
G1 X125.58 Y115.681 E122.38371
G1 X125.719 Y115.317 E122.42259
G1 X125.844 Y114.932 E122.46298
G1 X125.871 Y114.841 E122.47245
G1 X125.932 Y114.618 E122.49552
G1 X105.382 Y94.068 E125.39534
G1 X106.238 Y93.838 E125.48378
G1 X106.383 Y93.804 E125.49864
G1 X106.506 Y93.778 E125.51119
G1 X126.221 Y113.493 E128.29319
G1 X126.27 Y113.262 E128.31675
G1 X126.292 Y113.139 E128.32922
G1 X126.427 Y112.285 E128.41549
G1 X107.714 Y93.572 E131.0561
G1 X107.96 Y93.532 E131.08096
G1 X108.076 Y93.518 E131.09262
G1 X108.449 Y93.478 E131.13005
G1 X108.585 Y93.467 E131.14367
G1 X109.001 Y93.445 E131.18524
G1 X126.553 Y110.997 E133.66201
G1 X126.589 Y110.312 E133.73046
G1 X126.592 Y110.194 E133.74223
G1 X126.591 Y109.795 E133.78205
G1 X126.589 Y109.687 E133.79282
G1 X126.585 Y109.614 E133.80012
G1 X110.385 Y93.414 E136.08611
G1 X111.413 Y93.468 E136.18883
G1 X111.549 Y93.478 E136.20244
G1 X111.9 Y93.515 E136.23765
G1 X126.483 Y108.098 E138.29547
G1 X126.48 Y108.068 E138.29848
G1 X126.466 Y107.961 E138.30925
G1 X126.291 Y106.848 E138.42167
G1 X126.268 Y106.729 E138.43376
G1 X126.198 Y106.399 E138.46742
G1 X113.6 Y93.801 E140.24514
G1 X113.615 Y93.804 E140.24666
G1 X113.76 Y93.838 E140.26152
G1 X114.841 Y94.127 E140.37317
G1 X114.931 Y94.154 E140.38255
G1 X115.317 Y94.279 E140.42303
G1 X115.602 Y94.388 E140.45348
G1 X125.611 Y104.397 E141.86586
G1 X125.277 Y103.525 E141.95903
G1 X125.243 Y103.443 E141.96789
G1 X125.08 Y103.074 E142.00814
G1 X125.024 Y102.958 E142.02099
G1 X124.503 Y101.937 E142.13536
G1 X124.421 Y101.793 E142.1519
G1 X118.206 Y95.578 E143.0289
G1 X118.454 Y95.722 E143.05752
G1 X118.574 Y95.795 E143.07153
G1 X119.508 Y96.401 E143.18263
G1 X119.578 Y96.45 E143.19115
G1 X119.981 Y96.744 E143.24093
G1 X120.942 Y97.524 E143.36443
G1 X121.246 Y97.797 E143.40519
G1 X121.316 Y97.862 E143.41473
G1 X122.136 Y98.683 E143.53051
G1 X122.193 Y98.743 E143.53876
G1 X122.474 Y99.056 E143.58074
G1 X123.254 Y100.017 E143.70423
G1 X123.543 Y100.412 E143.75307
G1 X123.597 Y100.49 E143.76254
G1 X124.204 Y101.425 E143.87377
G1 X124.273 Y101.538 E143.88698
G1 F2700 E138.88698
G0 F300 X124.273 Y101.538 Z0.74
G0 F12000 X125.109 Y100.863
G0 X124.089 Y99.356
G0 X122.896 Y97.937
G0 X121.568 Y96.659
G0 X120.107 Y95.521
G0 X118.556 Y94.552
G0 X116.864 Y93.731
G0 X115.467 Y93.226
G0 X113.856 Y92.766
G0 X113.308 Y93.535
;TIME_ELAPSED:64.382037
;LAYER:-4
;TYPE:SUPPORT-INTERFACE
G1 F2700 E143.88698
G1 F2400 X113.176 Y93.51 E143.89145
G1 X112.059 Y93.333 E143.92906
G1 X111.566 Y93.279 E143.94556
G1 X111.435 Y93.268 E143.94993
G1 X110.312 Y93.21 E143.98733
G1 X110.2 Y93.207 E143.99106
G1 X109.8 Y93.207 E144.00436
G1 X109.688 Y93.21 E144.00809
G1 X108.565 Y93.269 E144.04549
G1 X108.434 Y93.279 E144.04986
G1 X107.941 Y93.333 E144.06635
G1 X106.824 Y93.51 E144.10397
G1 X106.692 Y93.535 E144.10844
G1 X106.384 Y93.6 E144.11891
G1 X113.621 Y93.6 E144.35961
G1 X113.669 Y93.61 E144.36124
G1 X113.803 Y93.643 E144.36583
G1 X114.9 Y93.937 E144.40361
G1 X114.99 Y93.964 E144.40673
G1 X115.102 Y94 E144.41064
G1 X104.899 Y94 E144.75
G1 X104.608 Y94.094 E144.76017
G1 X103.808 Y94.4 E144.78866
G1 X116.193 Y94.4 E145.20058
G1 X116.541 Y94.533 E145.21297
G1 X116.642 Y94.575 E145.21661
G1 X117.006 Y94.736 E145.22985
G1 X117.123 Y94.792 E145.23417
G1 X117.139 Y94.8 E145.23476
