;FLAVOR:Marlin
;TIME:1967
;Filament used: 1.55389m
;Layer height: 0.2
;MINX:147.336
;MINY:147.335
;MINZ:0.24
;MAXX:202.646
;MAXY:202.477
;MAXZ:24.09
;Generated with Cura_SteamEngine 4.6.0
M140 S60
M105
M190 S60
M104 S200
M105
M109 S200
M82 ;absolute extrusion mode
M201 X500.00 Y500.00 Z100.00 E5000.00 ;Setup machine max acceleration
M203 X500.00 Y500.00 Z10.00 E50.00 ;Setup machine max feedrate
M204 P500.00 R1000.00 T500.00 ;Setup Print/Retract/Travel acceleration
M205 X8.00 Y8.00 Z0.40 E5.00 ;Setup Jerk
M220 S100 ;Reset Feedrate
M221 S100 ;Reset Flowrate

G28 ;Home
M420 S1 Z2 ;Enable ABL using saved Mesh and Fade Height

G92 E0 ;Reset Extruder
G1 Z2.0 F3000 ;Move Z Axis up
G1 X10.1 Y20 Z0.28 F5000.0 ;Move to start position
G1 X10.1 Y200.0 Z0.28 F1500.0 E15 ;Draw the first line
G1 X10.4 Y200.0 Z0.28 F5000.0 ;Move to side a little
G1 X10.4 Y20 Z0.28 F1500.0 E30 ;Draw the second line
G92 E0 ;Reset Extruder
G1 Z2.0 F3000 ;Move Z Axis up

G92 E0
G92 E0
G1 F1500 E-6.5
;LAYER_COUNT:115
;LAYER:-6
M107
G0 F12000 X152.802 Y152.556 Z0.24
;TYPE:SUPPORT-INTERFACE
G1 F1500 E0
G1 F1800 X152.927 Y152.436 E0.01383
G1 X153.598 Y151.833 E0.08584
G1 X153.714 Y151.737 E0.09786
G1 X154.426 Y151.187 E0.16968
G1 X154.585 Y151.074 E0.18525
G1 X155.323 Y150.584 E0.25596
G1 X155.449 Y150.508 E0.26771
G1 X156.243 Y150.062 E0.34041
G1 X156.393 Y149.984 E0.3539
G1 X157.208 Y149.601 E0.42578
G1 X157.351 Y149.541 E0.43816
G1 X158.21 Y149.212 E0.51159
G1 X158.36 Y149.16 E0.52426
G1 X159.21 Y148.905 E0.5951
G1 X159.383 Y148.859 E0.60939
G1 X159.383 Y148.858 E0.60947
G1 X160.278 Y148.658 E0.68267
G1 X160.408 Y148.635 E0.69321
G1 X161.313 Y148.501 E0.76624
G1 X161.482 Y148.483 E0.77981
G1 X162.555 Y148.408 E0.86567
G1 X163.06 Y148.4 E0.90598
G1 X187.003 Y148.401 E2.81722
G1 X188.127 Y148.446 E2.90701
G1 X189.044 Y148.548 E2.98066
G1 X189.219 Y148.573 E2.99477
G1 X190.108 Y148.737 E3.06694
G1 X190.231 Y148.765 E3.077
G1 X191.125 Y148.999 E3.15077
G1 X191.288 Y149.048 E3.16436
G1 X192.13 Y149.335 E3.23537
G1 X192.13 Y149.334 E3.23545
G1 X192.296 Y149.398 E3.24965
G1 X193.099 Y149.739 E3.31929
G1 X193.288 Y149.827 E3.33593
G1 X194.082 Y150.236 E3.40723
G1 X194.082 Y150.235 E3.4073
G1 X194.199 Y150.301 E3.41803
G1 X194.199 Y150.302 E3.41811
G1 X194.978 Y150.776 E3.4909
G1 X195.129 Y150.876 E3.50535
G1 X195.843 Y151.387 E3.57544
G1 X195.991 Y151.5 E3.59031
G1 X196.682 Y152.076 E3.66211
G1 X196.795 Y152.177 E3.67421
G1 X197.444 Y152.802 E3.74614
G1 X197.564 Y152.927 E3.75997
G1 X198.167 Y153.598 E3.83198
G1 X198.263 Y153.714 E3.844
G1 X198.822 Y154.438 E3.91701
G1 X198.916 Y154.569 E3.92988
G1 X199.416 Y155.323 E4.0021
G1 X199.492 Y155.449 E4.01385
G1 X199.938 Y156.243 E4.08654
G1 X200.016 Y156.393 E4.10004
G1 X200.399 Y157.208 E4.17192
G1 X200.459 Y157.351 E4.1843
G1 X200.788 Y158.21 E4.25773
G1 X200.84 Y158.36 E4.2704
G1 X201.095 Y159.21 E4.34124
G1 X201.141 Y159.383 E4.35553
G1 X201.142 Y159.383 E4.35561
G1 X201.34 Y160.269 E4.42808
G1 X201.365 Y160.408 E4.43935
G1 X201.498 Y161.307 E4.51189
G1 X201.516 Y161.469 E4.5249
G1 X201.592 Y162.555 E4.6118
G1 X201.6 Y163.056 E4.6518
G1 X201.6 Y186.986 E6.562
G1 X201.564 Y187.992 E6.64235
G1 X201.554 Y188.127 E6.65316
G1 X201.452 Y189.044 E6.72681
G1 X201.427 Y189.219 E6.74092
G1 X201.265 Y190.097 E6.81219
G1 X201.235 Y190.231 E6.82315
G1 X201.004 Y191.116 E6.89616
G1 X200.952 Y191.288 E6.9105
G1 X200.676 Y192.1 E6.97896
G1 X200.596 Y192.309 E6.99683
G1 X200.261 Y193.099 E7.06532
G1 X200.18 Y193.274 E7.08072
G1 X199.764 Y194.082 E7.15326
G1 X199.698 Y194.199 E7.16399
G1 X199.224 Y194.978 E7.23678
G1 X199.124 Y195.129 E7.25123
G1 X198.613 Y195.843 E7.32132
G1 X198.5 Y195.991 E7.33618
G1 X197.924 Y196.682 E7.40799
G1 X197.823 Y196.795 E7.42009
G1 X197.198 Y197.444 E7.49201
G1 X197.073 Y197.564 E7.50584
G1 X196.403 Y198.166 E7.57774
G1 X196.286 Y198.263 E7.58988
G1 X195.574 Y198.813 E7.66169
G1 X195.415 Y198.926 E7.67726
G1 X194.677 Y199.416 E7.74798
G1 X194.551 Y199.492 E7.75972
G1 X193.757 Y199.938 E7.83242
G1 X193.606 Y200.016 E7.84598
G1 X192.792 Y200.399 E7.91779
G1 X192.649 Y200.459 E7.93017
G1 X191.79 Y200.788 E8.0036
G1 X191.64 Y200.84 E8.01627
G1 X190.79 Y201.095 E8.08711
G1 X190.617 Y201.141 E8.1014
G1 X190.617 Y201.142 E8.10148
G1 X189.722 Y201.342 E8.17469
G1 X189.592 Y201.365 E8.18522
G1 X188.687 Y201.499 E8.25825
G1 X188.519 Y201.517 E8.27174
G1 X187.445 Y201.592 E8.35768
G1 X186.94 Y201.6 E8.398
G1 X162.997 Y201.599 E10.30923
G1 X161.873 Y201.554 E10.39902
G1 X160.956 Y201.452 E10.47267
G1 X160.781 Y201.427 E10.48679
G1 X159.892 Y201.263 E10.55895
G1 X159.769 Y201.235 E10.56902
G1 X158.875 Y201.001 E10.64278
G1 X158.712 Y200.952 E10.65637
G1 X157.87 Y200.665 E10.72738
G1 X157.87 Y200.666 E10.72746
G1 X157.704 Y200.602 E10.74166
G1 X156.901 Y200.261 E10.8113
G1 X156.712 Y200.173 E10.82794
G1 X155.918 Y199.764 E10.89924
G1 X155.918 Y199.765 E10.89932
G1 X155.801 Y199.699 E10.91004
G1 X155.801 Y199.698 E10.91012
G1 X155.022 Y199.224 E10.98291
G1 X154.871 Y199.124 E10.99737
G1 X154.157 Y198.613 E11.06745
G1 X154.009 Y198.5 E11.08232
G1 X153.318 Y197.924 E11.15413
G1 X153.205 Y197.823 E11.16622
G1 X152.556 Y197.198 E11.23815
G1 X152.436 Y197.073 E11.25198
G1 X151.833 Y196.402 E11.32399
G1 X151.736 Y196.284 E11.33618
G1 X151.178 Y195.562 E11.40902
G1 X151.074 Y195.415 E11.4234
G1 X150.581 Y194.672 E11.49458
G1 X150.508 Y194.551 E11.50586
G1 X150.056 Y193.746 E11.57955
G1 X149.984 Y193.607 E11.59205
G1 X149.587 Y192.761 E11.66664
G1 X149.541 Y192.649 E11.67631
G1 X149.212 Y191.79 E11.74974
G1 X149.155 Y191.625 E11.76367
G1 X148.905 Y190.79 E11.83325
G1 X148.859 Y190.617 E11.84754
G1 X148.858 Y190.617 E11.84762
G1 X148.657 Y189.716 E11.92131
G1 X148.635 Y189.592 E11.93136
G1 X148.5 Y188.678 E12.00511
G1 X148.483 Y188.518 E12.01795
G1 X148.408 Y187.445 E12.10381
G1 X148.4 Y186.944 E12.14381
G1 X148.4 Y163.014 E14.05401
G1 X148.436 Y162.008 E14.13436
G1 X148.446 Y161.873 E14.14517
G1 X148.548 Y160.956 E14.21882
G1 X148.573 Y160.781 E14.23293
G1 X148.735 Y159.903 E14.3042
G1 X148.765 Y159.769 E14.31516
G1 X148.996 Y158.884 E14.38817
G1 X149.048 Y158.712 E14.40251
G1 X149.335 Y157.87 E14.47352
G1 X149.334 Y157.87 E14.4736
G1 X149.398 Y157.704 E14.4878
G1 X149.739 Y156.901 E14.55744
G1 X149.82 Y156.726 E14.57284
G1 X150.236 Y155.918 E14.64538
G1 X150.235 Y155.918 E14.64546
G1 X150.301 Y155.801 E14.65618
G1 X150.302 Y155.801 E14.65626
G1 X150.776 Y155.022 E14.72905
G1 X150.876 Y154.871 E14.74351
G1 X151.387 Y154.157 E14.8136
G1 X151.5 Y154.009 E14.82846
G1 X152.076 Y153.318 E14.90027
G1 X152.177 Y153.205 E14.91237
G1 X152.802 Y152.556 E14.98429
G0 F12000 X153.6 Y151.831
G1 F1800 X153.6 Y198.159 E18.68239
G0 F12000 X155.2 Y199.332
G1 F1800 X155.2 Y150.665 E22.5672
G0 F12000 X156.8 Y149.792
G1 F1800 X156.8 Y200.213 E26.59203
G0 F12000 X158.4 Y200.845
G1 F1800 X158.4 Y149.148 E30.7187
G0 F12000 X160 Y148.72
G1 F1800 X160 Y201.282 E34.91443
G0 F12000 X161.6 Y201.523
G1 F1800 X161.6 Y148.474 E39.14903
G0 F12000 X163.2 Y148.401
G1 F1800 X163.2 Y201.599 E43.39552
G0 F12000 X164.8 Y201.599
G1 F1800 X164.8 Y148.401 E47.64202
G0 F12000 X166.4 Y148.401
G1 F1800 X166.4 Y201.599 E51.88851
G0 F12000 X168 Y201.599
G1 F1800 X168 Y148.401 E56.13501
G0 F12000 X169.6 Y148.401
G1 F1800 X169.6 Y201.599 E60.3815
G0 F12000 X171.2 Y201.599
G1 F1800 X171.2 Y148.401 E64.628
G0 F12000 X172.8 Y148.401
G1 F1800 X172.8 Y201.599 E68.87449
G0 F12000 X174.4 Y201.599
G1 F1800 X174.4 Y148.401 E73.12099
G0 F12000 X176 Y148.401
G1 F1800 X176 Y201.599 E77.36748
G0 F12000 X177.6 Y201.599
G1 F1800 X177.6 Y148.401 E81.61397
G0 F12000 X179.2 Y148.401
G1 F1800 X179.2 Y201.599 E85.86047
G0 F12000 X180.8 Y201.599
G1 F1800 X180.8 Y148.401 E90.10696
G0 F12000 X182.4 Y148.401
G1 F1800 X182.4 Y201.599 E94.35346
G0 F12000 X184 Y201.599
G1 F1800 X184 Y148.401 E98.59995
G0 F12000 X185.6 Y148.401
G1 F1800 X185.6 Y201.599 E102.84645
G0 F12000 X187.2 Y201.596
G1 F1800 X187.2 Y148.409 E107.09206
G0 F12000 X188.8 Y148.521
G1 F1800 X188.8 Y201.483 E111.31972
G0 F12000 X190.4 Y201.191
G1 F1800 X190.4 Y148.81 E115.501
G0 F12000 X192 Y149.291
G1 F1800 X192 Y200.708 E119.60532
G0 F12000 X193.6 Y200.019
G1 F1800 X193.6 Y149.988 E123.59901
G0 F12000 X195.2 Y150.927
G1 F1800 X195.2 Y199.069 E127.44192
G0 F12000 X196.8 Y197.81
G1 F1800 X196.8 Y152.182 E131.08414
G0 F12000 X198.4 Y153.892
G1 F1800 X198.4 Y196.111 E134.45424
G0 F12000 X200 Y193.624
G1 F1800 X200 Y156.363 E137.42858
G1 F1500 E130.92858
G0 F12000 X200.878 Y155.743
G0 X199.796 Y153.972
G0 X198.968 Y152.897
G0 X197.514 Y151.392
G0 X196.481 Y150.534
G0 X194.743 Y149.387
G0 X193.538 Y148.769
G0 X191.62 Y148.036
G0 X190.316 Y147.694
G0 X188.231 Y147.387
G0 X186.987 Y147.336
G0 X162.31 Y147.354
G0 X160.242 Y147.583
G0 X158.927 Y147.879
G0 X156.961 Y148.55
G0 X155.743 Y149.122
G0 X153.977 Y150.201
G0 X152.897 Y151.032
G0 X151.392 Y152.486
G0 X152 Y153.409
G1 F1500 E137.42858
G1 F1800 X152 Y196.587 E140.87523
G0 F12000 X150.4 Y194.358
G1 F1800 X150.4 Y155.639 E143.96595
G0 F12000 X148.8 Y159.634
G1 F1800 X148.8 Y190.357 E146.41839
G0 F300 X148.8 Y190.357 Z0.54
G0 F12000 X148.857 Y190.616
;TIME_ELAPSED:72.114584
;LAYER:-5
M140 S60
;TYPE:SUPPORT
G1 F1800 X148.656 Y189.715 E146.51051
G1 X148.646 Y189.658 E146.51628
G1 X160.33 Y201.342 E148.16502
G1 X160.78 Y201.426 E148.2107
G1 X160.956 Y201.451 E148.22843
G1 X161.873 Y201.553 E148.3205
G1 X161.957 Y201.555 E148.32888
G1 X148.449 Y188.047 E150.235
G1 X148.407 Y187.444 E150.29532
G1 X148.4 Y186.943 E150.34531
G1 X148.399 Y186.583 E150.38123
G1 X163.414 Y201.598 E152.50001
G1 X164.828 Y201.598 E152.6411
G1 X148.399 Y185.169 E154.95941
G1 X148.399 Y183.755 E155.1005
G1 X166.242 Y201.598 E157.61834
G1 X167.657 Y201.598 E157.75953
G1 X148.399 Y182.34 E160.47704
G1 X148.399 Y180.926 E160.61813
G1 X169.071 Y201.598 E163.53517
G1 X170.485 Y201.598 E163.67626
G1 X148.399 Y179.512 E166.79284
G1 X148.399 Y178.098 E166.93393
G1 X171.899 Y201.598 E170.25003
G1 X173.313 Y201.598 E170.39112
G1 X148.399 Y176.684 E173.90675
G1 X148.399 Y175.269 E174.04794
G1 X174.728 Y201.598 E177.76325
G1 X176.143 Y201.598 E177.90444
G1 X148.399 Y173.855 E181.81935
G1 X148.399 Y172.441 E181.96044
G1 X177.557 Y201.598 E186.07487
G1 X178.971 Y201.598 E186.21596
G1 X148.399 Y171.027 E190.52993
G1 X148.399 Y169.612 E190.67112
G1 X180.385 Y201.598 E195.18469
G1 X181.799 Y201.598 E195.32578
G1 X148.399 Y168.198 E200.03888
G1 X148.399 Y166.784 E200.17997
G1 X183.214 Y201.598 E205.09267
G1 X184.628 Y201.598 E205.23376
G1 X148.399 Y165.37 E210.346
G1 X148.399 Y163.956 E210.48709
G1 X186.042 Y201.598 E215.79885
G1 X186.939 Y201.599 E215.88835
G1 X187.444 Y201.591 E215.93875
G0 F12000 X187.448 Y201.59
G1 F1800 X148.416 Y162.558 E221.44658
G1 X148.436 Y162.007 E221.5016
G1 X148.445 Y161.872 E221.5151
G1 X148.515 Y161.243 E221.57825
G1 X188.759 Y201.487 E227.25711
G1 X189.592 Y201.364 E227.34113
G1 X189.722 Y201.341 E227.3543
G1 X189.972 Y201.285 E227.37987
G1 X148.712 Y160.026 E233.20203
G1 X148.735 Y159.902 E233.21461
G1 X148.764 Y159.768 E233.22829
G1 X148.993 Y158.893 E233.31854
G1 X191.101 Y201 E239.26036
G1 X191.64 Y200.839 E239.31649
G1 X191.789 Y200.787 E239.33224
G1 X192.159 Y200.645 E239.37178
G1 X149.348 Y157.833 E245.41295
G1 X149.397 Y157.703 E245.42681
G1 X149.739 Y156.9 E245.5139
G1 X149.767 Y156.838 E245.52069
G1 X193.155 Y200.226 E251.6432
G1 X193.605 Y200.015 E251.69279
G1 X193.757 Y199.937 E251.70984
G1 X194.091 Y199.748 E251.74813
G1 X150.243 Y155.9 E257.93556
G1 X150.3 Y155.8 E257.94705
G0 F12000 X150.301 Y155.8
G1 F1800 X150.775 Y155.021 E258.03803
G0 F12000 X150.776 Y155.019
G1 F1800 X194.974 Y199.216 E264.27478
G1 X195.415 Y198.925 E264.3275
G1 X195.573 Y198.812 E264.34688
G1 X195.804 Y198.633 E264.37604
G1 X151.361 Y154.19 E270.64743
G1 X151.387 Y154.156 E270.6517
G1 X151.499 Y154.008 E270.67022
G1 X151.997 Y153.411 E270.74779
G1 X196.586 Y198 E277.03978
G1 X197.072 Y197.563 E277.10499
G1 X197.198 Y197.443 E277.12236
G1 X197.318 Y197.318 E277.13965
G1 X152.68 Y152.68 E283.43855
G1 X152.8 Y152.556 E283.45577
G1 X152.926 Y152.435 E283.4732
G1 X153.413 Y151.998 E283.53849
G1 X198.001 Y196.587 E289.83041
G1 X198.499 Y195.99 E289.90798
G1 X198.612 Y195.843 E289.92648
G1 X198.637 Y195.809 E289.93069
G1 X154.194 Y151.366 E296.20208
G1 X154.425 Y151.187 E296.23124
G1 X154.584 Y151.074 E296.2507
G1 X155.024 Y150.782 E296.30339
G1 X199.222 Y194.979 E302.54014
G0 F12000 X199.223 Y194.977
G1 F1800 X199.697 Y194.199 E302.63104
G1 X199.754 Y194.097 E302.6427
G1 X155.907 Y150.25 E308.82998
G1 X156.242 Y150.062 E308.86831
G1 X156.392 Y149.984 E308.88518
G1 X156.843 Y149.772 E308.93491
G1 X200.232 Y193.161 E315.05757
G1 X200.26 Y193.098 E315.06444
G1 X200.594 Y192.309 E315.14993
G1 X200.65 Y192.165 E315.16535
G1 X157.839 Y149.354 E321.20645
G1 X158.209 Y149.212 E321.24599
G1 X158.359 Y149.159 E321.26186
G1 X158.898 Y148.998 E321.31799
G1 X201.005 Y191.106 E327.25982
G1 X201.234 Y190.23 E327.35016
G1 X201.263 Y190.097 E327.36374
G1 X201.287 Y189.973 E327.37635
G1 X160.027 Y148.713 E333.19858
G1 X160.277 Y148.657 E333.22414
G1 X160.407 Y148.635 E333.2373
G1 X161.24 Y148.512 E333.32132
G1 X201.483 Y188.755 E339.00004
G1 X201.553 Y188.127 E339.06309
G1 X201.562 Y187.992 E339.07659
G1 X201.582 Y187.44 E339.1317
G1 X162.551 Y148.408 E344.63947
G0 F12000 X162.554 Y148.408
G1 F1800 X163.059 Y148.399 E344.68987
G1 X163.956 Y148.4 E344.77937
G1 X201.598 Y186.042 E350.09106
G1 X201.598 Y184.628 E350.23215
G1 X165.371 Y148.4 E355.34424
G1 X166.785 Y148.4 E355.48533
G1 X201.598 Y183.214 E360.39789
G1 X201.598 Y181.799 E360.53908
G1 X168.199 Y148.4 E365.25204
G1 X169.613 Y148.4 E365.39313
G1 X201.598 Y180.385 E369.90656
G1 X201.598 Y178.971 E370.04765
G1 X171.027 Y148.4 E374.36155
G1 X172.442 Y148.4 E374.50274
G1 X201.598 Y177.557 E378.61704
G1 X201.598 Y176.143 E378.75812
G1 X173.856 Y148.4 E382.67289
G1 X175.271 Y148.401 E382.81408
G1 X201.598 Y174.728 E386.5291
G1 X201.598 Y173.314 E386.67019
G1 X176.685 Y148.401 E390.18569
G1 X178.099 Y148.401 E390.32678
G1 X201.598 Y171.9 E393.64274
G1 X201.598 Y170.486 E393.78383
G1 X179.513 Y148.401 E396.90026
G1 X180.928 Y148.401 E397.04145
G1 X201.598 Y169.072 E399.95828
G1 X201.598 Y167.657 E400.09947
G1 X182.342 Y148.401 E402.8167
G1 X183.756 Y148.401 E402.95779
G1 X201.598 Y166.243 E405.47549
G1 X201.598 Y164.829 E405.61658
G1 X185.17 Y148.401 E407.93475
G1 X186.584 Y148.401 E408.07584
G1 X201.598 Y163.415 E410.19447
G1 X201.598 Y163.055 E410.23039
G1 X201.591 Y162.554 E410.28039
G1 X201.549 Y161.951 E410.3407
G1 X188.041 Y148.443 E412.24683
G1 X188.126 Y148.446 E412.25531
G1 X189.042 Y148.548 E412.34728
G1 X189.218 Y148.573 E412.36502
G1 X189.668 Y148.656 E412.41067
G1 X201.352 Y160.339 E414.05934
G1 X201.339 Y160.269 E414.06645
G1 X201.141 Y159.382 E414.15713
G0 F12000 X201.14 Y159.382
G1 F1800 X201.094 Y159.21 E414.17489
G1 X200.861 Y158.435 E414.25564
G1 X191.571 Y149.145 E415.56656
G1 X192.129 Y149.335 E415.62538
G0 F12000 X192.129 Y149.333
G1 F1800 X192.295 Y149.398 E415.64317
G1 X193.098 Y149.739 E415.73022
G1 X193.286 Y149.826 E415.75089
G1 X194.072 Y150.231 E415.83911
G1 X199.751 Y155.91 E416.64048
G0 F12000 X199.491 Y155.448
G1 F1800 X199.415 Y155.323 E416.65508
G1 X198.915 Y154.568 E416.74543
G1 X198.821 Y154.437 E416.76152
G1 X198.262 Y153.714 E416.85271
G1 X198.166 Y153.597 E416.86781
G1 X197.563 Y152.926 E416.95783
G1 X197.443 Y152.802 E416.97505
G1 X196.794 Y152.177 E417.06495
G1 X196.681 Y152.076 E417.08007
G1 X195.99 Y151.5 E417.16983
G1 X195.842 Y151.386 E417.18847
G1 X195.128 Y150.876 E417.27603
G1 X194.976 Y150.775 E417.29424
G1 X194.197 Y150.301 E417.38522
G0 F12000 X194.198 Y150.301
G1 F1800 X194.081 Y150.234 E417.39868
G0 F12000 X194.081 Y150.236
G1 F1800 X194.072 Y150.231 E417.3997
G1 F1500 E410.8997
G0 F12000 X194.559 Y149.284
G0 X192.7 Y148.413
G0 X191.41 Y147.973
G0 X189.383 Y147.521
G0 X188.057 Y147.374
G0 X162.31 Y147.354
G0 X160.242 Y147.583
G0 X158.927 Y147.879
G0 X156.961 Y148.55
G0 X155.743 Y149.122
G0 X153.977 Y150.201
G0 X152.897 Y151.032
G0 X151.392 Y152.486
G0 X150.534 Y153.519
G0 X149.387 Y155.257
G0 X148.769 Y156.462
