;FLAVOR:Marlin
;TIME:26620
;Filament used: 23.0609m
;Layer height: 0.2
;MINX:-0.451
;MINY:60.835
;MINZ:0.24
;MAXX:220.665
;MAXY:159.162
;MAXZ:54.09
;Generated with Cura_SteamEngine 4.8.0
M140 S50
M105
M190 S50
M104 S200
M105
M109 S200
M82 ;absolute extrusion mode
M201 X500.00 Y500.00 Z100.00 E5000.00 ;Setup machine max acceleration
M203 X500.00 Y500.00 Z10.00 E50.00 ;Setup machine max feedrate
M204 P500.00 R1000.00 T500.00 ;Setup Print/Retract/Travel acceleration
M205 X8.00 Y8.00 Z0.40 E5.00 ;Setup Jerk
M220 S100 ;Reset Feedrate
M221 S100 ;Reset Flowrate

G28 ;Home

G92 E0 ;Reset Extruder
G1 Z2.0 F3000 ;Move Z Axis up
G1 X10.1 Y20 Z0.28 F5000.0 ;Move to start position
G1 X10.1 Y200.0 Z0.28 F1500.0 E15 ;Draw the first line
G1 X10.4 Y200.0 Z0.28 F5000.0 ;Move to side a little
G1 X10.4 Y20 Z0.28 F1500.0 E30 ;Draw the second line
G92 E0 ;Reset Extruder
G1 Z2.0 F3000 ;Move Z Axis up

G92 E0
G92 E0
G1 F2700 E-5
;LAYER_COUNT:265
;LAYER:-6
M107
G0 F12000 X10.925 Y62.075 Z0.24
;TYPE:SUPPORT-INTERFACE
G1 F2700 E0
G1 F1800 X11.091 Y62.048 E0.01342
G1 X11.887 Y61.953 E0.07742
G1 X12.085 Y61.938 E0.09327
G1 X12.968 Y61.902 E0.16381
G1 X13.057 Y61.9 E0.17092
G1 X206.94 Y61.9 E15.6475
G1 X207.041 Y61.902 E15.65556
G1 X207.883 Y61.936 E15.72283
G1 X208.102 Y61.953 E15.74036
G1 X208.896 Y62.047 E15.80418
G1 X209.04 Y62.069 E15.81581
G1 X209.84 Y62.228 E15.88092
G1 X210.035 Y62.275 E15.89693
G1 X210.791 Y62.488 E15.95963
G1 X210.986 Y62.551 E15.97599
G1 X211.745 Y62.83 E16.04054
G1 X211.877 Y62.884 E16.05192
G1 X212.643 Y63.238 E16.11928
G1 X212.793 Y63.314 E16.1327
G1 X213.494 Y63.706 E16.19681
G1 X213.649 Y63.801 E16.21133
G1 X214.337 Y64.26 E16.27735
G1 X214.459 Y64.348 E16.28935
G1 X215.092 Y64.846 E16.35365
G1 X215.245 Y64.977 E16.36972
G1 X215.827 Y65.514 E16.43294
G1 X215.955 Y65.641 E16.44733
G1 X216.522 Y66.254 E16.51398
G1 X216.624 Y66.374 E16.52656
G1 X217.119 Y67 E16.59026
G1 X217.237 Y67.16 E16.60613
G1 X217.685 Y67.828 E16.67033
G1 X217.777 Y67.978 E16.68438
G1 X218.169 Y68.677 E16.74835
G1 X218.26 Y68.854 E16.76424
G1 X218.606 Y69.6 E16.82988
G1 X218.66 Y69.729 E16.84104
G1 X218.949 Y70.511 E16.90759
G1 X218.996 Y70.653 E16.91953
G1 X219.223 Y71.458 E16.9863
G1 X219.265 Y71.63 E17.00043
G1 X219.425 Y72.425 E17.06516
G1 X219.452 Y72.591 E17.07859
G1 X219.547 Y73.387 E17.14258
G1 X219.562 Y73.581 E17.15811
G1 X219.598 Y74.46 E17.22834
G1 X219.6 Y74.549 E17.23544
G1 X219.6 Y82.44 E17.86534
G1 X219.598 Y82.541 E17.8734
G1 X219.565 Y83.373 E17.93987
G1 X219.547 Y83.602 E17.9582
G1 X219.455 Y84.383 E18.02098
G1 X219.432 Y84.535 E18.03325
G1 X219.272 Y85.34 E18.09876
G1 X219.228 Y85.525 E18.11394
G1 X219.016 Y86.28 E18.17654
G1 X218.954 Y86.472 E18.19265
G1 X218.672 Y87.24 E18.25795
G1 X218.616 Y87.377 E18.26977
G1 X218.262 Y88.143 E18.33713
G1 X218.186 Y88.293 E18.35055
G1 X217.794 Y88.994 E18.41466
G1 X217.699 Y89.149 E18.42917
G1 X217.24 Y89.837 E18.49519
G1 X217.152 Y89.959 E18.5072
G1 X216.654 Y90.592 E18.57149
G1 X216.523 Y90.745 E18.58757
G1 X215.986 Y91.327 E18.65078
G1 X215.859 Y91.455 E18.66518
G1 X215.246 Y92.022 E18.73183
G1 X215.126 Y92.124 E18.7444
G1 X214.5 Y92.619 E18.80811
G1 X214.34 Y92.737 E18.82398
G1 X213.665 Y93.189 E18.88882
G1 X213.522 Y93.277 E18.90223
G1 X212.817 Y93.672 E18.96673
G1 X212.648 Y93.759 E18.98191
G1 X211.9 Y94.106 E19.04773
G1 X211.766 Y94.162 E19.05932
G1 X210.977 Y94.453 E19.12645
G1 X210.847 Y94.496 E19.13738
G1 X210.042 Y94.723 E19.20414
G1 X209.87 Y94.765 E19.21828
G1 X209.075 Y94.925 E19.28301
G1 X208.908 Y94.952 E19.29651
G1 X208.113 Y95.047 E19.36043
G1 X207.915 Y95.062 E19.37628
G1 X207.032 Y95.098 E19.44682
G1 X206.943 Y95.1 E19.45393
G1 X205.251 Y95.1 E19.58899
G1 X204.577 Y95.143 E19.6429
G1 X203.656 Y95.345 E19.71816
G1 X202.984 Y95.557 E19.77441
G1 X202.78 Y95.613 E19.7913
G1 X201.986 Y95.796 E19.85634
G1 X201.841 Y95.824 E19.86813
G1 X201.068 Y95.942 E19.93055
G1 X200.536 Y96.006 E19.97332
G1 X200.41 Y96.018 E19.98342
G1 X199.552 Y96.084 E20.05212
G1 X199.384 Y96.091 E20.06554
G1 X198.584 Y96.089 E20.1294
G1 X198.387 Y96.081 E20.14514
G1 X197.456 Y96.006 E20.21969
G1 X196.99 Y95.95 E20.25716
G1 X196.862 Y95.932 E20.26748
G1 X196.04 Y95.8 E20.33393
G1 X195.859 Y95.764 E20.34866
G1 X195.059 Y95.571 E20.41436
G1 X194.904 Y95.527 E20.42722
G1 X194.138 Y95.279 E20.49149
G1 X193.656 Y95.105 E20.53239
G1 X193.504 Y95.047 E20.54538
G1 X192.754 Y94.74 E20.61007
G1 X192.551 Y94.648 E20.62786
G1 X191.857 Y94.298 E20.68991
G1 X191.689 Y94.205 E20.70523
G1 X191.01 Y93.795 E20.76855
G1 X190.533 Y93.484 E20.814
G1 X190.453 Y93.429 E20.82175
G1 X189.76 Y92.935 E20.88969
G1 X189.601 Y92.812 E20.90573
G1 X188.997 Y92.304 E20.96873
G1 X188.86 Y92.181 E20.98343
G1 X188.294 Y91.628 E21.0466
G1 X187.786 Y91.19 E21.10014
G1 X187.215 Y90.814 E21.15471
G1 X186.603 Y90.513 E21.20915
G1 X185.957 Y90.291 E21.26368
G1 X185.287 Y90.153 E21.31828
G1 X184.544 Y90.1 E21.37775
G1 X33.987 Y90.1 E33.39586
G1 X33.319 Y90.142 E33.44928
G1 X32.648 Y90.271 E33.50383
G1 X31.999 Y90.484 E33.55835
G1 X31.382 Y90.776 E33.61284
G1 X30.807 Y91.144 E33.66733
G1 X30.283 Y91.582 E33.72185
G1 X29.819 Y92.082 E33.7763
G1 X29.42 Y92.638 E33.83093
G1 X29.096 Y93.238 E33.88536
G1 X28.85 Y93.874 E33.93979
G1 X28.684 Y94.543 E33.99482
G1 X28.6 Y95.482 E34.07007
G1 X28.6 Y124.513 E36.38745
G1 X28.642 Y125.181 E36.44088
G1 X28.771 Y125.852 E36.49542
G1 X28.984 Y126.501 E36.54995
G1 X29.276 Y127.118 E36.60443
G1 X29.644 Y127.693 E36.65893
G1 X30.082 Y128.217 E36.71344
G1 X30.582 Y128.681 E36.76789
G1 X31.138 Y129.08 E36.82252
G1 X31.738 Y129.404 E36.87695
G1 X32.374 Y129.65 E36.93139
G1 X33.043 Y129.816 E36.98641
G1 X33.982 Y129.9 E37.06166
G1 X184.544 Y129.9 E49.08017
G1 X185.212 Y129.858 E49.1336
G1 X185.883 Y129.729 E49.18814
G1 X186.532 Y129.516 E49.24267
G1 X187.149 Y129.224 E49.29716
G1 X187.725 Y128.856 E49.35172
G1 X188.285 Y128.381 E49.41034
G1 X188.908 Y127.776 E49.47966
G1 X189.034 Y127.663 E49.49317
G1 X189.663 Y127.14 E49.55847
G1 X189.804 Y127.031 E49.57269
G1 X190.513 Y126.528 E49.64208
G1 X191.012 Y126.203 E49.68962
G1 X191.786 Y125.74 E49.76161
G1 X191.913 Y125.672 E49.77311
G1 X192.667 Y125.298 E49.8403
G1 X192.807 Y125.235 E49.85255
G1 X193.628 Y124.903 E49.92324
G1 X194.089 Y124.736 E49.96238
G1 X194.994 Y124.447 E50.03822
G1 X195.165 Y124.4 E50.05238
G1 X195.964 Y124.214 E50.11786
G1 X196.145 Y124.179 E50.13258
G1 X196.95 Y124.055 E50.19759
G1 X197.011 Y124.046 E50.20251
G1 X197.506 Y123.989 E50.24229
G1 X198.449 Y123.916 E50.31779
G1 X198.641 Y123.909 E50.33312
G1 X199.432 Y123.911 E50.39627
G1 X199.618 Y123.919 E50.41113
G1 X200.479 Y123.988 E50.48008
G1 X201.003 Y124.049 E50.52219
G1 X201.138 Y124.068 E50.53307
G1 X201.958 Y124.2 E50.59937
G1 X202.141 Y124.236 E50.61426
G1 X202.941 Y124.43 E50.67997
G1 X203.12 Y124.48 E50.6948
G1 X203.62 Y124.641 E50.73673
G1 X204.274 Y124.809 E50.79063
G1 X205.25 Y124.9 E50.86888
G1 X206.94 Y124.9 E51.00378
G1 X207.041 Y124.902 E51.01185
G1 X207.883 Y124.936 E51.07911
G1 X208.102 Y124.953 E51.09665
G1 X208.896 Y125.047 E51.16047
G1 X209.04 Y125.069 E51.1721
G1 X209.84 Y125.228 E51.23721
G1 X210.035 Y125.275 E51.25322
G1 X210.791 Y125.488 E51.31591
G1 X210.986 Y125.551 E51.33227
G1 X211.745 Y125.83 E51.39682
G1 X211.877 Y125.884 E51.40821
G1 X212.643 Y126.238 E51.47557
G1 X212.793 Y126.314 E51.48899
G1 X213.494 Y126.706 E51.5531
G1 X213.649 Y126.801 E51.56761
G1 X214.333 Y127.257 E51.63323
G1 X214.47 Y127.357 E51.64677
G1 X215.092 Y127.846 E51.70993
G1 X215.245 Y127.977 E51.72601
G1 X215.827 Y128.514 E51.78922
G1 X215.955 Y128.641 E51.80361
G1 X216.522 Y129.254 E51.87027
G1 X216.624 Y129.374 E51.88284
G1 X217.119 Y130 E51.94654
G1 X217.237 Y130.16 E51.96241
G1 X217.685 Y130.828 E52.02662
G1 X217.777 Y130.978 E52.04066
G1 X218.169 Y131.677 E52.10464
G1 X218.26 Y131.854 E52.12052
G1 X218.606 Y132.6 E52.18617
G1 X218.66 Y132.729 E52.19733
G1 X218.949 Y133.511 E52.26388
G1 X218.996 Y133.653 E52.27582
G1 X219.223 Y134.458 E52.34258
G1 X219.265 Y134.63 E52.35672
G1 X219.425 Y135.425 E52.42145
G1 X219.452 Y135.591 E52.43487
G1 X219.547 Y136.387 E52.49886
G1 X219.562 Y136.581 E52.5144
G1 X219.598 Y137.46 E52.58462
G1 X219.6 Y137.549 E52.59173
G1 X219.6 Y145.44 E53.22162
G1 X219.598 Y145.541 E53.22969
G1 X219.565 Y146.373 E53.29615
G1 X219.547 Y146.602 E53.31449
G1 X219.455 Y147.383 E53.37726
G1 X219.432 Y147.535 E53.38953
G1 X219.272 Y148.34 E53.45505
G1 X219.228 Y148.525 E53.47023
G1 X219.016 Y149.28 E53.53283
G1 X218.954 Y149.472 E53.54893
G1 X218.672 Y150.24 E53.61424
G1 X218.616 Y150.377 E53.62605
G1 X218.262 Y151.143 E53.69341
G1 X218.186 Y151.293 E53.70683
G1 X217.794 Y151.994 E53.77095
G1 X217.699 Y152.149 E53.78546
G1 X217.24 Y152.837 E53.85148
G1 X217.152 Y152.959 E53.86349
G1 X216.654 Y153.592 E53.92778
G1 X216.523 Y153.745 E53.94386
G1 X215.986 Y154.327 E54.00707
G1 X215.859 Y154.455 E54.02146
G1 X215.246 Y155.022 E54.08812
G1 X215.126 Y155.124 E54.10069
G1 X214.5 Y155.619 E54.16439
G1 X214.34 Y155.737 E54.18026
G1 X213.665 Y156.189 E54.24511
G1 X213.522 Y156.277 E54.25851
G1 X212.817 Y156.672 E54.32302
G1 X212.647 Y156.76 E54.3383
G1 X211.9 Y157.106 E54.40401
G1 X211.766 Y157.162 E54.41561
G1 X210.977 Y157.453 E54.48273
G1 X210.847 Y157.496 E54.49366
G1 X210.042 Y157.723 E54.56043
G1 X209.87 Y157.765 E54.57456
G1 X209.075 Y157.925 E54.6393
G1 X208.908 Y157.952 E54.6528
G1 X208.113 Y158.047 E54.71671
G1 X207.915 Y158.062 E54.73256
G1 X207.032 Y158.098 E54.80311
G1 X206.943 Y158.1 E54.81021
G1 X13.195 Y158.1 E70.27601
G1 X13.094 Y158.098 E70.28408
G1 X12.257 Y158.065 E70.35094
G1 X12.041 Y158.046 E70.36825
G1 X10.921 Y157.899 E70.45842
G1 X10.743 Y157.871 E70.47281
G1 X10.673 Y157.857 E70.4785
G1 X9.829 Y157.666 E70.54758
G1 X9.657 Y157.62 E70.56179
G1 X8.894 Y157.384 E70.62554
G1 X8.707 Y157.317 E70.6414
G1 X7.945 Y157.013 E70.70689
G1 X7.809 Y156.952 E70.71879
G1 X7.067 Y156.587 E70.78479
G1 X6.916 Y156.505 E70.79851
G1 X6.207 Y156.084 E70.86433
G1 X6.087 Y156.006 E70.87576
G1 X5.415 Y155.531 E70.94145
G1 X5.265 Y155.416 E70.95653
G1 X4.635 Y154.893 E71.02189
G1 X4.517 Y154.787 E71.03456
G1 X3.935 Y154.221 E71.09936
G1 X3.808 Y154.087 E71.1141
G1 X3.264 Y153.467 E71.17994
G1 X3.166 Y153.347 E71.19231
G1 X2.662 Y152.674 E71.25942
G1 X2.58 Y152.554 E71.27102
G1 X2.137 Y151.853 E71.33722
G1 X2.06 Y151.719 E71.34955
G1 X1.672 Y150.984 E71.4159
G1 X1.593 Y150.818 E71.43057
G1 X1.288 Y150.109 E71.49218
G1 X1.21 Y149.908 E71.50939
G1 X0.957 Y149.169 E71.57174
G1 X0.899 Y148.972 E71.58814
G1 X0.699 Y148.189 E71.65265
G1 X0.663 Y148.02 E71.66644
G1 X0.526 Y147.228 E71.7306
G1 X0.502 Y147.045 E71.74533
G1 X0.426 Y146.233 E71.81043
G1 X0.416 Y146.073 E71.82323
G1 X0.4 Y145.475 E71.87098
G1 X0.4 Y74.56 E77.53172
G1 X0.402 Y74.459 E77.53979
G1 X0.435 Y73.627 E77.60625
G1 X0.453 Y73.398 E77.62459
G1 X0.545 Y72.617 E77.68736
G1 X0.568 Y72.465 E77.69964
G1 X0.728 Y71.66 E77.76515
G1 X0.772 Y71.475 E77.78033
G1 X0.984 Y70.72 E77.84293
G1 X1.046 Y70.528 E77.85903
G1 X1.328 Y69.76 E77.92434
G1 X1.384 Y69.623 E77.93616
G1 X1.738 Y68.857 E78.00351
G1 X1.814 Y68.707 E78.01694
G1 X2.202 Y68.013 E78.08041
G1 X2.301 Y67.851 E78.09556
G1 X2.76 Y67.163 E78.16158
G1 X2.848 Y67.041 E78.17359
G1 X3.346 Y66.408 E78.23788
G1 X3.477 Y66.255 E78.25396
G1 X4.014 Y65.673 E78.31717
G1 X4.144 Y65.542 E78.3319
G1 X4.754 Y64.978 E78.39822
G1 X4.874 Y64.876 E78.41079
G1 X5.494 Y64.386 E78.47387
G1 X5.674 Y64.254 E78.49169
G1 X6.338 Y63.809 E78.55549
G1 X6.478 Y63.723 E78.56861
G1 X7.183 Y63.328 E78.63312
G1 X7.354 Y63.24 E78.64847
G1 X8.1 Y62.894 E78.71411
G1 X8.234 Y62.838 E78.7257
G1 X9.023 Y62.547 E78.79283
G1 X9.153 Y62.504 E78.80376
G1 X9.958 Y62.277 E78.87053
G1 X10.13 Y62.235 E78.88466
G1 X10.925 Y62.075 E78.94939
G0 F12000 X11.2 Y62.034
G1 F1800 X11.2 Y157.935 E86.60463
G0 F12000 X12.8 Y158.086
G1 F1800 X12.8 Y61.908 E94.28197
G0 F12000 X14.4 Y61.9
G1 F1800 X14.4 Y158.1 E101.96107
G0 F12000 X16 Y158.1
G1 F1800 X16 Y61.9 E109.64017
G0 F12000 X17.6 Y61.9
G1 F1800 X17.6 Y158.1 E117.31927
G0 F12000 X19.2 Y158.1
G1 F1800 X19.2 Y61.9 E124.99837
G0 F12000 X20.8 Y61.9
G1 F1800 X20.8 Y158.1 E132.67747
G0 F12000 X22.4 Y158.1
G1 F1800 X22.4 Y61.9 E140.35657
G0 F12000 X24 Y61.9
G1 F1800 X24 Y158.1 E148.03567
G0 F12000 X25.6 Y158.1
G1 F1800 X25.6 Y61.9 E155.71477
G0 F12000 X27.2 Y61.9
G1 F1800 X27.2 Y158.1 E163.39387
G0 F12000 X28.8 Y158.1
G1 F1800 X28.8 Y125.941 E165.96094
G0 F12000 X30.4 Y128.513
G1 F1800 X30.4 Y158.1 E168.3227
G0 F12000 X32 Y158.1
G1 F1800 X32 Y129.506 E170.6052
G0 F12000 X33.6 Y129.866
G1 F1800 X33.6 Y158.1 E172.85896
G0 F12000 X35.2 Y158.1
G1 F1800 X35.2 Y129.9 E175.11
G0 F12000 X36.8 Y129.9
G1 F1800 X36.8 Y158.1 E177.36105
G0 F12000 X38.4 Y158.1
G1 F1800 X38.4 Y129.9 E179.6121
G0 F12000 X40 Y129.9
G1 F1800 X40 Y158.1 E181.86314
G0 F12000 X41.6 Y158.1
G1 F1800 X41.6 Y129.9 E184.11419
G0 F12000 X43.2 Y129.9
G1 F1800 X43.2 Y158.1 E186.36523
G0 F12000 X44.8 Y158.1
G1 F1800 X44.8 Y129.9 E188.61628
G0 F12000 X46.4 Y129.9
G1 F1800 X46.4 Y158.1 E190.86733
G0 F12000 X48 Y158.1
G1 F1800 X48 Y129.9 E193.11837
G0 F12000 X49.6 Y129.9
G1 F1800 X49.6 Y158.1 E195.36942
G0 F12000 X51.2 Y158.1
G1 F1800 X51.2 Y129.9 E197.62046
G0 F12000 X52.8 Y129.9
G1 F1800 X52.8 Y158.1 E199.87151
G0 F12000 X54.4 Y158.1
G1 F1800 X54.4 Y129.9 E202.12256
G0 F12000 X56 Y129.9
G1 F1800 X56 Y158.1 E204.3736
G0 F12000 X57.6 Y158.1
G1 F1800 X57.6 Y129.9 E206.62465
G0 F12000 X59.2 Y129.9
G1 F1800 X59.2 Y158.1 E208.87569
G0 F12000 X60.8 Y158.1
G1 F1800 X60.8 Y129.9 E211.12674
G0 F12000 X62.4 Y129.9
G1 F1800 X62.4 Y158.1 E213.37779
G0 F12000 X64 Y158.1
G1 F1800 X64 Y129.9 E215.62883
G0 F12000 X65.6 Y129.9
G1 F1800 X65.6 Y158.1 E217.87988
G0 F12000 X67.2 Y158.1
G1 F1800 X67.2 Y129.9 E220.13092
G0 F12000 X68.8 Y129.9
G1 F1800 X68.8 Y158.1 E222.38197
G0 F12000 X70.4 Y158.1
G1 F1800 X70.4 Y129.9 E224.63302
G0 F12000 X72 Y129.9
G1 F1800 X72 Y158.1 E226.88406
G0 F12000 X73.6 Y158.1
G1 F1800 X73.6 Y129.9 E229.13511
G0 F12000 X75.2 Y129.9
G1 F1800 X75.2 Y158.1 E231.38615
G0 F12000 X76.8 Y158.1
G1 F1800 X76.8 Y129.9 E233.6372
G0 F12000 X78.4 Y129.9
G1 F1800 X78.4 Y158.1 E235.88825
G0 F12000 X80 Y158.1
G1 F1800 X80 Y129.9 E238.13929
G0 F12000 X81.6 Y129.9
G1 F1800 X81.6 Y158.1 E240.39034
G0 F12000 X83.2 Y158.1
G1 F1800 X83.2 Y129.9 E242.64138
G0 F12000 X84.8 Y129.9
G1 F1800 X84.8 Y158.1 E244.89243
G0 F12000 X86.4 Y158.1
G1 F1800 X86.4 Y129.9 E247.14347
G0 F12000 X88 Y129.9
G1 F1800 X88 Y158.1 E249.39452
G0 F12000 X89.6 Y158.1
G1 F1800 X89.6 Y129.9 E251.64557
G0 F12000 X91.2 Y129.9
G1 F1800 X91.2 Y158.1 E253.89661
G0 F12000 X92.8 Y158.1
G1 F1800 X92.8 Y129.9 E256.14766
G0 F12000 X94.4 Y129.9
G1 F1800 X94.4 Y158.1 E258.3987
G0 F12000 X96 Y158.1
G1 F1800 X96 Y129.9 E260.64975
G0 F12000 X97.6 Y129.9
G1 F1800 X97.6 Y158.1 E262.9008
G0 F12000 X99.2 Y158.1
G1 F1800 X99.2 Y129.9 E265.15184
G0 F12000 X100.8 Y129.9
G1 F1800 X100.8 Y158.1 E267.40289
G0 F12000 X102.4 Y158.1
G1 F1800 X102.4 Y129.9 E269.65393
G0 F12000 X104 Y129.9
G1 F1800 X104 Y158.1 E271.90498
G0 F12000 X105.6 Y158.1
G1 F1800 X105.6 Y129.9 E274.15603
G0 F12000 X107.2 Y129.9
G1 F1800 X107.2 Y158.1 E276.40707
G0 F12000 X108.8 Y158.1
G1 F1800 X108.8 Y129.9 E278.65812
G0 F12000 X110.4 Y129.9
G1 F1800 X110.4 Y158.1 E280.90916
G0 F12000 X112 Y158.1
G1 F1800 X112 Y129.9 E283.16021
G0 F12000 X113.6 Y129.9
G1 F1800 X113.6 Y158.1 E285.41126
G0 F12000 X115.2 Y158.1
G1 F1800 X115.2 Y129.9 E287.6623
G0 F12000 X116.8 Y129.9
G1 F1800 X116.8 Y158.1 E289.91335
G0 F12000 X118.4 Y158.1
G1 F1800 X118.4 Y129.9 E292.16439
G0 F12000 X120 Y129.9
G1 F1800 X120 Y158.1 E294.41544
G0 F12000 X121.6 Y158.1
G1 F1800 X121.6 Y129.9 E296.66649
G0 F12000 X123.2 Y129.9
G1 F1800 X123.2 Y158.1 E298.91753
G0 F12000 X124.8 Y158.1
G1 F1800 X124.8 Y129.9 E301.16858
G0 F12000 X126.4 Y129.9
G1 F1800 X126.4 Y158.1 E303.41962
G0 F12000 X128 Y158.1
G1 F1800 X128 Y129.9 E305.67067
G0 F12000 X129.6 Y129.9
G1 F1800 X129.6 Y158.1 E307.92172
G0 F12000 X131.2 Y158.1
G1 F1800 X131.2 Y129.9 E310.17276
G0 F12000 X132.8 Y129.9
G1 F1800 X132.8 Y158.1 E312.42381
G0 F12000 X134.4 Y158.1
G1 F1800 X134.4 Y129.9 E314.67485
