;FLAVOR:Marlin
;TIME:20829
;Filament used: 22.7124m
;Layer height: 0.2
;MINX:1.335
;MINY:62.835
;MINZ:0.24
;MAXX:218.477
;MAXY:157.165
;MAXZ:38.09
;Generated with Cura_SteamEngine 4.6.0
M140 S50
M105
M190 S50
M104 S200
M105
M109 S200
M82 ;absolute extrusion mode
M201 X500.00 Y500.00 Z100.00 E5000.00 ;Setup machine max acceleration
M203 X500.00 Y500.00 Z10.00 E50.00 ;Setup machine max feedrate
M204 P500.00 R1000.00 T500.00 ;Setup Print/Retract/Travel acceleration
M205 X8.00 Y8.00 Z0.40 E5.00 ;Setup Jerk
M220 S100 ;Reset Feedrate
M221 S100 ;Reset Flowrate

G28 ;Home

G92 E0 ;Reset Extruder
G1 Z2.0 F3000 ;Move Z Axis up
G1 X10.1 Y20 Z0.28 F5000.0 ;Move to start position
G1 X10.1 Y200.0 Z0.28 F1500.0 E15 ;Draw the first line
G1 X10.4 Y200.0 Z0.28 F5000.0 ;Move to side a little
G1 X10.4 Y20 Z0.28 F1500.0 E30 ;Draw the second line
G92 E0 ;Reset Extruder
G1 Z2.0 F3000 ;Move Z Axis up

G92 E0
G92 E0
G1 F2700 E-5
;LAYER_COUNT:185
;LAYER:-6
M107
G0 F12000 X14.278 Y64.158 Z0.24
;TYPE:SUPPORT-INTERFACE
G1 F2700 E0
G1 F1800 X14.408 Y64.135 E0.01054
G1 X15.313 Y64.001 E0.08357
G1 X15.482 Y63.983 E0.09713
G1 X16.555 Y63.908 E0.18299
G1 X17.06 Y63.9 E0.22331
G1 X202.968 Y63.9 E15.06329
G1 X203.003 Y63.901 E15.06609
G1 X204.127 Y63.946 E15.15588
G1 X205.044 Y64.048 E15.22953
G1 X205.219 Y64.073 E15.24364
G1 X206.108 Y64.237 E15.3158
G1 X206.231 Y64.265 E15.32587
G1 X207.125 Y64.499 E15.39964
G1 X207.288 Y64.548 E15.41323
G1 X208.13 Y64.835 E15.48424
G1 X208.13 Y64.834 E15.48432
G1 X208.296 Y64.898 E15.49852
G1 X209.099 Y65.239 E15.56816
G1 X209.288 Y65.327 E15.5848
G1 X210.082 Y65.736 E15.65609
G1 X210.082 Y65.735 E15.65617
G1 X210.199 Y65.801 E15.6669
G1 X210.199 Y65.802 E15.66698
G1 X210.978 Y66.276 E15.73977
G1 X211.129 Y66.376 E15.75422
G1 X211.843 Y66.887 E15.82431
G1 X211.991 Y67 E15.83917
G1 X212.682 Y67.576 E15.91098
G1 X212.795 Y67.677 E15.92308
G1 X213.444 Y68.302 E15.995
G1 X213.564 Y68.427 E16.00883
G1 X214.167 Y69.098 E16.08085
G1 X214.263 Y69.214 E16.09287
G1 X214.822 Y69.938 E16.16588
G1 X214.916 Y70.069 E16.17875
G1 X215.416 Y70.823 E16.25097
G1 X215.492 Y70.949 E16.26272
G1 X215.938 Y71.743 E16.33541
G1 X216.016 Y71.893 E16.34891
G1 X216.399 Y72.708 E16.42079
G1 X216.459 Y72.851 E16.43317
G1 X216.788 Y73.71 E16.50659
G1 X216.84 Y73.86 E16.51927
G1 X217.095 Y74.71 E16.59011
G1 X217.141 Y74.883 E16.60439
G1 X217.142 Y74.883 E16.60447
G1 X217.34 Y75.769 E16.67694
G1 X217.365 Y75.908 E16.68822
G1 X217.498 Y76.807 E16.76076
G1 X217.516 Y76.969 E16.77377
G1 X217.592 Y78.055 E16.86067
G1 X217.6 Y78.556 E16.90067
G1 X217.6 Y141.486 E21.92401
G1 X217.564 Y142.492 E22.00437
G1 X217.554 Y142.627 E22.01518
G1 X217.452 Y143.544 E22.08883
G1 X217.427 Y143.719 E22.10294
G1 X217.265 Y144.597 E22.17421
G1 X217.235 Y144.731 E22.18517
G1 X217.004 Y145.616 E22.25818
G1 X216.952 Y145.788 E22.27252
G1 X216.676 Y146.6 E22.34098
G1 X216.596 Y146.809 E22.35884
G1 X216.261 Y147.599 E22.42734
G1 X216.18 Y147.774 E22.44273
G1 X215.764 Y148.582 E22.51528
G1 X215.698 Y148.699 E22.526
G1 X215.224 Y149.478 E22.59879
G1 X215.124 Y149.629 E22.61325
G1 X214.613 Y150.343 E22.68334
G1 X214.5 Y150.491 E22.6982
G1 X213.924 Y151.182 E22.77001
G1 X213.823 Y151.295 E22.78211
G1 X213.198 Y151.944 E22.85403
G1 X213.073 Y152.064 E22.86786
G1 X212.403 Y152.666 E22.93976
G1 X212.286 Y152.763 E22.95189
G1 X211.574 Y153.313 E23.02371
G1 X211.415 Y153.426 E23.03928
G1 X210.677 Y153.916 E23.10999
G1 X210.551 Y153.992 E23.12174
G1 X209.757 Y154.438 E23.19443
G1 X209.606 Y154.516 E23.208
G1 X208.792 Y154.899 E23.27981
G1 X208.649 Y154.959 E23.29219
G1 X207.79 Y155.288 E23.36562
G1 X207.64 Y155.34 E23.37829
G1 X206.79 Y155.595 E23.44913
G1 X206.617 Y155.641 E23.46342
G1 X206.617 Y155.642 E23.4635
G1 X205.722 Y155.842 E23.5367
G1 X205.592 Y155.865 E23.54724
G1 X204.687 Y155.999 E23.62027
G1 X204.519 Y156.017 E23.63376
G1 X203.445 Y156.092 E23.7197
G1 X202.94 Y156.1 E23.76001
G1 X17.032 Y156.1 E38.59999
G1 X16.997 Y156.099 E38.60279
G1 X15.873 Y156.054 E38.69258
G1 X14.956 Y155.952 E38.76623
G1 X14.781 Y155.927 E38.78034
G1 X13.892 Y155.763 E38.8525
G1 X13.769 Y155.735 E38.86257
G1 X12.875 Y155.501 E38.93634
G1 X12.712 Y155.452 E38.94993
G1 X11.87 Y155.165 E39.02094
G1 X11.87 Y155.166 E39.02102
G1 X11.704 Y155.102 E39.03522
G1 X10.901 Y154.761 E39.10486
G1 X10.712 Y154.673 E39.1215
G1 X9.918 Y154.264 E39.19279
G1 X9.918 Y154.265 E39.19287
G1 X9.801 Y154.199 E39.2036
G1 X9.801 Y154.198 E39.20368
G1 X9.022 Y153.724 E39.27647
G1 X8.871 Y153.624 E39.29092
G1 X8.157 Y153.113 E39.36101
G1 X8.009 Y153 E39.37588
G1 X7.318 Y152.424 E39.44768
G1 X7.205 Y152.323 E39.45978
G1 X6.556 Y151.698 E39.53171
G1 X6.436 Y151.573 E39.54554
G1 X5.833 Y150.902 E39.61755
G1 X5.736 Y150.784 E39.62974
G1 X5.178 Y150.062 E39.70258
G1 X5.074 Y149.915 E39.71696
G1 X4.581 Y149.172 E39.78813
G1 X4.508 Y149.051 E39.79941
G1 X4.056 Y148.246 E39.87311
G1 X3.984 Y148.107 E39.8856
G1 X3.587 Y147.261 E39.9602
G1 X3.541 Y147.149 E39.96987
G1 X3.212 Y146.29 E40.04329
G1 X3.155 Y146.125 E40.05723
G1 X2.905 Y145.29 E40.12681
G1 X2.859 Y145.117 E40.14109
G1 X2.858 Y145.117 E40.14117
G1 X2.657 Y144.216 E40.21486
G1 X2.635 Y144.092 E40.22492
G1 X2.5 Y143.178 E40.29867
G1 X2.483 Y143.018 E40.31151
G1 X2.408 Y141.945 E40.39737
G1 X2.4 Y141.444 E40.43737
G1 X2.4 Y78.514 E45.46071
G1 X2.436 Y77.508 E45.54107
G1 X2.446 Y77.373 E45.55187
G1 X2.548 Y76.456 E45.62552
G1 X2.573 Y76.281 E45.63964
G1 X2.735 Y75.403 E45.7109
G1 X2.765 Y75.269 E45.72187
G1 X2.996 Y74.384 E45.79488
G1 X3.048 Y74.212 E45.80922
G1 X3.335 Y73.37 E45.88023
G1 X3.334 Y73.37 E45.88031
G1 X3.398 Y73.204 E45.89451
G1 X3.739 Y72.401 E45.96415
G1 X3.82 Y72.226 E45.97954
G1 X4.236 Y71.418 E46.05209
G1 X4.235 Y71.418 E46.05217
G1 X4.301 Y71.301 E46.06289
G1 X4.302 Y71.301 E46.06297
G1 X4.776 Y70.522 E46.13576
G1 X4.876 Y70.371 E46.15022
G1 X5.387 Y69.657 E46.2203
G1 X5.5 Y69.509 E46.23517
G1 X6.076 Y68.818 E46.30698
G1 X6.177 Y68.705 E46.31908
G1 X6.802 Y68.056 E46.391
G1 X6.927 Y67.936 E46.40483
G1 X7.598 Y67.333 E46.47684
G1 X7.714 Y67.237 E46.48886
G1 X8.426 Y66.687 E46.56068
G1 X8.585 Y66.574 E46.57625
G1 X9.323 Y66.084 E46.64696
G1 X9.449 Y66.008 E46.65871
G1 X10.243 Y65.562 E46.7314
G1 X10.393 Y65.484 E46.7449
G1 X11.208 Y65.101 E46.81678
G1 X11.351 Y65.041 E46.82916
G1 X12.21 Y64.712 E46.90259
G1 X12.36 Y64.66 E46.91526
G1 X13.21 Y64.405 E46.9861
G1 X13.383 Y64.359 E47.00039
G1 X13.383 Y64.358 E47.00047
G1 X14.278 Y64.158 E47.07367
G0 F12000 X14.4 Y64.136
G1 F1800 X14.4 Y155.856 E54.39516
G0 F12000 X16 Y156.059
G1 F1800 X16 Y63.946 E61.74802
G0 F12000 X17.6 Y63.9
G1 F1800 X17.6 Y156.1 E69.10782
G0 F12000 X19.2 Y156.1
G1 F1800 X19.2 Y63.9 E76.46762
G0 F12000 X20.8 Y63.9
G1 F1800 X20.8 Y156.1 E83.82743
G0 F12000 X22.4 Y156.1
G1 F1800 X22.4 Y63.9 E91.18723
G0 F12000 X24 Y63.9
G1 F1800 X24 Y156.1 E98.54703
G0 F12000 X25.6 Y156.1
G1 F1800 X25.6 Y63.9 E105.90683
G0 F12000 X27.2 Y63.9
G1 F1800 X27.2 Y156.1 E113.26664
G0 F12000 X28.8 Y156.1
G1 F1800 X28.8 Y63.9 E120.62644
G0 F12000 X30.4 Y63.9
G1 F1800 X30.4 Y156.1 E127.98624
G0 F12000 X32 Y156.1
G1 F1800 X32 Y63.9 E135.34604
G0 F12000 X33.6 Y63.9
G1 F1800 X33.6 Y156.1 E142.70585
G0 F12000 X35.2 Y156.1
G1 F1800 X35.2 Y63.9 E150.06565
G0 F12000 X36.8 Y63.9
G1 F1800 X36.8 Y156.1 E157.42545
G0 F12000 X38.4 Y156.1
G1 F1800 X38.4 Y63.9 E164.78525
G0 F12000 X40 Y63.9
G1 F1800 X40 Y156.1 E172.14506
G0 F12000 X41.6 Y156.1
G1 F1800 X41.6 Y63.9 E179.50486
G0 F12000 X43.2 Y63.9
G1 F1800 X43.2 Y156.1 E186.86466
G0 F12000 X44.8 Y156.1
G1 F1800 X44.8 Y63.9 E194.22447
G0 F12000 X46.4 Y63.9
G1 F1800 X46.4 Y156.1 E201.58427
G0 F12000 X48 Y156.1
G1 F1800 X48 Y63.9 E208.94407
G0 F12000 X49.6 Y63.9
G1 F1800 X49.6 Y156.1 E216.30387
G0 F12000 X51.2 Y156.1
G1 F1800 X51.2 Y63.9 E223.66368
G0 F12000 X52.8 Y63.9
G1 F1800 X52.8 Y156.1 E231.02348
G0 F12000 X54.4 Y156.1
G1 F1800 X54.4 Y63.9 E238.38328
G0 F12000 X56 Y63.9
G1 F1800 X56 Y156.1 E245.74308
G0 F12000 X57.6 Y156.1
G1 F1800 X57.6 Y63.9 E253.10289
G0 F12000 X59.2 Y63.9
G1 F1800 X59.2 Y156.1 E260.46269
G0 F12000 X60.8 Y156.1
G1 F1800 X60.8 Y63.9 E267.82249
G0 F12000 X62.4 Y63.9
G1 F1800 X62.4 Y156.1 E275.18229
G0 F12000 X64 Y156.1
G1 F1800 X64 Y63.9 E282.5421
G0 F12000 X65.6 Y63.9
G1 F1800 X65.6 Y156.1 E289.9019
G0 F12000 X67.2 Y156.1
G1 F1800 X67.2 Y63.9 E297.2617
G0 F12000 X68.8 Y63.9
G1 F1800 X68.8 Y156.1 E304.62151
G0 F12000 X70.4 Y156.1
G1 F1800 X70.4 Y63.9 E311.98131
G0 F12000 X72 Y63.9
G1 F1800 X72 Y156.1 E319.34111
G0 F12000 X73.6 Y156.1
G1 F1800 X73.6 Y63.9 E326.70091
G0 F12000 X75.2 Y63.9
G1 F1800 X75.2 Y156.1 E334.06072
G0 F12000 X76.8 Y156.1
G1 F1800 X76.8 Y63.9 E341.42052
G0 F12000 X78.4 Y63.9
G1 F1800 X78.4 Y156.1 E348.78032
G0 F12000 X80 Y156.1
G1 F1800 X80 Y63.9 E356.14012
G0 F12000 X81.6 Y63.9
G1 F1800 X81.6 Y156.1 E363.49993
G0 F12000 X83.2 Y156.1
G1 F1800 X83.2 Y63.9 E370.85973
G0 F12000 X84.8 Y63.9
G1 F1800 X84.8 Y156.1 E378.21953
G0 F12000 X86.4 Y156.1
G1 F1800 X86.4 Y63.9 E385.57934
G0 F12000 X88 Y63.9
G1 F1800 X88 Y156.1 E392.93914
G0 F12000 X89.6 Y156.1
G1 F1800 X89.6 Y63.9 E400.29894
G0 F12000 X91.2 Y63.9
G1 F1800 X91.2 Y156.1 E407.65874
G0 F12000 X92.8 Y156.1
G1 F1800 X92.8 Y63.9 E415.01855
G0 F12000 X94.4 Y63.9
G1 F1800 X94.4 Y156.1 E422.37835
G0 F12000 X96 Y156.1
G1 F1800 X96 Y63.9 E429.73815
G0 F12000 X97.6 Y63.9
G1 F1800 X97.6 Y156.1 E437.09795
G0 F12000 X99.2 Y156.1
G1 F1800 X99.2 Y63.9 E444.45776
G0 F12000 X100.8 Y63.9
G1 F1800 X100.8 Y156.1 E451.81756
G0 F12000 X102.4 Y156.1
G1 F1800 X102.4 Y63.9 E459.17736
G0 F12000 X104 Y63.9
G1 F1800 X104 Y156.1 E466.53716
G0 F12000 X105.6 Y156.1
G1 F1800 X105.6 Y63.9 E473.89697
G0 F12000 X107.2 Y63.9
G1 F1800 X107.2 Y156.1 E481.25677
G0 F12000 X108.8 Y156.1
G1 F1800 X108.8 Y63.9 E488.61657
G0 F12000 X110.4 Y63.9
G1 F1800 X110.4 Y156.1 E495.97638
G0 F12000 X112 Y156.1
G1 F1800 X112 Y63.9 E503.33618
G0 F12000 X113.6 Y63.9
G1 F1800 X113.6 Y156.1 E510.69598
G0 F12000 X115.2 Y156.1
G1 F1800 X115.2 Y63.9 E518.05578
G0 F12000 X116.8 Y63.9
G1 F1800 X116.8 Y156.1 E525.41559
G0 F12000 X118.4 Y156.1
G1 F1800 X118.4 Y63.9 E532.77539
G0 F12000 X120 Y63.9
G1 F1800 X120 Y156.1 E540.13519
G0 F12000 X121.6 Y156.1
G1 F1800 X121.6 Y63.9 E547.49499
G0 F12000 X123.2 Y63.9
G1 F1800 X123.2 Y156.1 E554.8548
G0 F12000 X124.8 Y156.1
G1 F1800 X124.8 Y63.9 E562.2146
G0 F12000 X126.4 Y63.9
G1 F1800 X126.4 Y156.1 E569.5744
G0 F12000 X128 Y156.1
G1 F1800 X128 Y63.9 E576.9342
G0 F12000 X129.6 Y63.9
G1 F1800 X129.6 Y156.1 E584.29401
G0 F12000 X131.2 Y156.1
G1 F1800 X131.2 Y63.9 E591.65381
G0 F12000 X132.8 Y63.9
G1 F1800 X132.8 Y156.1 E599.01361
G0 F12000 X134.4 Y156.1
G1 F1800 X134.4 Y63.9 E606.37342
G0 F12000 X136 Y63.9
G1 F1800 X136 Y156.1 E613.73322
G0 F12000 X137.6 Y156.1
G1 F1800 X137.6 Y63.9 E621.09302
G0 F12000 X139.2 Y63.9
G1 F1800 X139.2 Y156.1 E628.45282
G0 F12000 X140.8 Y156.1
G1 F1800 X140.8 Y63.9 E635.81263
G0 F12000 X142.4 Y63.9
G1 F1800 X142.4 Y156.1 E643.17243
G0 F12000 X144 Y156.1
G1 F1800 X144 Y63.9 E650.53223
G0 F12000 X145.6 Y63.9
G1 F1800 X145.6 Y156.1 E657.89203
G0 F12000 X147.2 Y156.1
G1 F1800 X147.2 Y63.9 E665.25184
G0 F12000 X148.8 Y63.9
G1 F1800 X148.8 Y156.1 E672.61164
G0 F12000 X150.4 Y156.1
G1 F1800 X150.4 Y63.9 E679.97144
G0 F12000 X152 Y63.9
G1 F1800 X152 Y156.1 E687.33125
G0 F12000 X153.6 Y156.1
G1 F1800 X153.6 Y63.9 E694.69105
G0 F12000 X155.2 Y63.9
G1 F1800 X155.2 Y156.1 E702.05085
G0 F12000 X156.8 Y156.1
G1 F1800 X156.8 Y63.9 E709.41065
G0 F12000 X158.4 Y63.9
G1 F1800 X158.4 Y156.1 E716.77046
G0 F12000 X160 Y156.1
G1 F1800 X160 Y63.9 E724.13026
G0 F12000 X161.6 Y63.9
G1 F1800 X161.6 Y156.1 E731.49006
G0 F12000 X163.2 Y156.1
G1 F1800 X163.2 Y63.9 E738.84986
G0 F12000 X164.8 Y63.9
G1 F1800 X164.8 Y156.1 E746.20967
G0 F12000 X166.4 Y156.1
G1 F1800 X166.4 Y63.9 E753.56947
G0 F12000 X168 Y63.9
G1 F1800 X168 Y156.1 E760.92927
G0 F12000 X169.6 Y156.1
G1 F1800 X169.6 Y63.9 E768.28907
G0 F12000 X171.2 Y63.9
G1 F1800 X171.2 Y156.1 E775.64888
G0 F12000 X172.8 Y156.1
G1 F1800 X172.8 Y63.9 E783.00868
G0 F12000 X174.4 Y63.9
G1 F1800 X174.4 Y156.1 E790.36848
G0 F12000 X176 Y156.1
G1 F1800 X176 Y63.9 E797.72829
G0 F12000 X177.6 Y63.9
G1 F1800 X177.6 Y156.1 E805.08809
G0 F12000 X179.2 Y156.1
G1 F1800 X179.2 Y63.9 E812.44789
G0 F12000 X180.8 Y63.9
G1 F1800 X180.8 Y156.1 E819.80769
G0 F12000 X182.4 Y156.1
G1 F1800 X182.4 Y63.9 E827.1675
G0 F12000 X184 Y63.9
G1 F1800 X184 Y156.1 E834.5273
G0 F12000 X185.6 Y156.1
G1 F1800 X185.6 Y63.9 E841.8871
G0 F12000 X187.2 Y63.9
G1 F1800 X187.2 Y156.1 E849.2469
G0 F12000 X188.8 Y156.1
G1 F1800 X188.8 Y63.9 E856.60671
G0 F12000 X190.4 Y63.9
G1 F1800 X190.4 Y156.1 E863.96651
G0 F12000 X192 Y156.1
G1 F1800 X192 Y63.9 E871.32631
G0 F12000 X193.6 Y63.9
G1 F1800 X193.6 Y156.1 E878.68611
G0 F12000 X195.2 Y156.1
G1 F1800 X195.2 Y63.9 E886.04592
G0 F12000 X196.8 Y63.9
G1 F1800 X196.8 Y156.1 E893.40572
G0 F12000 X198.4 Y156.1
G1 F1800 X198.4 Y63.9 E900.76552
G0 F12000 X200 Y63.9
G1 F1800 X200 Y156.1 E908.12533
G0 F12000 X201.6 Y156.1
G1 F1800 X201.6 Y63.9 E915.48513
G0 F12000 X203.2 Y63.909
G1 F1800 X203.2 Y156.096 E922.84389
G0 F12000 X204.8 Y155.983
G1 F1800 X204.8 Y64.021 E930.1847
G0 F12000 X206.4 Y64.31
G1 F1800 X206.4 Y155.691 E937.47912
G0 F12000 X208 Y155.208
G1 F1800 X208 Y64.791 E944.6966
G0 F12000 X209.6 Y65.488
G1 F1800 X209.6 Y154.519 E951.80344
G0 F12000 X211.2 Y153.569
G1 F1800 X211.2 Y66.427 E958.75949
G0 F12000 X212.8 Y67.682
G1 F1800 X212.8 Y152.31 E965.51486
G0 F12000 X214.4 Y150.611
G1 F1800 X214.4 Y69.392 E971.99812
G0 F12000 X216 Y71.863
G1 F1800 X216 Y148.124 E978.0856
G1 F2700 E973.0856
G0 F12000 X216.947 Y148.61
G0 X215.996 Y150.239
G0 X214.725 Y151.883
G0 X213.802 Y152.84
G0 X212.201 Y154.173
G0 X211.082 Y154.915
G0 X209.217 Y155.875
G0 X207.958 Y156.356
G0 X205.934 Y156.885
G0 X204.621 Y157.076
G0 X202.947 Y157.165
G0 X15.943 Y157.126
G0 X14.617 Y156.979
G0 X12.59 Y156.527
G0 X12.8 Y155.478
G1 F2700 E978.0856
G1 F1800 X12.8 Y64.528 E985.34562
G0 F12000 X11.2 Y65.104
G1 F1800 X11.2 Y154.887 E992.51249
G0 F12000 X9.6 Y154.075
G1 F1800 X9.6 Y65.923 E999.54916
G0 F12000 X8 Y67.016
G1 F1800 X8 Y152.992 E1006.41214
G0 F12000 X6.4 Y151.532
G1 F1800 X6.4 Y68.473 E1013.04227
G0 F12000 X4.8 Y70.485
G1 F1800 X4.8 Y149.502 E1019.34975
G0 F12000 X3.2 Y146.255
G1 F1800 X3.2 Y73.766 E1025.13613
G0 F300 X3.2 Y73.766 Z0.54
G0 F12000 X3.334 Y73.369
;TIME_ELAPSED:453.254265
;LAYER:-5
M140 S50
;TYPE:SUPPORT
G1 F1800 X3.162 Y73.873 E1025.18927
G1 X85.388 Y156.098 E1036.79217
G1 X83.973 Y156.098 E1036.93336
G1 X2.842 Y74.967 E1048.38182
G1 X2.764 Y75.268 E1048.41285
G1 X2.734 Y75.402 E1048.42655
G1 X2.598 Y76.137 E1048.50113
G1 X82.559 Y156.098 E1059.7845
G1 X81.145 Y156.098 E1059.92558
G1 X2.443 Y77.397 E1071.03122
G1 X2.435 Y77.506 E1071.04212
G1 X2.399 Y78.512 E1071.14257
G1 X2.399 Y78.767 E1071.16801
G1 X79.731 Y156.098 E1082.08032
G1 X78.317 Y156.098 E1082.22141
G1 X2.399 Y80.181 E1092.93419
G1 X2.399 Y81.595 E1093.07528
G1 X76.902 Y156.098 E1103.58846
G1 X75.488 Y156.098 E1103.72955
G1 X2.399 Y83.01 E1114.04312
G1 X2.399 Y84.424 E1114.18421
G1 X74.074 Y156.098 E1124.29826
G1 X72.66 Y156.098 E1124.43935
G1 X2.399 Y85.838 E1134.35386
G1 X2.399 Y87.252 E1134.49495
G1 X71.245 Y156.098 E1144.20987
G1 X69.831 Y156.098 E1144.35096
G1 X2.399 Y88.666 E1153.86634
G1 X2.399 Y90.081 E1154.00753
G1 X68.417 Y156.098 E1163.32331
G1 X67.003 Y156.098 E1163.4644
G1 X2.399 Y91.495 E1172.58065
G1 X2.399 Y92.909 E1172.72174
G1 X65.589 Y156.098 E1181.63846
G1 X64.174 Y156.098 E1181.77965
G1 X2.399 Y94.323 E1190.49677
G1 X2.399 Y95.738 E1190.63796
G1 X62.76 Y156.098 E1199.15548
G1 X61.346 Y156.098 E1199.29657
G1 X2.399 Y97.152 E1207.61456
G1 X2.399 Y98.566 E1207.75565
G1 X59.932 Y156.098 E1215.8741
G1 X58.518 Y156.098 E1216.01519
G1 X2.399 Y99.98 E1223.93412
G1 X2.399 Y101.394 E1224.07521
G1 X57.103 Y156.098 E1231.79454
G1 X55.689 Y156.098 E1231.93562
G1 X2.399 Y102.809 E1239.45535
G1 X2.399 Y104.223 E1239.59644
G1 X54.275 Y156.098 E1246.91663
G1 X52.861 Y156.098 E1247.05772
G1 X2.399 Y105.637 E1254.17838
G1 X2.399 Y107.051 E1254.31947
G1 X51.446 Y156.098 E1261.24053
