;FLAVOR:Marlin
;TIME:22122
;Filament used: 23.6248m
;Layer height: 0.2
;MINX:0.335
;MINY:61.844
;MINZ:0.24
;MAXX:219.665
;MAXY:158.165
;MAXZ:38.09
;Generated with Cura_SteamEngine 4.6.0
M140 S50
M105
M190 S50
M104 S200
M105
M109 S200
M82 ;absolute extrusion mode
M201 X500.00 Y500.00 Z100.00 E5000.00 ;Setup machine max acceleration
M203 X500.00 Y500.00 Z10.00 E50.00 ;Setup machine max feedrate
M204 P500.00 R1000.00 T500.00 ;Setup Print/Retract/Travel acceleration
M205 X8.00 Y8.00 Z0.40 E5.00 ;Setup Jerk
M220 S100 ;Reset Feedrate
M221 S100 ;Reset Flowrate

G28 ;Home

G92 E0 ;Reset Extruder
G1 Z2.0 F3000 ;Move Z Axis up
G1 X10.1 Y20 Z0.28 F5000.0 ;Move to start position
G1 X10.1 Y200.0 Z0.28 F1500.0 E15 ;Draw the first line
G1 X10.4 Y200.0 Z0.28 F5000.0 ;Move to side a little
G1 X10.4 Y20 Z0.28 F1500.0 E30 ;Draw the second line
G92 E0 ;Reset Extruder
G1 Z2.0 F3000 ;Move Z Axis up

G92 E0
G92 E0
G1 F2700 E-5
;LAYER_COUNT:185
;LAYER:-6
M107
G0 F12000 X13.278 Y63.158 Z0.24
;TYPE:SUPPORT-INTERFACE
G1 F2700 E0
G1 F1800 X13.408 Y63.135 E0.01054
G1 X14.313 Y63.001 E0.08357
G1 X14.482 Y62.983 E0.09713
G1 X15.555 Y62.908 E0.18299
G1 X16.06 Y62.9 E0.22331
G1 X203.968 Y62.9 E15.22294
G1 X204.003 Y62.901 E15.22573
G1 X205.127 Y62.946 E15.31553
G1 X206.044 Y63.048 E15.38918
G1 X206.219 Y63.073 E15.40329
G1 X207.108 Y63.237 E15.47545
G1 X207.231 Y63.265 E15.48552
G1 X208.125 Y63.499 E15.55929
G1 X208.288 Y63.548 E15.57287
G1 X209.13 Y63.835 E15.64388
G1 X209.13 Y63.834 E15.64396
G1 X209.296 Y63.898 E15.65817
G1 X210.099 Y64.239 E15.7278
G1 X210.288 Y64.327 E15.74445
G1 X211.082 Y64.736 E15.81574
G1 X211.082 Y64.735 E15.81582
G1 X211.199 Y64.801 E15.82654
G1 X211.199 Y64.802 E15.82662
G1 X211.978 Y65.276 E15.89941
G1 X212.129 Y65.376 E15.91387
G1 X212.843 Y65.887 E15.98396
G1 X212.991 Y66 E15.99882
G1 X213.682 Y66.576 E16.07063
G1 X213.795 Y66.677 E16.08273
G1 X214.444 Y67.302 E16.15465
G1 X214.564 Y67.427 E16.16848
G1 X215.167 Y68.098 E16.2405
G1 X215.263 Y68.214 E16.25252
G1 X215.822 Y68.938 E16.32553
G1 X215.916 Y69.069 E16.3384
G1 X216.416 Y69.823 E16.41062
G1 X216.492 Y69.949 E16.42236
G1 X216.938 Y70.743 E16.49506
G1 X217.016 Y70.893 E16.50856
G1 X217.399 Y71.708 E16.58044
G1 X217.459 Y71.851 E16.59282
G1 X217.788 Y72.71 E16.66624
G1 X217.84 Y72.86 E16.67892
G1 X218.095 Y73.71 E16.74975
G1 X218.141 Y73.883 E16.76404
G1 X218.142 Y73.883 E16.76412
G1 X218.34 Y74.769 E16.83659
G1 X218.365 Y74.908 E16.84787
G1 X218.498 Y75.807 E16.92041
G1 X218.516 Y75.969 E16.93342
G1 X218.592 Y77.055 E17.02032
G1 X218.6 Y77.556 E17.06032
G1 X218.6 Y142.486 E22.24331
G1 X218.564 Y143.492 E22.32367
G1 X218.554 Y143.627 E22.33447
G1 X218.452 Y144.544 E22.40812
G1 X218.427 Y144.719 E22.42223
G1 X218.265 Y145.597 E22.4935
G1 X218.235 Y145.731 E22.50446
G1 X218.004 Y146.616 E22.57748
G1 X217.952 Y146.788 E22.59182
G1 X217.676 Y147.6 E22.66028
G1 X217.596 Y147.809 E22.67814
G1 X217.261 Y148.599 E22.74664
G1 X217.18 Y148.774 E22.76203
G1 X216.764 Y149.582 E22.83458
G1 X216.698 Y149.699 E22.8453
G1 X216.224 Y150.478 E22.91809
G1 X216.124 Y150.629 E22.93255
G1 X215.613 Y151.343 E23.00263
G1 X215.5 Y151.491 E23.0175
G1 X214.924 Y152.182 E23.08931
G1 X214.823 Y152.295 E23.1014
G1 X214.198 Y152.944 E23.17333
G1 X214.073 Y153.064 E23.18716
G1 X213.403 Y153.666 E23.25906
G1 X213.286 Y153.763 E23.27119
G1 X212.574 Y154.313 E23.34301
G1 X212.415 Y154.426 E23.35858
G1 X211.677 Y154.916 E23.42929
G1 X211.551 Y154.992 E23.44104
G1 X210.757 Y155.438 E23.51373
G1 X210.606 Y155.516 E23.5273
G1 X209.792 Y155.899 E23.59911
G1 X209.649 Y155.959 E23.61149
G1 X208.79 Y156.288 E23.68491
G1 X208.64 Y156.34 E23.69759
G1 X207.79 Y156.595 E23.76842
G1 X207.617 Y156.641 E23.78271
G1 X207.617 Y156.642 E23.78279
G1 X206.722 Y156.842 E23.856
G1 X206.592 Y156.865 E23.86654
G1 X205.687 Y156.999 E23.93957
G1 X205.519 Y157.017 E23.95305
G1 X204.445 Y157.092 E24.03899
G1 X203.94 Y157.1 E24.07931
G1 X16.032 Y157.1 E39.07894
G1 X15.997 Y157.099 E39.08173
G1 X14.873 Y157.054 E39.17153
G1 X13.956 Y156.952 E39.24518
G1 X13.781 Y156.927 E39.25929
G1 X12.892 Y156.763 E39.33145
G1 X12.769 Y156.735 E39.34152
G1 X11.875 Y156.501 E39.41529
G1 X11.712 Y156.452 E39.42887
G1 X10.87 Y156.165 E39.49988
G1 X10.87 Y156.166 E39.49996
G1 X10.704 Y156.102 E39.51416
G1 X9.901 Y155.761 E39.5838
G1 X9.712 Y155.673 E39.60045
G1 X8.918 Y155.264 E39.67174
G1 X8.918 Y155.265 E39.67182
G1 X8.801 Y155.199 E39.68254
G1 X8.801 Y155.198 E39.68262
G1 X8.022 Y154.724 E39.75541
G1 X7.871 Y154.624 E39.76987
G1 X7.157 Y154.113 E39.83996
G1 X7.009 Y154 E39.85482
G1 X6.318 Y153.424 E39.92663
G1 X6.205 Y153.323 E39.93873
G1 X5.556 Y152.698 E40.01065
G1 X5.436 Y152.573 E40.02448
G1 X4.833 Y151.902 E40.0965
G1 X4.736 Y151.784 E40.10869
G1 X4.178 Y151.062 E40.18153
G1 X4.074 Y150.915 E40.1959
G1 X3.581 Y150.172 E40.26708
G1 X3.508 Y150.051 E40.27836
G1 X3.056 Y149.246 E40.35206
G1 X2.984 Y149.107 E40.36455
G1 X2.587 Y148.261 E40.43915
G1 X2.541 Y148.149 E40.44881
G1 X2.212 Y147.29 E40.52224
G1 X2.155 Y147.125 E40.53617
G1 X1.905 Y146.29 E40.60575
G1 X1.859 Y146.117 E40.62004
G1 X1.858 Y146.117 E40.62012
G1 X1.657 Y145.216 E40.69381
G1 X1.635 Y145.092 E40.70386
G1 X1.5 Y144.178 E40.77761
G1 X1.483 Y144.018 E40.79046
G1 X1.408 Y142.945 E40.87632
G1 X1.4 Y142.444 E40.91632
G1 X1.4 Y77.514 E46.09931
G1 X1.436 Y76.508 E46.17966
G1 X1.446 Y76.373 E46.19047
G1 X1.548 Y75.456 E46.26412
G1 X1.573 Y75.281 E46.27823
G1 X1.735 Y74.403 E46.3495
G1 X1.765 Y74.269 E46.36046
G1 X1.996 Y73.384 E46.43347
G1 X2.048 Y73.212 E46.44782
G1 X2.335 Y72.37 E46.51882
G1 X2.334 Y72.37 E46.5189
G1 X2.398 Y72.204 E46.53311
G1 X2.739 Y71.401 E46.60274
G1 X2.82 Y71.226 E46.61814
G1 X3.236 Y70.418 E46.69068
G1 X3.235 Y70.418 E46.69076
G1 X3.301 Y70.301 E46.70149
G1 X3.302 Y70.301 E46.70157
G1 X3.776 Y69.522 E46.77435
G1 X3.876 Y69.371 E46.78881
G1 X4.387 Y68.657 E46.8589
G1 X4.5 Y68.509 E46.87376
G1 X5.076 Y67.818 E46.94557
G1 X5.177 Y67.705 E46.95767
G1 X5.802 Y67.056 E47.02959
G1 X5.927 Y66.936 E47.04342
G1 X6.598 Y66.333 E47.11544
G1 X6.714 Y66.237 E47.12746
G1 X7.426 Y65.687 E47.19927
G1 X7.585 Y65.574 E47.21484
G1 X8.323 Y65.084 E47.28556
G1 X8.449 Y65.008 E47.2973
G1 X9.243 Y64.562 E47.37
G1 X9.393 Y64.484 E47.38349
G1 X10.208 Y64.101 E47.45538
G1 X10.351 Y64.041 E47.46776
G1 X11.21 Y63.712 E47.54118
G1 X11.36 Y63.66 E47.55385
G1 X12.21 Y63.405 E47.62469
G1 X12.383 Y63.359 E47.63898
G1 X12.383 Y63.358 E47.63906
G1 X13.278 Y63.158 E47.71227
G0 F12000 X12.8 Y63.264
G1 F1800 X12.8 Y156.742 E55.17408
G0 F12000 X14.4 Y157.001
G1 F1800 X14.4 Y62.991 E62.67837
G0 F12000 X16 Y62.9
G1 F1800 X16 Y157.099 E70.19774
G0 F12000 X17.6 Y157.1
G1 F1800 X17.6 Y62.9 E77.71719
G0 F12000 X19.2 Y62.9
G1 F1800 X19.2 Y157.1 E85.23664
G0 F12000 X20.8 Y157.1
G1 F1800 X20.8 Y62.9 E92.7561
G0 F12000 X22.4 Y62.9
G1 F1800 X22.4 Y157.1 E100.27555
G0 F12000 X24 Y157.1
G1 F1800 X24 Y62.9 E107.795
G0 F12000 X25.6 Y62.9
G1 F1800 X25.6 Y157.1 E115.31445
G0 F12000 X27.2 Y157.1
G1 F1800 X27.2 Y62.9 E122.8339
G0 F12000 X28.8 Y62.9
G1 F1800 X28.8 Y157.1 E130.35335
G0 F12000 X30.4 Y157.1
G1 F1800 X30.4 Y62.9 E137.8728
G0 F12000 X32 Y62.9
G1 F1800 X32 Y157.1 E145.39225
G0 F12000 X33.6 Y157.1
G1 F1800 X33.6 Y62.9 E152.91171
G0 F12000 X35.2 Y62.9
G1 F1800 X35.2 Y157.1 E160.43116
G0 F12000 X36.8 Y157.1
G1 F1800 X36.8 Y62.9 E167.95061
G0 F12000 X38.4 Y62.9
G1 F1800 X38.4 Y157.1 E175.47006
G0 F12000 X40 Y157.1
G1 F1800 X40 Y62.9 E182.98951
G0 F12000 X41.6 Y62.9
G1 F1800 X41.6 Y157.1 E190.50896
G0 F12000 X43.2 Y157.1
G1 F1800 X43.2 Y62.9 E198.02841
G0 F12000 X44.8 Y62.9
G1 F1800 X44.8 Y157.1 E205.54787
G0 F12000 X46.4 Y157.1
G1 F1800 X46.4 Y62.9 E213.06732
G0 F12000 X48 Y62.9
G1 F1800 X48 Y157.1 E220.58677
G0 F12000 X49.6 Y157.1
G1 F1800 X49.6 Y62.9 E228.10622
G0 F12000 X51.2 Y62.9
G1 F1800 X51.2 Y157.1 E235.62567
G0 F12000 X52.8 Y157.1
G1 F1800 X52.8 Y62.9 E243.14512
G0 F12000 X54.4 Y62.9
G1 F1800 X54.4 Y157.1 E250.66457
G0 F12000 X56 Y157.1
G1 F1800 X56 Y62.9 E258.18402
G0 F12000 X57.6 Y62.9
G1 F1800 X57.6 Y157.1 E265.70348
G0 F12000 X59.2 Y157.1
G1 F1800 X59.2 Y62.9 E273.22293
G0 F12000 X60.8 Y62.9
G1 F1800 X60.8 Y157.1 E280.74238
G0 F12000 X62.4 Y157.1
G1 F1800 X62.4 Y62.9 E288.26183
G0 F12000 X64 Y62.9
G1 F1800 X64 Y157.1 E295.78128
G0 F12000 X65.6 Y157.1
G1 F1800 X65.6 Y62.9 E303.30073
G0 F12000 X67.2 Y62.9
G1 F1800 X67.2 Y157.1 E310.82018
G0 F12000 X68.8 Y157.1
G1 F1800 X68.8 Y62.9 E318.33964
G0 F12000 X70.4 Y62.9
G1 F1800 X70.4 Y157.1 E325.85909
G0 F12000 X72 Y157.1
G1 F1800 X72 Y62.9 E333.37854
G0 F12000 X73.6 Y62.9
G1 F1800 X73.6 Y157.1 E340.89799
G0 F12000 X75.2 Y157.1
G1 F1800 X75.2 Y62.9 E348.41744
G0 F12000 X76.8 Y62.9
G1 F1800 X76.8 Y157.1 E355.93689
G0 F12000 X78.4 Y157.1
G1 F1800 X78.4 Y62.9 E363.45634
G0 F12000 X80 Y62.9
G1 F1800 X80 Y157.1 E370.97579
G0 F12000 X81.6 Y157.1
G1 F1800 X81.6 Y62.9 E378.49525
G0 F12000 X83.2 Y62.9
G1 F1800 X83.2 Y157.1 E386.0147
G0 F12000 X84.8 Y157.1
G1 F1800 X84.8 Y62.9 E393.53415
G0 F12000 X86.4 Y62.9
G1 F1800 X86.4 Y157.1 E401.0536
G0 F12000 X88 Y157.1
G1 F1800 X88 Y62.9 E408.57305
G0 F12000 X89.6 Y62.9
G1 F1800 X89.6 Y157.1 E416.0925
G0 F12000 X91.2 Y157.1
G1 F1800 X91.2 Y62.9 E423.61195
G0 F12000 X92.8 Y62.9
G1 F1800 X92.8 Y157.1 E431.13141
G0 F12000 X94.4 Y157.1
G1 F1800 X94.4 Y62.9 E438.65086
G0 F12000 X96 Y62.9
G1 F1800 X96 Y157.1 E446.17031
G0 F12000 X97.6 Y157.1
G1 F1800 X97.6 Y62.9 E453.68976
G0 F12000 X99.2 Y62.9
G1 F1800 X99.2 Y157.1 E461.20921
G0 F12000 X100.8 Y157.1
G1 F1800 X100.8 Y62.9 E468.72866
G0 F12000 X102.4 Y62.9
G1 F1800 X102.4 Y157.1 E476.24811
G0 F12000 X104 Y157.1
G1 F1800 X104 Y62.9 E483.76756
G0 F12000 X105.6 Y62.9
G1 F1800 X105.6 Y157.1 E491.28702
G0 F12000 X107.2 Y157.1
G1 F1800 X107.2 Y62.9 E498.80647
G0 F12000 X108.8 Y62.9
G1 F1800 X108.8 Y157.1 E506.32592
G0 F12000 X110.4 Y157.1
G1 F1800 X110.4 Y62.9 E513.84537
G0 F12000 X112 Y62.9
G1 F1800 X112 Y157.1 E521.36482
G0 F12000 X113.6 Y157.1
G1 F1800 X113.6 Y62.9 E528.88427
G0 F12000 X115.2 Y62.9
G1 F1800 X115.2 Y157.1 E536.40372
G0 F12000 X116.8 Y157.1
G1 F1800 X116.8 Y62.9 E543.92317
G0 F12000 X118.4 Y62.9
G1 F1800 X118.4 Y157.1 E551.44263
G0 F12000 X120 Y157.1
G1 F1800 X120 Y62.9 E558.96208
G0 F12000 X121.6 Y62.9
G1 F1800 X121.6 Y157.1 E566.48153
G0 F12000 X123.2 Y157.1
G1 F1800 X123.2 Y62.9 E574.00098
G0 F12000 X124.8 Y62.9
G1 F1800 X124.8 Y157.1 E581.52043
G0 F12000 X126.4 Y157.1
G1 F1800 X126.4 Y62.9 E589.03988
G0 F12000 X128 Y62.9
G1 F1800 X128 Y157.1 E596.55933
G0 F12000 X129.6 Y157.1
G1 F1800 X129.6 Y62.9 E604.07879
G0 F12000 X131.2 Y62.9
G1 F1800 X131.2 Y157.1 E611.59824
G0 F12000 X132.8 Y157.1
G1 F1800 X132.8 Y62.9 E619.11769
G0 F12000 X134.4 Y62.9
G1 F1800 X134.4 Y157.1 E626.63714
G0 F12000 X136 Y157.1
G1 F1800 X136 Y62.9 E634.15659
G0 F12000 X137.6 Y62.9
G1 F1800 X137.6 Y157.1 E641.67604
G0 F12000 X139.2 Y157.1
G1 F1800 X139.2 Y62.9 E649.19549
G0 F12000 X140.8 Y62.9
G1 F1800 X140.8 Y157.1 E656.71494
G0 F12000 X142.4 Y157.1
G1 F1800 X142.4 Y62.9 E664.2344
G0 F12000 X144 Y62.9
G1 F1800 X144 Y157.1 E671.75385
G0 F12000 X145.6 Y157.1
G1 F1800 X145.6 Y62.9 E679.2733
G0 F12000 X147.2 Y62.9
G1 F1800 X147.2 Y157.1 E686.79275
G0 F12000 X148.8 Y157.1
G1 F1800 X148.8 Y62.9 E694.3122
G0 F12000 X150.4 Y62.9
G1 F1800 X150.4 Y157.1 E701.83165
G0 F12000 X152 Y157.1
G1 F1800 X152 Y62.9 E709.3511
G0 F12000 X153.6 Y62.9
G1 F1800 X153.6 Y157.1 E716.87056
G0 F12000 X155.2 Y157.1
G1 F1800 X155.2 Y62.9 E724.39001
G0 F12000 X156.8 Y62.9
G1 F1800 X156.8 Y157.1 E731.90946
G0 F12000 X158.4 Y157.1
G1 F1800 X158.4 Y62.9 E739.42891
G0 F12000 X160 Y62.9
G1 F1800 X160 Y157.1 E746.94836
G0 F12000 X161.6 Y157.1
G1 F1800 X161.6 Y62.9 E754.46781
G0 F12000 X163.2 Y62.9
G1 F1800 X163.2 Y157.1 E761.98726
G0 F12000 X164.8 Y157.1
G1 F1800 X164.8 Y62.9 E769.50671
G0 F12000 X166.4 Y62.9
G1 F1800 X166.4 Y157.1 E777.02617
G0 F12000 X168 Y157.1
G1 F1800 X168 Y62.9 E784.54562
G0 F12000 X169.6 Y62.9
G1 F1800 X169.6 Y157.1 E792.06507
G0 F12000 X171.2 Y157.1
G1 F1800 X171.2 Y62.9 E799.58452
G0 F12000 X172.8 Y62.9
G1 F1800 X172.8 Y157.1 E807.10397
G0 F12000 X174.4 Y157.1
G1 F1800 X174.4 Y62.9 E814.62342
G0 F12000 X176 Y62.9
G1 F1800 X176 Y157.1 E822.14287
G0 F12000 X177.6 Y157.1
G1 F1800 X177.6 Y62.9 E829.66233
G0 F12000 X179.2 Y62.9
G1 F1800 X179.2 Y157.1 E837.18178
G0 F12000 X180.8 Y157.1
G1 F1800 X180.8 Y62.9 E844.70123
G0 F12000 X182.4 Y62.9
G1 F1800 X182.4 Y157.1 E852.22068
G0 F12000 X184 Y157.1
G1 F1800 X184 Y62.9 E859.74013
G0 F12000 X185.6 Y62.9
G1 F1800 X185.6 Y157.1 E867.25958
G0 F12000 X187.2 Y157.1
G1 F1800 X187.2 Y62.9 E874.77903
G0 F12000 X188.8 Y62.9
G1 F1800 X188.8 Y157.1 E882.29848
G0 F12000 X190.4 Y157.1
G1 F1800 X190.4 Y62.9 E889.81794
G0 F12000 X192 Y62.9
G1 F1800 X192 Y157.1 E897.33739
G0 F12000 X193.6 Y157.1
G1 F1800 X193.6 Y62.9 E904.85684
G0 F12000 X195.2 Y62.9
G1 F1800 X195.2 Y157.1 E912.37629
G0 F12000 X196.8 Y157.1
G1 F1800 X196.8 Y62.9 E919.89574
G0 F12000 X198.4 Y62.9
G1 F1800 X198.4 Y157.1 E927.41519
G0 F12000 X200 Y157.1
G1 F1800 X200 Y62.9 E934.93464
G0 F12000 X201.6 Y62.9
G1 F1800 X201.6 Y157.1 E942.4541
G0 F12000 X203.2 Y157.1
G1 F1800 X203.2 Y62.9 E949.97355
G0 F12000 X204.8 Y62.933
G1 F1800 X204.8 Y157.068 E957.48781
G0 F12000 X206.4 Y156.894
G1 F1800 X206.4 Y63.107 E964.97429
G0 F12000 X208 Y63.467
G1 F1800 X208 Y156.532 E972.40314
G0 F12000 X209.6 Y155.978
G1 F1800 X209.6 Y64.028 E979.74299
G0 F12000 X211.2 Y64.803
G1 F1800 X211.2 Y155.19 E986.95807
G0 F12000 X212.8 Y154.139
G1 F1800 X212.8 Y65.857 E994.00512
G0 F12000 X214.4 Y67.26
G1 F1800 X214.4 Y152.735 E1000.82811
G0 F12000 X216 Y150.803
G1 F1800 X216 Y69.196 E1007.34233
G0 F12000 X217.6 Y72.22
G1 F1800 X217.6 Y147.799 E1013.37537
G1 F2700 E1008.37537
G0 F12000 X218.581 Y148.214
G0 X217.705 Y150.08
G0 X216.996 Y151.239
G0 X215.725 Y152.883
G0 X214.802 Y153.84
G0 X213.201 Y155.173
G0 X212.082 Y155.915
G0 X210.217 Y156.875
G0 X208.958 Y157.356
G0 X206.934 Y157.885
G0 X205.621 Y158.076
G0 X203.947 Y158.165
G0 X14.943 Y158.126
G0 X13.617 Y157.979
G0 X12.469 Y157.724
G0 X11.38 Y157.464
G0 X11.2 Y156.277
G1 F2700 E1013.37537
G1 F1800 X11.2 Y63.715 E1020.76407
G0 F12000 X9.6 Y64.386
G1 F1800 X9.6 Y155.615 E1028.04637
G0 F12000 X8 Y154.709
G1 F1800 X8 Y65.298 E1035.18354
G0 F12000 X6.4 Y66.51
G1 F1800 X6.4 Y153.492 E1042.12682
G0 F12000 X4.8 Y151.861
G1 F1800 X4.8 Y68.149 E1048.80907
G0 F12000 X3.2 Y70.487
G1 F1800 X3.2 Y149.502 E1055.11639
G1 F2700 E1050.11639
G0 F12000 X2.034 Y149.586
G0 X1.213 Y147.659
G0 X1.104 Y147.297
G0 X0.615 Y145.434
G0 X1.6 Y144.855
G1 F2700 E1055.11639
G1 F1800 X1.6 Y75.134 E1060.68182
G0 F300 X1.6 Y75.134 Z0.54
G0 F12000 X1.598 Y75.137
;TIME_ELAPSED:468.937889
;LAYER:-5
M140 S50
;TYPE:SUPPORT
G1 F1800 X83.56 Y157.099 E1072.24755
G1 X82.146 Y157.099 E1072.38864
G1 X1.443 Y76.397 E1083.77663
G1 X1.436 Y76.506 E1083.78753
G1 X1.4 Y77.513 E1083.88807
G1 X1.4 Y77.767 E1083.91342
G1 X80.731 Y157.099 E1095.10795
G1 X79.317 Y157.099 E1095.24904
G1 X1.4 Y79.181 E1106.24404
G1 X1.4 Y80.596 E1106.38523
G1 X77.903 Y157.099 E1117.18063
G1 X76.489 Y157.099 E1117.32172
G1 X1.4 Y82.01 E1127.91758
G1 X1.4 Y83.424 E1128.05867
G1 X75.074 Y157.099 E1138.45494
G1 X73.66 Y157.099 E1138.59603
G1 X1.4 Y84.838 E1148.79277
G1 X1.4 Y86.252 E1148.93386
G1 X72.246 Y157.099 E1158.93106
G1 X70.832 Y157.099 E1159.07215
G1 X1.4 Y87.667 E1168.86976
G1 X1.4 Y89.081 E1169.01085
G1 X69.418 Y157.099 E1178.60892
G1 X68.003 Y157.099 E1178.75011
G1 X1.4 Y90.495 E1188.14859
G1 X1.4 Y91.909 E1188.28968
G1 X66.589 Y157.099 E1197.48862
G1 X65.175 Y157.099 E1197.62971
G1 X1.4 Y93.323 E1206.62912
G1 X1.4 Y94.738 E1206.77031
G1 X63.761 Y157.099 E1215.57012
G1 X62.347 Y157.099 E1215.71121
G1 X1.4 Y96.152 E1224.31149
G1 X1.4 Y97.566 E1224.45258
G1 X60.932 Y157.099 E1232.85326
G1 X59.518 Y157.099 E1232.99435
G1 X1.4 Y98.98 E1241.1955
G1 X1.4 Y100.395 E1241.33668
G1 X58.104 Y157.099 E1249.33823
G1 X56.69 Y157.099 E1249.47932
G1 X1.4 Y101.809 E1257.28134
G1 X1.4 Y103.223 E1257.42243
G1 X55.275 Y157.099 E1265.02484
G1 X53.861 Y157.099 E1265.16593
G1 X1.4 Y104.637 E1272.56882
G1 X1.4 Y106.051 E1272.70991
