;FLAVOR:Marlin
;TIME:19214
;Filament used: 17.9668m
;Layer height: 0.2
;MINX:5
;MINY:64.5
;MINZ:0.2
;MAXX:215
;MAXY:155.5
;MAXZ:37
;Generated with Cura_SteamEngine 4.8.0
M140 S50
M105
M190 S50
M104 S200
M105
M109 S200
M82 ;absolute extrusion mode
M201 X500.00 Y500.00 Z100.00 E5000.00 ;Setup machine max acceleration
M203 X500.00 Y500.00 Z10.00 E50.00 ;Setup machine max feedrate
M204 P500.00 R1000.00 T500.00 ;Setup Print/Retract/Travel acceleration
M205 X8.00 Y8.00 Z0.40 E5.00 ;Setup Jerk
M220 S100 ;Reset Feedrate
M221 S100 ;Reset Flowrate

G28 ;Home

G92 E0 ;Reset Extruder
G1 Z2.0 F3000 ;Move Z Axis up
G1 X10.1 Y20 Z0.28 F5000.0 ;Move to start position
G1 X10.1 Y200.0 Z0.28 F1500.0 E15 ;Draw the first line
G1 X10.4 Y200.0 Z0.28 F5000.0 ;Move to side a little
G1 X10.4 Y20 Z0.28 F1500.0 E30 ;Draw the second line
G92 E0 ;Reset Extruder
G1 Z2.0 F3000 ;Move Z Axis up

G92 E0
G92 E0
G1 F2700 E-5
;LAYER_COUNT:185
;LAYER:0
M107
G0 F6000 X13.903 Y64.713 Z0.2
;TYPE:SKIRT
G1 F2700 E0
G1 F1200 X14.83 Y64.572 E0.03119
G1 X15.701 Y64.513 E0.06022
G1 X16.022 Y64.504 E0.0709
G1 X16.33 Y64.5 E0.08115
G1 X203.293 Y64.5 E6.29956
G1 X204.149 Y64.511 E6.32804
G1 X205.085 Y64.565 E6.35922
G1 X206.013 Y64.697 E6.3904
G1 X206.927 Y64.909 E6.4216
G1 X207.819 Y65.198 E6.45279
G1 X208.684 Y65.561 E6.48399
G1 X209.514 Y65.997 E6.51517
G1 X210.305 Y66.502 E6.54639
G1 X211.049 Y67.073 E6.57758
G1 X211.742 Y67.705 E6.60877
G1 X212.379 Y68.393 E6.63996
G1 X212.954 Y69.134 E6.67115
G1 X213.465 Y69.92 E6.70234
G1 X213.907 Y70.748 E6.73355
G1 X214.276 Y71.61 E6.76474
G1 X214.571 Y72.5 E6.79593
G1 X214.789 Y73.412 E6.82711
G1 X214.929 Y74.34 E6.85833
G1 X214.987 Y75.201 E6.88703
G1 X214.996 Y75.521 E6.89768
G1 X215 Y75.83 E6.90796
G1 X214.999 Y143.9 E9.17197
G1 X214.99 Y144.627 E9.19615
G1 X214.939 Y145.564 E9.22737
G1 X214.807 Y146.492 E9.25854
G1 X214.598 Y147.406 E9.28973
G1 X214.311 Y148.299 E9.32092
G1 X213.949 Y149.165 E9.35214
G1 X213.515 Y149.996 E9.38332
G1 X213.011 Y150.787 E9.41452
G1 X212.442 Y151.532 E9.4457
G1 X211.811 Y152.227 E9.47692
G1 X211.124 Y152.865 E9.5081
G1 X210.385 Y153.442 E9.53929
G1 X209.599 Y153.954 E9.57049
G1 X208.773 Y154.397 E9.60166
G1 X207.911 Y154.769 E9.63289
G1 X207.022 Y155.065 E9.66405
G1 X206.11 Y155.285 E9.69526
G1 X205.183 Y155.426 E9.72644
G1 X204.299 Y155.487 E9.75591
G1 X203.978 Y155.496 E9.76659
G1 X203.67 Y155.5 E9.77684
G1 X16.565 Y155.499 E15.99998
G1 X15.867 Y155.49 E16.02319
G1 X14.931 Y155.438 E16.05437
G1 X14.002 Y155.306 E16.08558
G1 X13.088 Y155.096 E16.11678
G1 X12.195 Y154.809 E16.14797
G1 X11.33 Y154.446 E16.17917
G1 X10.499 Y154.012 E16.21035
G1 X9.708 Y153.508 E16.24155
G1 X8.963 Y152.938 E16.27275
G1 X8.269 Y152.307 E16.30395
G1 X7.632 Y151.62 E16.33511
G1 X7.055 Y150.88 E16.36632
G1 X6.543 Y150.094 E16.39752
G1 X6.1 Y149.267 E16.42872
G1 X5.729 Y148.406 E16.4599
G1 X5.433 Y147.516 E16.4911
G1 X5.214 Y146.604 E16.52229
G1 X5.073 Y145.677 E16.55348
G1 X5.013 Y144.788 E16.58312
G1 X5.004 Y144.455 E16.5942
G1 X5 Y144.158 E16.60408
G1 X5.001 Y76.025 E18.87019
G1 X5.01 Y75.36 E18.89231
G1 X5.063 Y74.424 E18.92349
G1 X5.195 Y73.495 E18.9547
G1 X5.406 Y72.581 E18.9859
G1 X5.694 Y71.689 E19.01707
G1 X6.057 Y70.824 E19.04828
G1 X6.492 Y69.993 E19.07947
G1 X6.996 Y69.203 E19.11064
G1 X7.566 Y68.458 E19.14184
G1 X8.198 Y67.764 E19.17306
G1 X8.886 Y67.127 E19.20424
G1 X9.626 Y66.551 E19.23543
G1 X10.412 Y66.039 E19.26663
G1 X11.239 Y65.597 E19.29782
G1 X12.101 Y65.227 E19.32902
G1 X12.991 Y64.931 E19.36022
G1 X13.903 Y64.713 E19.3914
G0 F6000 X14.245 Y65.057
G1 F1200 X15.159 Y64.943 E19.42204
G1 X15.712 Y64.913 E19.44046
G1 X16.033 Y64.904 E19.45114
G1 X16.33 Y64.9 E19.46102
G1 X203.293 Y64.9 E25.67943
G1 X204.143 Y64.911 E25.70771
G1 X205.062 Y64.964 E25.73832
G1 X205.973 Y65.097 E25.76895
G1 X206.869 Y65.308 E25.79956
G1 X207.743 Y65.596 E25.83017
G1 X208.59 Y65.959 E25.86082
G1 X209.401 Y66.394 E25.89143
G1 X210.171 Y66.898 E25.92204
G1 X210.895 Y67.467 E25.95266
G1 X211.567 Y68.097 E25.9833
G1 X212.182 Y68.782 E26.01392
G1 X212.735 Y69.518 E26.04454
G1 X213.222 Y70.299 E26.07515
G1 X213.639 Y71.12 E26.10578
G1 X213.984 Y71.974 E26.13641
G1 X214.253 Y72.854 E26.16702
G1 X214.445 Y73.755 E26.19766
G1 X214.558 Y74.668 E26.22826
G1 X214.587 Y75.212 E26.24638
G1 X214.596 Y75.532 E26.25702
G1 X214.6 Y75.83 E26.26694
G1 X214.599 Y143.895 E28.53079
G1 X214.59 Y144.622 E28.55497
G1 X214.539 Y145.541 E28.58558
G1 X214.408 Y146.453 E28.61623
G1 X214.198 Y147.349 E28.64683
G1 X213.912 Y148.224 E28.67745
G1 X213.551 Y149.071 E28.70808
G1 X213.117 Y149.883 E28.7387
G1 X212.615 Y150.655 E28.76933
G1 X212.047 Y151.38 E28.79996
G1 X211.419 Y152.053 E28.83058
G1 X210.735 Y152.669 E28.86119
G1 X210 Y153.223 E28.8918
G1 X209.22 Y153.712 E28.92242
G1 X208.4 Y154.131 E28.95305
G1 X207.547 Y154.477 E28.98367
G1 X206.667 Y154.748 E29.01429
G1 X205.767 Y154.941 E29.04491
G1 X204.853 Y155.056 E29.07555
G1 X204.288 Y155.087 E29.09437
G1 X203.967 Y155.096 E29.10505
G1 X203.67 Y155.1 E29.11493
G1 X16.57 Y155.099 E35.3379
G1 X15.872 Y155.09 E35.36112
G1 X14.953 Y155.038 E35.39173
G1 X14.042 Y154.907 E35.42234
G1 X13.146 Y154.697 E35.45295
G1 X12.271 Y154.41 E35.48358
G1 X11.424 Y154.048 E35.51421
G1 X10.612 Y153.614 E35.54484
G1 X9.841 Y153.112 E35.57544
G1 X9.116 Y152.544 E35.60607
G1 X8.443 Y151.915 E35.63671
G1 X7.828 Y151.231 E35.6673
G1 X7.274 Y150.496 E35.69792
G1 X6.786 Y149.715 E35.72855
G1 X6.367 Y148.895 E35.75917
G1 X6.021 Y148.042 E35.78979
G1 X5.751 Y147.162 E35.8204
G1 X5.558 Y146.261 E35.85105
G1 X5.444 Y145.348 E35.88165
G1 X5.413 Y144.777 E35.90067
G1 X5.404 Y144.444 E35.91175
G1 X5.4 Y144.158 E35.92127
G1 X5.401 Y76.031 E38.18718
G1 X5.41 Y75.366 E38.2093
G1 X5.462 Y74.446 E38.23995
G1 X5.594 Y73.535 E38.27056
G1 X5.805 Y72.639 E38.30118
G1 X6.092 Y71.764 E38.33181
G1 X6.455 Y70.918 E38.36243
G1 X6.889 Y70.106 E38.39305
G1 X7.392 Y69.335 E38.42367
G1 X7.961 Y68.611 E38.4543
G1 X8.589 Y67.939 E38.48489
G1 X9.274 Y67.323 E38.51553
G1 X10.01 Y66.77 E38.54615
G1 X10.791 Y66.282 E38.57678
G1 X11.611 Y65.864 E38.60739
G1 X12.465 Y65.519 E38.63802
G1 X13.345 Y65.249 E38.66864
G1 X14.245 Y65.057 E38.69925
G0 F6000 X13.696 Y65.575
G1 F1200 X14.584 Y65.409 E38.72929
G1 X15.723 Y65.313 E38.76731
G1 X16.044 Y65.304 E38.77799
G1 X16.33 Y65.3 E38.78751
G1 X203.293 Y65.3 E45.00592
G1 X204.137 Y65.311 E45.03399
G1 X205.039 Y65.364 E45.06405
G1 X205.932 Y65.496 E45.09407
G1 X206.81 Y65.707 E45.1241
G1 X207.666 Y65.995 E45.15414
G1 X208.493 Y66.357 E45.18417
G1 X209.285 Y66.792 E45.21422
G1 X210.036 Y67.294 E45.24427
G1 X210.739 Y67.861 E45.27431
G1 X211.389 Y68.488 E45.30435
G1 X211.981 Y69.17 E45.33438
G1 X212.511 Y69.901 E45.36441
G1 X212.973 Y70.677 E45.39445
G1 X213.366 Y71.49 E45.42449
G1 X213.684 Y72.335 E45.45451
G1 X213.927 Y73.205 E45.48456
G1 X214.092 Y74.093 E45.5146
G1 X214.187 Y75.223 E45.55232
G1 X214.196 Y75.543 E45.56296
G1 X214.2 Y75.83 E45.57251
G1 X214.199 Y143.89 E47.83619
G1 X214.19 Y144.617 E47.86038
G1 X214.139 Y145.519 E47.89042
G1 X214.008 Y146.413 E47.92048
G1 X213.799 Y147.291 E47.9505
G1 X213.513 Y148.148 E47.98054
G1 X213.152 Y148.976 E48.01059
G1 X212.72 Y149.768 E48.04059
G1 X212.219 Y150.52 E48.07065
G1 X211.653 Y151.224 E48.10069
G1 X211.028 Y151.875 E48.13071
G1 X210.347 Y152.469 E48.16076
G1 X209.616 Y153 E48.19081
G1 X208.842 Y153.464 E48.22083
G1 X208.029 Y153.858 E48.25088
G1 X207.185 Y154.178 E48.2809
G1 X206.315 Y154.423 E48.31096
G1 X205.428 Y154.589 E48.34097
G1 X204.277 Y154.687 E48.3794
G1 X203.956 Y154.696 E48.39008
G1 X203.67 Y154.7 E48.39959
G1 X16.575 Y154.699 E54.62239
G1 X15.877 Y154.69 E54.64561
G1 X14.976 Y154.639 E54.67563
G1 X14.082 Y154.507 E54.70568
G1 X13.204 Y154.298 E54.7357
G1 X12.347 Y154.011 E54.76576
G1 X11.52 Y153.65 E54.79578
G1 X10.727 Y153.217 E54.82583
G1 X9.976 Y152.716 E54.85585
G1 X9.272 Y152.15 E54.8859
G1 X8.621 Y151.524 E54.91594
G1 X8.028 Y150.843 E54.94597
G1 X7.498 Y150.112 E54.976
G1 X7.034 Y149.337 E55.00604
G1 X6.64 Y148.524 E55.03609
G1 X6.32 Y147.68 E55.06611
G1 X6.076 Y146.81 E55.09617
G1 X5.91 Y145.922 E55.12621
G1 X5.813 Y144.767 E55.16476
G1 X5.804 Y144.434 E55.17584
G1 X5.8 Y144.158 E55.18502
G1 X5.801 Y76.036 E57.45077
G1 X5.81 Y75.371 E57.47289
G1 X5.862 Y74.469 E57.50294
G1 X5.994 Y73.576 E57.53297
G1 X6.204 Y72.698 E57.56299
G1 X6.491 Y71.841 E57.59305
G1 X6.853 Y71.014 E57.62308
G1 X7.286 Y70.222 E57.6531
G1 X7.788 Y69.471 E57.68314
G1 X8.355 Y68.767 E57.71321
G1 X8.981 Y68.117 E57.74322
G1 X9.662 Y67.524 E57.77326
G1 X10.394 Y66.994 E57.80332
G1 X11.169 Y66.531 E57.83334
G1 X11.982 Y66.138 E57.86338
G1 X12.827 Y65.818 E57.89343
G1 X13.696 Y65.575 E57.92344
G1 F2700 E52.92344
;MESH:chassis.obj
G0 F6000 X20.101 Y137.675
G0 X20.276 Y136.22
G0 X21.454 Y137.211
G0 X21.719 Y137.599
G0 X21.886 Y138.036
G0 X21.942 Y138.5
G0 X21.911 Y138.762
G0 X21.576 Y139.896
;TYPE:WALL-INNER
G1 F2700 E57.92344
G1 F1200 X21.863 Y139.477 E57.94033
G1 X22.043 Y139.004 E57.95717
G1 X22.104 Y138.5 E57.97405
G1 X22.043 Y137.996 E57.99094
G1 X21.863 Y137.523 E58.00777
G1 X21.576 Y137.104 E58.02466
G1 X21.195 Y136.768 E58.04156
G1 X20.747 Y136.532 E58.0584
G1 X20.253 Y136.411 E58.07531
G1 X19.747 Y136.411 E58.09214
G1 X19.253 Y136.532 E58.10906
G1 X18.805 Y136.768 E58.1259
G1 X18.424 Y137.104 E58.1428
G1 X18.137 Y137.523 E58.15969
G1 X17.957 Y137.996 E58.17652
G1 X17.896 Y138.5 E58.19341
G1 X17.957 Y139.004 E58.21029
G1 X18.137 Y139.477 E58.22713
G1 X18.424 Y139.896 E58.24402
G1 X18.805 Y140.232 E58.26091
G1 X19.253 Y140.468 E58.27776
G1 X19.747 Y140.589 E58.29467
G1 X20.253 Y140.589 E58.3115
G1 X20.747 Y140.468 E58.32842
G1 X21.195 Y140.232 E58.34526
G1 X21.576 Y139.896 E58.36216
G0 F6000 X21.274 Y139.629
;TYPE:WALL-OUTER
G1 F1200 X21.506 Y139.29 E58.37582
G1 X21.652 Y138.907 E58.38945
G1 X21.701 Y138.5 E58.40309
G1 X21.652 Y138.093 E58.41672
G1 X21.506 Y137.71 E58.43035
G1 X21.274 Y137.371 E58.44402
G1 X20.966 Y137.1 E58.45766
G1 X20.604 Y136.909 E58.47127
G1 X20.205 Y136.811 E58.48494
G1 X19.795 Y136.811 E58.49858
G1 X19.396 Y136.909 E58.51224
G1 X19.034 Y137.1 E58.52585
G1 X18.726 Y137.371 E58.5395
G1 X18.494 Y137.71 E58.55316
G1 X18.348 Y138.093 E58.56679
G1 X18.299 Y138.5 E58.58043
G1 X18.348 Y138.907 E58.59406
G1 X18.494 Y139.29 E58.6077
G1 X18.726 Y139.629 E58.62136
G1 X19.034 Y139.9 E58.635
G1 X19.396 Y140.091 E58.64862
G1 X19.795 Y140.189 E58.66228
G1 X20.205 Y140.189 E58.67592
G1 X20.604 Y140.091 E58.68958
G1 X20.966 Y139.9 E58.7032
G1 X21.274 Y139.629 E58.71684
G0 F6000 X21.603 Y139.92
G1 F2700 E53.71684
G0 F6000 X21.886 Y138.964
G0 X21.942 Y138.5
G0 X21.886 Y138.036
G0 X21.719 Y137.599
G0 X21.505 Y137.285
G0 X20.276 Y136.22
G0 X20.101 Y137.675
G0 X20.101 Y118.806
G0 X20.026 Y117.317
G0 X20.101 Y102.806
G0 X20.026 Y101.317
G0 X20.101 Y82.325
G0 X20.276 Y83.78
G0 X21.195 Y83.232
;TYPE:WALL-INNER
G1 F2700 E58.71684
G1 F1200 X21.576 Y82.896 E58.73374
G1 X21.863 Y82.477 E58.75063
G1 X22.043 Y82.004 E58.76746
G1 X22.104 Y81.5 E58.78435
G1 X22.043 Y80.996 E58.80123
G1 X21.863 Y80.523 E58.81807
G1 X21.576 Y80.104 E58.83496
G1 X21.195 Y79.768 E58.85185
G1 X20.747 Y79.532 E58.8687
G1 X20.253 Y79.411 E58.88561
G1 X19.747 Y79.411 E58.90244
G1 X19.253 Y79.532 E58.91936
G1 X18.805 Y79.768 E58.9362
G1 X18.424 Y80.104 E58.9531
G1 X18.137 Y80.523 E58.96999
G1 X17.957 Y80.996 E58.98682
G1 X17.896 Y81.5 E59.00371
G1 X17.957 Y82.004 E59.02059
G1 X18.137 Y82.477 E59.03742
G1 X18.424 Y82.896 E59.05432
G1 X18.805 Y83.232 E59.07121
G1 X19.253 Y83.468 E59.08805
G1 X19.747 Y83.589 E59.10497
G1 X20.253 Y83.589 E59.1218
G1 X20.747 Y83.468 E59.13872
G1 X21.195 Y83.232 E59.15556
G0 F6000 X20.966 Y82.9
;TYPE:WALL-OUTER
G1 F1200 X21.274 Y82.629 E59.1692
G1 X21.506 Y82.29 E59.18286
G1 X21.652 Y81.907 E59.1965
G1 X21.701 Y81.5 E59.21013
G1 X21.652 Y81.093 E59.22377
G1 X21.506 Y80.71 E59.2374
G1 X21.274 Y80.371 E59.25106
G1 X20.966 Y80.1 E59.26471
G1 X20.604 Y79.909 E59.27832
G1 X20.205 Y79.811 E59.29199
G1 X19.795 Y79.811 E59.30562
G1 X19.396 Y79.909 E59.31929
G1 X19.034 Y80.1 E59.3329
G1 X18.726 Y80.371 E59.34655
G1 X18.494 Y80.71 E59.36021
G1 X18.348 Y81.093 E59.37384
G1 X18.299 Y81.5 E59.38748
G1 X18.348 Y81.907 E59.40111
G1 X18.494 Y82.29 E59.41474
G1 X18.726 Y82.629 E59.42841
G1 X19.034 Y82.9 E59.44205
G1 X19.396 Y83.091 E59.45566
G1 X19.795 Y83.189 E59.46933
G1 X20.205 Y83.189 E59.48297
G1 X20.604 Y83.091 E59.49663
G1 X20.966 Y82.9 E59.51025
G0 F6000 X21.215 Y83.262
G1 F2700 E54.51025
G0 F6000 X20.276 Y83.78
G0 X20.101 Y82.325
G0 X20.793 Y101.222
G0 X21.315 Y99.852
G0 X22.219 Y101.099
G0 X22.386 Y101.536
G0 X22.442 Y102
G0 X22.411 Y102.262
G0 X22.076 Y103.396
;TYPE:WALL-INNER
G1 F2700 E59.51025
G1 F1200 X22.363 Y102.977 E59.52714
G1 X22.543 Y102.504 E59.54397
G1 X22.604 Y102 E59.56085
G1 X22.543 Y101.496 E59.57774
G1 X22.363 Y101.023 E59.59457
G1 X22.076 Y100.604 E59.61146
G1 X21.695 Y100.268 E59.62836
G1 X21.247 Y100.032 E59.6452
G1 X20.753 Y99.911 E59.66212
G1 X20.247 Y99.911 E59.67895
G1 X19.753 Y100.032 E59.69586
G1 X19.305 Y100.268 E59.71271
G1 X18.924 Y100.604 E59.7296
G1 X18.637 Y101.023 E59.74649
G1 X18.457 Y101.496 E59.76333
G1 X18.396 Y102 E59.78021
G1 X18.457 Y102.504 E59.7971
G1 X18.637 Y102.977 E59.81393
G1 X18.924 Y103.396 E59.83082
G1 X19.305 Y103.732 E59.84772
G1 X19.753 Y103.968 E59.86456
G1 X20.247 Y104.089 E59.88148
G1 X20.753 Y104.089 E59.89831
G1 X21.247 Y103.968 E59.91522
G1 X21.695 Y103.732 E59.93206
G1 X22.076 Y103.396 E59.94896
G0 F6000 X21.774 Y103.129
;TYPE:WALL-OUTER
G1 F1200 X22.006 Y102.79 E59.96262
G1 X22.152 Y102.407 E59.97625
G1 X22.201 Y102 E59.98989
G1 X22.152 Y101.593 E60.00352
G1 X22.006 Y101.21 E60.01716
G1 X21.774 Y100.871 E60.03082
G1 X21.466 Y100.6 E60.04446
G1 X21.104 Y100.409 E60.05808
G1 X20.705 Y100.311 E60.07174
G1 X20.295 Y100.311 E60.08538
G1 X19.896 Y100.409 E60.09904
G1 X19.534 Y100.6 E60.11266
G1 X19.226 Y100.871 E60.1263
G1 X18.994 Y101.21 E60.13997
G1 X18.848 Y101.593 E60.1536
G1 X18.799 Y102 E60.16723
G1 X18.848 Y102.407 E60.18087
G1 X18.994 Y102.79 E60.1945
G1 X19.226 Y103.129 E60.20816
G1 X19.534 Y103.4 E60.22181
G1 X19.896 Y103.591 E60.23542
G1 X20.295 Y103.689 E60.24909
G1 X20.705 Y103.689 E60.26272
G1 X21.104 Y103.591 E60.27639
G1 X21.466 Y103.4 E60.29
G1 X21.774 Y103.129 E60.30365
G0 F6000 X22.103 Y103.42
G1 F2700 E55.30365
G0 F6000 X21.315 Y104.148
G0 X20.793 Y102.778
G0 X20.793 Y117.222
G0 X21.315 Y115.852
G0 X22.219 Y117.099
G0 X22.386 Y117.536
G0 X22.442 Y118
G0 X22.411 Y118.262
G0 X22.076 Y119.396
;TYPE:WALL-INNER
G1 F2700 E60.30365
G1 F1200 X22.363 Y118.977 E60.32054
G1 X22.543 Y118.504 E60.33737
G1 X22.604 Y118 E60.35426
G1 X22.543 Y117.496 E60.37114
G1 X22.363 Y117.023 E60.38797
G1 X22.076 Y116.604 E60.40487
G1 X21.695 Y116.268 E60.42176
G1 X21.247 Y116.032 E60.4386
G1 X20.753 Y115.911 E60.45552
G1 X20.247 Y115.911 E60.47235
G1 X19.753 Y116.032 E60.48927
G1 X19.305 Y116.268 E60.50611
G1 X18.924 Y116.604 E60.523
G1 X18.637 Y117.023 E60.5399
G1 X18.457 Y117.496 E60.55673
G1 X18.396 Y118 E60.57361
G1 X18.457 Y118.504 E60.5905
G1 X18.637 Y118.977 E60.60733
G1 X18.924 Y119.396 E60.62422
G1 X19.305 Y119.732 E60.64112
G1 X19.753 Y119.968 E60.65796
G1 X20.247 Y120.089 E60.67488
G1 X20.753 Y120.089 E60.69171
G1 X21.247 Y119.968 E60.70862
G1 X21.695 Y119.732 E60.72546
G1 X22.076 Y119.396 E60.74236
G0 F6000 X21.774 Y119.129
;TYPE:WALL-OUTER
G1 F1200 X22.006 Y118.79 E60.75602
G1 X22.152 Y118.407 E60.76966
G1 X22.201 Y118 E60.78329
G1 X22.152 Y117.593 E60.79693
G1 X22.006 Y117.21 E60.81056
G1 X21.774 Y116.871 E60.82422
G1 X21.466 Y116.6 E60.83787
G1 X21.104 Y116.409 E60.85148
G1 X20.705 Y116.311 E60.86514
G1 X20.295 Y116.311 E60.87878
G1 X19.896 Y116.409 E60.89245
G1 X19.534 Y116.6 E60.90606
G1 X19.226 Y116.871 E60.9197
G1 X18.994 Y117.21 E60.93337
G1 X18.848 Y117.593 E60.947
G1 X18.799 Y118 E60.96063
G1 X18.848 Y118.407 E60.97427
G1 X18.994 Y118.79 E60.9879
G1 X19.226 Y119.129 E61.00157
G1 X19.534 Y119.4 E61.01521
G1 X19.896 Y119.591 E61.02882
G1 X20.295 Y119.689 E61.04249
G1 X20.705 Y119.689 E61.05613
G1 X21.104 Y119.591 E61.06979
G1 X21.466 Y119.4 E61.0834
G1 X21.774 Y119.129 E61.09705
