;FLAVOR:Marlin
;TIME:21916
;Filament used: 24.0116m
;Layer height: 0.2
;MINX:4.335
;MINY:57.844
;MINZ:0.24
;MAXX:215.665
;MAXY:162.156
;MAXZ:38.09
;Generated with Cura_SteamEngine 4.6.0
M140 S50
M105
M190 S50
M104 S200
M105
M109 S200
M82 ;absolute extrusion mode
M201 X500.00 Y500.00 Z100.00 E5000.00 ;Setup machine max acceleration
M203 X500.00 Y500.00 Z10.00 E50.00 ;Setup machine max feedrate
M204 P500.00 R1000.00 T500.00 ;Setup Print/Retract/Travel acceleration
M205 X8.00 Y8.00 Z0.40 E5.00 ;Setup Jerk
M220 S100 ;Reset Feedrate
M221 S100 ;Reset Flowrate

G28 ;Home

G92 E0 ;Reset Extruder
G1 Z2.0 F3000 ;Move Z Axis up
G1 X10.1 Y20 Z0.28 F5000.0 ;Move to start position
G1 X10.1 Y200.0 Z0.28 F1500.0 E15 ;Draw the first line
G1 X10.4 Y200.0 Z0.28 F5000.0 ;Move to side a little
G1 X10.4 Y20 Z0.28 F1500.0 E30 ;Draw the second line
G92 E0 ;Reset Extruder
G1 Z2.0 F3000 ;Move Z Axis up

G92 E0
G92 E0
G1 F2700 E-5
;LAYER_COUNT:185
;LAYER:-6
M107
G0 F12000 X16.21 Y59.405 Z0.24
;TYPE:SUPPORT-INTERFACE
G1 F2700 E0
G1 F1800 X16.383 Y59.359 E0.01429
G1 X16.383 Y59.358 E0.01437
G1 X17.278 Y59.158 E0.08757
G1 X17.408 Y59.135 E0.09811
G1 X18.313 Y59.001 E0.17114
G1 X18.482 Y58.983 E0.18471
G1 X19.555 Y58.908 E0.27057
G1 X20.06 Y58.9 E0.31088
G1 X199.968 Y58.9 E14.67192
G1 X200.003 Y58.901 E14.67471
G1 X201.127 Y58.946 E14.76451
G1 X202.044 Y59.048 E14.83816
G1 X202.219 Y59.073 E14.85227
G1 X203.108 Y59.237 E14.92443
G1 X203.231 Y59.265 E14.9345
G1 X204.125 Y59.499 E15.00827
G1 X204.288 Y59.548 E15.02185
G1 X205.13 Y59.835 E15.09286
G1 X205.13 Y59.834 E15.09294
G1 X205.296 Y59.898 E15.10714
G1 X206.099 Y60.239 E15.17678
G1 X206.288 Y60.327 E15.19343
G1 X207.082 Y60.736 E15.26472
G1 X207.082 Y60.735 E15.2648
G1 X207.199 Y60.801 E15.27552
G1 X207.199 Y60.802 E15.2756
G1 X207.978 Y61.276 E15.34839
G1 X208.129 Y61.376 E15.36285
G1 X208.843 Y61.887 E15.43294
G1 X208.991 Y62 E15.4478
G1 X209.682 Y62.576 E15.51961
G1 X209.795 Y62.677 E15.53171
G1 X210.444 Y63.302 E15.60363
G1 X210.564 Y63.427 E15.61746
G1 X211.167 Y64.098 E15.68948
G1 X211.263 Y64.214 E15.70149
G1 X211.822 Y64.938 E15.77451
G1 X211.916 Y65.069 E15.78738
G1 X212.416 Y65.823 E15.8596
G1 X212.492 Y65.949 E15.87134
G1 X212.938 Y66.743 E15.94404
G1 X213.016 Y66.893 E15.95754
G1 X213.399 Y67.708 E16.02942
G1 X213.459 Y67.851 E16.0418
G1 X213.788 Y68.71 E16.11522
G1 X213.84 Y68.86 E16.1279
G1 X214.095 Y69.71 E16.19873
G1 X214.141 Y69.883 E16.21302
G1 X214.142 Y69.883 E16.2131
G1 X214.34 Y70.769 E16.28557
G1 X214.365 Y70.908 E16.29685
G1 X214.498 Y71.807 E16.36939
G1 X214.516 Y71.969 E16.3824
G1 X214.592 Y73.055 E16.4693
G1 X214.6 Y73.556 E16.5093
G1 X214.6 Y146.486 E22.33089
G1 X214.564 Y147.492 E22.41124
G1 X214.554 Y147.627 E22.42205
G1 X214.452 Y148.544 E22.4957
G1 X214.427 Y148.719 E22.50981
G1 X214.265 Y149.597 E22.58108
G1 X214.235 Y149.731 E22.59204
G1 X214.004 Y150.616 E22.66505
G1 X213.952 Y150.788 E22.67939
G1 X213.676 Y151.6 E22.74785
G1 X213.596 Y151.809 E22.76572
G1 X213.261 Y152.599 E22.83421
G1 X213.18 Y152.774 E22.84961
G1 X212.764 Y153.582 E22.92215
G1 X212.698 Y153.699 E22.93287
G1 X212.224 Y154.478 E23.00566
G1 X212.124 Y154.629 E23.02012
G1 X211.613 Y155.343 E23.09021
G1 X211.5 Y155.491 E23.10507
G1 X210.924 Y156.182 E23.17688
G1 X210.823 Y156.295 E23.18898
G1 X210.198 Y156.944 E23.2609
G1 X210.073 Y157.064 E23.27473
G1 X209.403 Y157.666 E23.34663
G1 X209.286 Y157.763 E23.35876
G1 X208.574 Y158.313 E23.43058
G1 X208.415 Y158.426 E23.44615
G1 X207.677 Y158.916 E23.51687
G1 X207.551 Y158.992 E23.52861
G1 X206.757 Y159.438 E23.60131
G1 X206.606 Y159.516 E23.61487
G1 X205.792 Y159.899 E23.68668
G1 X205.649 Y159.959 E23.69906
G1 X204.79 Y160.288 E23.77249
G1 X204.64 Y160.34 E23.78516
G1 X203.79 Y160.595 E23.856
G1 X203.617 Y160.641 E23.87029
G1 X203.617 Y160.642 E23.87037
G1 X202.722 Y160.842 E23.94357
G1 X202.592 Y160.865 E23.95411
G1 X201.687 Y160.999 E24.02714
G1 X201.519 Y161.017 E24.04063
G1 X200.445 Y161.092 E24.12657
G1 X199.94 Y161.1 E24.16688
G1 X20.032 Y161.1 E38.52792
G1 X19.997 Y161.099 E38.53071
G1 X18.873 Y161.054 E38.62051
G1 X17.956 Y160.952 E38.69416
G1 X17.781 Y160.927 E38.70827
G1 X16.892 Y160.763 E38.78043
G1 X16.769 Y160.735 E38.7905
G1 X15.875 Y160.501 E38.86427
G1 X15.712 Y160.452 E38.87785
G1 X14.87 Y160.165 E38.94886
G1 X14.87 Y160.166 E38.94894
G1 X14.704 Y160.102 E38.96314
G1 X13.901 Y159.761 E39.03278
G1 X13.712 Y159.673 E39.04943
G1 X12.918 Y159.264 E39.12072
G1 X12.918 Y159.265 E39.1208
G1 X12.801 Y159.199 E39.13152
G1 X12.801 Y159.198 E39.1316
G1 X12.022 Y158.724 E39.20439
G1 X11.871 Y158.624 E39.21885
G1 X11.157 Y158.113 E39.28894
G1 X11.009 Y158 E39.3038
G1 X10.318 Y157.424 E39.37561
G1 X10.205 Y157.323 E39.38771
G1 X9.556 Y156.698 E39.45963
G1 X9.436 Y156.573 E39.47346
G1 X8.833 Y155.902 E39.54547
G1 X8.736 Y155.784 E39.55767
G1 X8.178 Y155.062 E39.63051
G1 X8.074 Y154.915 E39.64488
G1 X7.581 Y154.172 E39.71606
G1 X7.508 Y154.051 E39.72734
G1 X7.056 Y153.246 E39.80103
G1 X6.984 Y153.107 E39.81353
G1 X6.587 Y152.261 E39.88813
G1 X6.541 Y152.149 E39.89779
G1 X6.212 Y151.29 E39.97122
G1 X6.155 Y151.125 E39.98515
G1 X5.905 Y150.29 E40.05473
G1 X5.859 Y150.117 E40.06902
G1 X5.858 Y150.117 E40.0691
G1 X5.657 Y149.216 E40.14279
G1 X5.635 Y149.092 E40.15284
G1 X5.5 Y148.178 E40.22659
G1 X5.483 Y148.018 E40.23944
G1 X5.408 Y146.945 E40.3253
G1 X5.4 Y146.444 E40.36529
G1 X5.4 Y73.514 E46.18688
G1 X5.436 Y72.508 E46.26724
G1 X5.446 Y72.373 E46.27804
G1 X5.548 Y71.456 E46.35169
G1 X5.573 Y71.281 E46.3658
G1 X5.735 Y70.403 E46.43707
G1 X5.765 Y70.269 E46.44803
G1 X5.996 Y69.384 E46.52105
G1 X6.048 Y69.212 E46.53539
G1 X6.335 Y68.37 E46.6064
G1 X6.334 Y68.37 E46.60648
G1 X6.398 Y68.204 E46.62068
G1 X6.739 Y67.401 E46.69032
G1 X6.82 Y67.226 E46.70571
G1 X7.236 Y66.418 E46.77826
G1 X7.235 Y66.418 E46.77834
G1 X7.301 Y66.301 E46.78906
G1 X7.302 Y66.301 E46.78914
G1 X7.776 Y65.522 E46.86193
G1 X7.876 Y65.371 E46.87639
G1 X8.387 Y64.657 E46.94647
G1 X8.5 Y64.509 E46.96134
G1 X9.076 Y63.818 E47.03315
G1 X9.177 Y63.705 E47.04524
G1 X9.802 Y63.056 E47.11717
G1 X9.927 Y62.936 E47.131
G1 X10.598 Y62.333 E47.20301
G1 X10.714 Y62.237 E47.21503
G1 X11.426 Y61.687 E47.28685
G1 X11.585 Y61.574 E47.30242
G1 X12.323 Y61.084 E47.37313
G1 X12.449 Y61.008 E47.38488
G1 X13.243 Y60.562 E47.45757
G1 X13.393 Y60.484 E47.47107
G1 X14.208 Y60.101 E47.54295
G1 X14.351 Y60.041 E47.55533
G1 X15.21 Y59.712 E47.62876
G1 X15.36 Y59.66 E47.64143
G1 X16.21 Y59.405 E47.71227
G0 F12000 X16 Y59.468
G1 F1800 X16 Y160.533 E55.77971
G0 F12000 X17.6 Y160.893
G1 F1800 X17.6 Y59.106 E63.90479
G0 F12000 X19.2 Y58.932
G1 F1800 X19.2 Y161.067 E72.05765
G0 F12000 X20.8 Y161.1
G1 F1800 X20.8 Y58.9 E80.21569
G0 F12000 X22.4 Y58.9
G1 F1800 X22.4 Y161.1 E88.37374
G0 F12000 X24 Y161.1
G1 F1800 X24 Y58.9 E96.53179
G0 F12000 X25.6 Y58.9
G1 F1800 X25.6 Y161.1 E104.68983
G0 F12000 X27.2 Y161.1
G1 F1800 X27.2 Y58.9 E112.84788
G0 F12000 X28.8 Y58.9
G1 F1800 X28.8 Y161.1 E121.00592
G0 F12000 X30.4 Y161.1
G1 F1800 X30.4 Y58.9 E129.16397
G0 F12000 X32 Y58.9
G1 F1800 X32 Y161.1 E137.32202
G0 F12000 X33.6 Y161.1
G1 F1800 X33.6 Y58.9 E145.48006
G0 F12000 X35.2 Y58.9
G1 F1800 X35.2 Y161.1 E153.63811
G0 F12000 X36.8 Y161.1
G1 F1800 X36.8 Y58.9 E161.79615
G0 F12000 X38.4 Y58.9
G1 F1800 X38.4 Y161.1 E169.9542
G0 F12000 X40 Y161.1
G1 F1800 X40 Y58.9 E178.11224
G0 F12000 X41.6 Y58.9
G1 F1800 X41.6 Y161.1 E186.27029
G0 F12000 X43.2 Y161.1
G1 F1800 X43.2 Y58.9 E194.42834
G0 F12000 X44.8 Y58.9
G1 F1800 X44.8 Y161.1 E202.58638
G0 F12000 X46.4 Y161.1
G1 F1800 X46.4 Y58.9 E210.74443
G0 F12000 X48 Y58.9
G1 F1800 X48 Y161.1 E218.90247
G0 F12000 X49.6 Y161.1
G1 F1800 X49.6 Y58.9 E227.06052
G0 F12000 X51.2 Y58.9
G1 F1800 X51.2 Y161.1 E235.21857
G0 F12000 X52.8 Y161.1
G1 F1800 X52.8 Y58.9 E243.37661
G0 F12000 X54.4 Y58.9
G1 F1800 X54.4 Y161.1 E251.53466
G0 F12000 X56 Y161.1
G1 F1800 X56 Y58.9 E259.6927
G0 F12000 X57.6 Y58.9
G1 F1800 X57.6 Y161.1 E267.85075
G0 F12000 X59.2 Y161.1
G1 F1800 X59.2 Y58.9 E276.0088
G0 F12000 X60.8 Y58.9
G1 F1800 X60.8 Y161.1 E284.16684
G0 F12000 X62.4 Y161.1
G1 F1800 X62.4 Y58.9 E292.32489
G0 F12000 X64 Y58.9
G1 F1800 X64 Y161.1 E300.48293
G0 F12000 X65.6 Y161.1
G1 F1800 X65.6 Y58.9 E308.64098
G0 F12000 X67.2 Y58.9
G1 F1800 X67.2 Y161.1 E316.79903
G0 F12000 X68.8 Y161.1
G1 F1800 X68.8 Y58.9 E324.95707
G0 F12000 X70.4 Y58.9
G1 F1800 X70.4 Y161.1 E333.11512
G0 F12000 X72 Y161.1
G1 F1800 X72 Y58.9 E341.27316
G0 F12000 X73.6 Y58.9
G1 F1800 X73.6 Y161.1 E349.43121
G0 F12000 X75.2 Y161.1
G1 F1800 X75.2 Y58.9 E357.58926
G0 F12000 X76.8 Y58.9
G1 F1800 X76.8 Y161.1 E365.7473
G0 F12000 X78.4 Y161.1
G1 F1800 X78.4 Y58.9 E373.90535
G0 F12000 X80 Y58.9
G1 F1800 X80 Y161.1 E382.06339
G0 F12000 X81.6 Y161.1
G1 F1800 X81.6 Y58.9 E390.22144
G0 F12000 X83.2 Y58.9
G1 F1800 X83.2 Y161.1 E398.37948
G0 F12000 X84.8 Y161.1
G1 F1800 X84.8 Y58.9 E406.53753
G0 F12000 X86.4 Y58.9
G1 F1800 X86.4 Y161.1 E414.69558
G0 F12000 X88 Y161.1
G1 F1800 X88 Y58.9 E422.85362
G0 F12000 X89.6 Y58.9
G1 F1800 X89.6 Y161.1 E431.01167
G0 F12000 X91.2 Y161.1
G1 F1800 X91.2 Y58.9 E439.16971
G0 F12000 X92.8 Y58.9
G1 F1800 X92.8 Y161.1 E447.32776
G0 F12000 X94.4 Y161.1
G1 F1800 X94.4 Y58.9 E455.48581
G0 F12000 X96 Y58.9
G1 F1800 X96 Y161.1 E463.64385
G0 F12000 X97.6 Y161.1
G1 F1800 X97.6 Y58.9 E471.8019
G0 F12000 X99.2 Y58.9
G1 F1800 X99.2 Y161.1 E479.95994
G0 F12000 X100.8 Y161.1
G1 F1800 X100.8 Y58.9 E488.11799
G0 F12000 X102.4 Y58.9
G1 F1800 X102.4 Y161.1 E496.27604
G0 F12000 X104 Y161.1
G1 F1800 X104 Y58.9 E504.43408
G0 F12000 X105.6 Y58.9
G1 F1800 X105.6 Y161.1 E512.59213
G0 F12000 X107.2 Y161.1
G1 F1800 X107.2 Y58.9 E520.75017
G0 F12000 X108.8 Y58.9
G1 F1800 X108.8 Y161.1 E528.90822
G0 F12000 X110.4 Y161.1
G1 F1800 X110.4 Y58.9 E537.06627
G0 F12000 X112 Y58.9
G1 F1800 X112 Y161.1 E545.22431
G0 F12000 X113.6 Y161.1
G1 F1800 X113.6 Y58.9 E553.38236
G0 F12000 X115.2 Y58.9
G1 F1800 X115.2 Y161.1 E561.5404
G0 F12000 X116.8 Y161.1
G1 F1800 X116.8 Y58.9 E569.69845
G0 F12000 X118.4 Y58.9
G1 F1800 X118.4 Y161.1 E577.8565
G0 F12000 X120 Y161.1
G1 F1800 X120 Y58.9 E586.01454
G0 F12000 X121.6 Y58.9
G1 F1800 X121.6 Y161.1 E594.17259
G0 F12000 X123.2 Y161.1
G1 F1800 X123.2 Y58.9 E602.33063
G0 F12000 X124.8 Y58.9
G1 F1800 X124.8 Y161.1 E610.48868
G0 F12000 X126.4 Y161.1
G1 F1800 X126.4 Y58.9 E618.64672
G0 F12000 X128 Y58.9
G1 F1800 X128 Y161.1 E626.80477
G0 F12000 X129.6 Y161.1
G1 F1800 X129.6 Y58.9 E634.96282
G0 F12000 X131.2 Y58.9
G1 F1800 X131.2 Y161.1 E643.12086
G0 F12000 X132.8 Y161.1
G1 F1800 X132.8 Y58.9 E651.27891
G0 F12000 X134.4 Y58.9
G1 F1800 X134.4 Y161.1 E659.43695
G0 F12000 X136 Y161.1
G1 F1800 X136 Y58.9 E667.595
G0 F12000 X137.6 Y58.9
G1 F1800 X137.6 Y161.1 E675.75305
G0 F12000 X139.2 Y161.1
G1 F1800 X139.2 Y58.9 E683.91109
G0 F12000 X140.8 Y58.9
G1 F1800 X140.8 Y161.1 E692.06914
G0 F12000 X142.4 Y161.1
G1 F1800 X142.4 Y58.9 E700.22718
G0 F12000 X144 Y58.9
G1 F1800 X144 Y161.1 E708.38523
G0 F12000 X145.6 Y161.1
G1 F1800 X145.6 Y58.9 E716.54328
G0 F12000 X147.2 Y58.9
G1 F1800 X147.2 Y161.1 E724.70132
G0 F12000 X148.8 Y161.1
G1 F1800 X148.8 Y58.9 E732.85937
G0 F12000 X150.4 Y58.9
G1 F1800 X150.4 Y161.1 E741.01741
G0 F12000 X152 Y161.1
G1 F1800 X152 Y58.9 E749.17546
G0 F12000 X153.6 Y58.9
G1 F1800 X153.6 Y161.1 E757.33351
G0 F12000 X155.2 Y161.1
G1 F1800 X155.2 Y58.9 E765.49155
G0 F12000 X156.8 Y58.9
G1 F1800 X156.8 Y161.1 E773.6496
G0 F12000 X158.4 Y161.1
G1 F1800 X158.4 Y58.9 E781.80764
G0 F12000 X160 Y58.9
G1 F1800 X160 Y161.1 E789.96569
G0 F12000 X161.6 Y161.1
G1 F1800 X161.6 Y58.9 E798.12374
G0 F12000 X163.2 Y58.9
G1 F1800 X163.2 Y161.1 E806.28178
G0 F12000 X164.8 Y161.1
G1 F1800 X164.8 Y58.9 E814.43983
G0 F12000 X166.4 Y58.9
G1 F1800 X166.4 Y161.1 E822.59787
G0 F12000 X168 Y161.1
G1 F1800 X168 Y58.9 E830.75592
G0 F12000 X169.6 Y58.9
G1 F1800 X169.6 Y161.1 E838.91396
G0 F12000 X171.2 Y161.1
G1 F1800 X171.2 Y58.9 E847.07201
G0 F12000 X172.8 Y58.9
G1 F1800 X172.8 Y161.1 E855.23006
G0 F12000 X174.4 Y161.1
G1 F1800 X174.4 Y58.9 E863.3881
G0 F12000 X176 Y58.9
G1 F1800 X176 Y161.1 E871.54615
G0 F12000 X177.6 Y161.1
G1 F1800 X177.6 Y58.9 E879.70419
G0 F12000 X179.2 Y58.9
G1 F1800 X179.2 Y161.1 E887.86224
G0 F12000 X180.8 Y161.1
G1 F1800 X180.8 Y58.9 E896.02029
G0 F12000 X182.4 Y58.9
G1 F1800 X182.4 Y161.1 E904.17833
G0 F12000 X184 Y161.1
G1 F1800 X184 Y58.9 E912.33638
G0 F12000 X185.6 Y58.9
G1 F1800 X185.6 Y161.1 E920.49442
G0 F12000 X187.2 Y161.1
G1 F1800 X187.2 Y58.9 E928.65247
G0 F12000 X188.8 Y58.9
G1 F1800 X188.8 Y161.1 E936.81052
G0 F12000 X190.4 Y161.1
G1 F1800 X190.4 Y58.9 E944.96856
G0 F12000 X192 Y58.9
G1 F1800 X192 Y161.1 E953.12661
G0 F12000 X193.6 Y161.1
G1 F1800 X193.6 Y58.9 E961.28465
G0 F12000 X195.2 Y58.9
G1 F1800 X195.2 Y161.1 E969.4427
G0 F12000 X196.8 Y161.1
G1 F1800 X196.8 Y58.9 E977.60075
G0 F12000 X198.4 Y58.9
G1 F1800 X198.4 Y161.1 E985.75879
G0 F12000 X200 Y161.1
G1 F1800 X200 Y58.901 E993.91676
G0 F12000 X201.6 Y58.999
G1 F1800 X201.6 Y161.009 E1002.05964
G0 F12000 X203.2 Y160.736
G1 F1800 X203.2 Y59.258 E1010.16005
G0 F12000 X204.8 Y59.723
G1 F1800 X204.8 Y160.285 E1018.18734
G0 F12000 X206.4 Y159.613
G1 F1800 X206.4 Y60.385 E1026.10815
G0 F12000 X208 Y61.291
G1 F1800 X208 Y158.702 E1033.88392
G0 F12000 X209.6 Y157.489
G1 F1800 X209.6 Y62.508 E1041.46571
G0 F12000 X211.2 Y64.138
G1 F1800 X211.2 Y155.851 E1048.78664
G0 F12000 X212.8 Y153.513
G1 F1800 X212.8 Y66.498 E1055.73255
G1 F2700 E1050.73255
G0 F12000 X213.966 Y66.414
G0 X214.787 Y68.341
G0 X214.896 Y68.703
G0 X215.385 Y70.566
G0 X214.4 Y71.145
G1 F2700 E1055.73255
G1 F1800 X214.4 Y148.866 E1061.93658
G1 F2700 E1056.93658
G0 F12000 X215.447 Y149.059
G0 X214.964 Y151.12
G0 X214.231 Y153.038
G0 X213.613 Y154.243
G0 X212.466 Y155.981
G0 X211.608 Y157.014
G0 X210.103 Y158.468
G0 X209.023 Y159.299
G0 X207.257 Y160.378
G0 X206.039 Y160.95
G0 X204.073 Y161.621
G0 X202.758 Y161.917
G0 X200.69 Y162.146
G0 X18.943 Y162.126
G0 X17.617 Y161.979
G0 X15.976 Y161.614
G0 X14.3 Y161.087
G0 X14.4 Y159.972
G1 F2700 E1061.93658
G1 F1800 X14.4 Y60.022 E1069.91502
G0 F12000 X12.8 Y60.81
G1 F1800 X12.8 Y159.197 E1077.7687
G0 F12000 X11.2 Y158.143
G1 F1800 X11.2 Y61.861 E1085.45434
G0 F12000 X9.6 Y63.265
G1 F1800 X9.6 Y156.74 E1092.91592
G0 F12000 X8 Y154.803
G1 F1800 X8 Y65.197 E1100.06866
G0 F12000 X6.4 Y68.199
G1 F1800 X6.4 Y151.78 E1106.74046
G1 F2700 E1101.74046
G0 F300 X6.4 Y151.78 Z0.54
G0 F12000 X5.55 Y152.538
G0 X6.122 Y153.757
G0 X7.201 Y155.523
G0 X7.436 Y155.828
G0 X8.645 Y157.284
G0 X9.436 Y156.572
;TIME_ELAPSED:487.964281
;LAYER:-5
M140 S50
;TYPE:SUPPORT
G1 F2700 E1106.74046
G1 F1800 X9.555 Y156.697 E1106.75768
G1 X10.204 Y157.322 E1106.84758
G1 X10.318 Y157.423 E1106.86278
G1 X10.48 Y157.558 E1106.88382
G1 X8.92 Y155.999 E1107.10388
G1 X8.833 Y155.901 E1107.11696
G1 X8.736 Y155.783 E1107.1322
G1 X8.178 Y155.061 E1107.22325
G1 X8.073 Y154.914 E1107.24127
G1 X7.58 Y154.171 E1107.33025
G1 X7.508 Y154.05 E1107.3443
G1 X7.056 Y153.244 E1107.4365
G1 X6.984 Y153.106 E1107.45203
G1 X6.586 Y152.26 E1107.54532
G1 X6.579 Y152.243 E1107.54716
G1 X14.239 Y159.903 E1108.62807
G1 X14.704 Y160.1 E1108.67846
G1 X14.87 Y160.165 E1108.69624
G0 F12000 X14.869 Y160.164
G1 F1800 X15.711 Y160.451 E1108.785
G1 X15.874 Y160.5 E1108.80199
G1 X16.383 Y160.633 E1108.85448
G1 X5.854 Y150.104 E1110.34024
G1 X5.656 Y149.215 E1110.43112
G1 X5.634 Y149.091 E1110.44368
G1 X5.526 Y148.362 E1110.51721
G1 X18.135 Y160.971 E1112.29648
G1 X18.872 Y161.053 E1112.37047
G1 X19.663 Y161.085 E1112.44946
G1 X5.405 Y146.827 E1114.46142
G1 X5.399 Y146.443 E1114.49974
G1 X5.399 Y145.406 E1114.60321
G1 X21.092 Y161.099 E1116.81767
G1 X22.506 Y161.099 E1116.95876
G1 X5.399 Y143.992 E1119.37274
G1 X5.399 Y142.578 E1119.51383
G1 X23.92 Y161.099 E1122.12734
G1 X25.334 Y161.099 E1122.26843
G1 X5.399 Y141.163 E1125.08154
G1 X5.399 Y139.749 E1125.22263
G1 X26.749 Y161.099 E1128.23535
G1 X28.163 Y161.099 E1128.37644
G1 X5.399 Y138.335 E1131.58869
G1 X5.399 Y136.921 E1131.72978
G1 X29.577 Y161.099 E1135.14155
G1 X30.991 Y161.099 E1135.28264
G1 X5.399 Y135.507 E1138.89395
G1 X5.399 Y134.092 E1139.03514
