;FLAVOR:Marlin
;TIME:17286
;Filament used: 18.8137m
;Layer height: 0.2
;MINX:14.336
;MINY:60.836
;MINZ:0.24
;MAXX:205.244
;MAXY:159.165
;MAXZ:31.09
;Generated with Cura_SteamEngine 4.6.0
M140 S50
M105
M190 S50
M104 S200
M105
M109 S200
M82 ;absolute extrusion mode
M201 X500.00 Y500.00 Z100.00 E5000.00 ;Setup machine max acceleration
M203 X500.00 Y500.00 Z10.00 E50.00 ;Setup machine max feedrate
M204 P500.00 R1000.00 T500.00 ;Setup Print/Retract/Travel acceleration
M205 X8.00 Y8.00 Z0.40 E5.00 ;Setup Jerk
M220 S100 ;Reset Feedrate
M221 S100 ;Reset Flowrate

G28 ;Home

G92 E0 ;Reset Extruder
G1 Z2.0 F3000 ;Move Z Axis up
G1 X10.1 Y20 Z0.28 F5000.0 ;Move to start position
G1 X10.1 Y200.0 Z0.28 F1500.0 E15 ;Draw the first line
G1 X10.4 Y200.0 Z0.28 F5000.0 ;Move to side a little
G1 X10.4 Y20 Z0.28 F1500.0 E30 ;Draw the second line
G92 E0 ;Reset Extruder
G1 Z2.0 F3000 ;Move Z Axis up

G92 E0
G92 E0
G1 F2700 E-5
;LAYER_COUNT:150
;LAYER:-6
M107
G0 F12000 X24.351 Y63.041 Z0.24
;TYPE:SUPPORT-INTERFACE
G1 F2700 E0
G1 F1800 X25.21 Y62.712 E0.07343
G1 X25.36 Y62.66 E0.0861
G1 X26.21 Y62.405 E0.15694
G1 X26.383 Y62.359 E0.17123
G1 X26.383 Y62.358 E0.17131
G1 X27.278 Y62.158 E0.24451
G1 X27.408 Y62.135 E0.25505
G1 X28.313 Y62.001 E0.32808
G1 X28.482 Y61.983 E0.34164
G1 X29.555 Y61.908 E0.42751
G1 X30.06 Y61.9 E0.46782
G1 X189.968 Y61.9 E13.23237
G1 X190.003 Y61.901 E13.23516
G1 X191.127 Y61.946 E13.32496
G1 X192.044 Y62.048 E13.39861
G1 X192.219 Y62.073 E13.41272
G1 X193.108 Y62.237 E13.48488
G1 X193.231 Y62.265 E13.49495
G1 X194.125 Y62.499 E13.56872
G1 X194.288 Y62.548 E13.5823
G1 X195.13 Y62.835 E13.65331
G1 X195.13 Y62.834 E13.65339
G1 X195.296 Y62.898 E13.6676
G1 X196.099 Y63.239 E13.73723
G1 X196.288 Y63.327 E13.75388
G1 X197.082 Y63.736 E13.82517
G1 X197.082 Y63.735 E13.82525
G1 X197.199 Y63.801 E13.83597
G1 X197.199 Y63.802 E13.83605
G1 X197.978 Y64.276 E13.90884
G1 X198.129 Y64.376 E13.9233
G1 X198.843 Y64.887 E13.99339
G1 X198.991 Y65 E14.00825
G1 X199.682 Y65.576 E14.08006
G1 X199.795 Y65.677 E14.09216
G1 X200.444 Y66.302 E14.16408
G1 X200.564 Y66.427 E14.17791
G1 X201.167 Y67.098 E14.24993
G1 X201.263 Y67.214 E14.26195
G1 X201.822 Y67.938 E14.33496
G1 X201.916 Y68.069 E14.34783
G1 X202.416 Y68.823 E14.42005
G1 X202.492 Y68.949 E14.4318
G1 X202.938 Y69.743 E14.50449
G1 X203.016 Y69.893 E14.51799
G1 X203.399 Y70.708 E14.58987
G1 X203.459 Y70.851 E14.60225
G1 X203.788 Y71.71 E14.67567
G1 X203.84 Y71.86 E14.68835
G1 X204.095 Y72.71 E14.75918
G1 X204.141 Y72.883 E14.77347
G1 X204.142 Y72.883 E14.77355
G1 X204.34 Y73.769 E14.84602
G1 X204.365 Y73.908 E14.8573
G1 X204.498 Y74.807 E14.92984
G1 X204.516 Y74.969 E14.94285
G1 X204.592 Y76.055 E15.02975
G1 X204.6 Y76.556 E15.06975
G1 X204.6 Y143.486 E20.41239
G1 X204.564 Y144.492 E20.49275
G1 X204.554 Y144.627 E20.50355
G1 X204.452 Y145.544 E20.5772
G1 X204.427 Y145.719 E20.59131
G1 X204.265 Y146.597 E20.66258
G1 X204.235 Y146.731 E20.67354
G1 X204.004 Y147.616 E20.74655
G1 X203.952 Y147.788 E20.7609
G1 X203.676 Y148.6 E20.82936
G1 X203.596 Y148.809 E20.84722
G1 X203.261 Y149.599 E20.91572
G1 X203.18 Y149.774 E20.93111
G1 X202.764 Y150.582 E21.00365
G1 X202.698 Y150.699 E21.01438
G1 X202.224 Y151.478 E21.08717
G1 X202.124 Y151.629 E21.10162
G1 X201.613 Y152.343 E21.17171
G1 X201.5 Y152.491 E21.18658
G1 X200.924 Y153.182 E21.25838
G1 X200.823 Y153.295 E21.27048
G1 X200.198 Y153.944 E21.34241
G1 X200.073 Y154.064 E21.35624
G1 X199.403 Y154.666 E21.42814
G1 X199.286 Y154.763 E21.44027
G1 X198.574 Y155.313 E21.51209
G1 X198.415 Y155.426 E21.52766
G1 X197.677 Y155.916 E21.59837
G1 X197.551 Y155.992 E21.61012
G1 X196.757 Y156.438 E21.68281
G1 X196.606 Y156.516 E21.69638
G1 X195.792 Y156.899 E21.76819
G1 X195.649 Y156.959 E21.78057
G1 X194.79 Y157.288 E21.85399
G1 X194.64 Y157.34 E21.86667
G1 X193.79 Y157.595 E21.9375
G1 X193.617 Y157.641 E21.95179
G1 X193.617 Y157.642 E21.95187
G1 X192.722 Y157.842 E22.02508
G1 X192.592 Y157.865 E22.03562
G1 X191.687 Y157.999 E22.10864
G1 X191.519 Y158.017 E22.12213
G1 X190.445 Y158.092 E22.20807
G1 X189.94 Y158.1 E22.24839
G1 X30.032 Y158.1 E35.01294
G1 X29.997 Y158.099 E35.01573
G1 X28.873 Y158.054 E35.10553
G1 X27.956 Y157.952 E35.17918
G1 X27.781 Y157.927 E35.19329
G1 X26.892 Y157.763 E35.26545
G1 X26.769 Y157.735 E35.27552
G1 X25.875 Y157.501 E35.34929
G1 X25.712 Y157.452 E35.36287
G1 X24.87 Y157.165 E35.43388
G1 X24.87 Y157.166 E35.43396
G1 X24.704 Y157.102 E35.44816
G1 X23.901 Y156.761 E35.5178
G1 X23.712 Y156.673 E35.53444
G1 X22.918 Y156.264 E35.60574
G1 X22.918 Y156.265 E35.60582
G1 X22.801 Y156.199 E35.61654
G1 X22.801 Y156.198 E35.61662
G1 X22.022 Y155.724 E35.68941
G1 X21.871 Y155.624 E35.70387
G1 X21.157 Y155.113 E35.77396
G1 X21.009 Y155 E35.78882
G1 X20.318 Y154.424 E35.86063
G1 X20.205 Y154.323 E35.87273
G1 X19.556 Y153.698 E35.94465
G1 X19.436 Y153.573 E35.95848
G1 X18.833 Y152.902 E36.03049
G1 X18.736 Y152.784 E36.04269
G1 X18.178 Y152.062 E36.11553
G1 X18.074 Y151.915 E36.1299
G1 X17.581 Y151.172 E36.20108
G1 X17.508 Y151.051 E36.21236
G1 X17.056 Y150.246 E36.28605
G1 X16.984 Y150.107 E36.29855
G1 X16.587 Y149.261 E36.37315
G1 X16.541 Y149.149 E36.38281
G1 X16.212 Y148.29 E36.45624
G1 X16.155 Y148.125 E36.47017
G1 X15.905 Y147.29 E36.53975
G1 X15.859 Y147.117 E36.55404
G1 X15.858 Y147.117 E36.55412
G1 X15.657 Y146.216 E36.62781
G1 X15.635 Y146.092 E36.63786
G1 X15.5 Y145.178 E36.71161
G1 X15.483 Y145.018 E36.72446
G1 X15.408 Y143.945 E36.81032
G1 X15.4 Y143.444 E36.85031
G1 X15.4 Y76.514 E42.19295
G1 X15.436 Y75.508 E42.27331
G1 X15.446 Y75.373 E42.28412
G1 X15.548 Y74.456 E42.35777
G1 X15.573 Y74.281 E42.37188
G1 X15.735 Y73.403 E42.44315
G1 X15.765 Y73.269 E42.45411
G1 X15.996 Y72.384 E42.52712
G1 X16.048 Y72.212 E42.54146
G1 X16.335 Y71.37 E42.61247
G1 X16.334 Y71.37 E42.61255
G1 X16.398 Y71.204 E42.62675
G1 X16.739 Y70.401 E42.69639
G1 X16.82 Y70.226 E42.71178
G1 X17.236 Y69.418 E42.78433
G1 X17.235 Y69.418 E42.78441
G1 X17.301 Y69.301 E42.79513
G1 X17.302 Y69.301 E42.79521
G1 X17.776 Y68.522 E42.868
G1 X17.876 Y68.371 E42.88246
G1 X18.387 Y67.657 E42.95255
G1 X18.5 Y67.509 E42.96741
G1 X19.076 Y66.818 E43.03922
G1 X19.177 Y66.705 E43.05132
G1 X19.802 Y66.056 E43.12324
G1 X19.927 Y65.936 E43.13707
G1 X20.598 Y65.333 E43.20908
G1 X20.714 Y65.237 E43.2211
G1 X21.426 Y64.687 E43.29292
G1 X21.585 Y64.574 E43.30849
G1 X22.323 Y64.084 E43.3792
G1 X22.449 Y64.008 E43.39095
G1 X23.243 Y63.562 E43.46364
G1 X23.393 Y63.484 E43.47714
G1 X24.208 Y63.101 E43.54902
G1 X24.351 Y63.041 E43.5614
G0 F12000 X24 Y63.198
G1 F1800 X24 Y156.803 E51.03336
G0 F12000 X25.6 Y157.413
G1 F1800 X25.6 Y62.588 E58.6027
G0 F12000 X27.2 Y62.175
G1 F1800 X27.2 Y157.819 E66.23742
G0 F12000 X28.8 Y158.045
G1 F1800 X28.8 Y61.96 E73.90734
G0 F12000 X30.4 Y61.9
G1 F1800 X30.4 Y158.1 E81.58644
G0 F12000 X32 Y158.1
G1 F1800 X32 Y61.9 E89.26554
G0 F12000 X33.6 Y61.9
G1 F1800 X33.6 Y158.1 E96.94464
G0 F12000 X35.2 Y158.1
G1 F1800 X35.2 Y61.9 E104.62374
G0 F12000 X36.8 Y61.9
G1 F1800 X36.8 Y158.1 E112.30284
G0 F12000 X38.4 Y158.1
G1 F1800 X38.4 Y61.9 E119.98194
G0 F12000 X40 Y61.9
G1 F1800 X40 Y158.1 E127.66104
G0 F12000 X41.6 Y158.1
G1 F1800 X41.6 Y61.9 E135.34014
G0 F12000 X43.2 Y61.9
G1 F1800 X43.2 Y158.1 E143.01924
G0 F12000 X44.8 Y158.1
G1 F1800 X44.8 Y61.9 E150.69834
G0 F12000 X46.4 Y61.9
G1 F1800 X46.4 Y158.1 E158.37744
G0 F12000 X48 Y158.1
G1 F1800 X48 Y61.9 E166.05654
G0 F12000 X49.6 Y61.9
G1 F1800 X49.6 Y158.1 E173.73564
G0 F12000 X51.2 Y158.1
G1 F1800 X51.2 Y61.9 E181.41474
G0 F12000 X52.8 Y61.9
G1 F1800 X52.8 Y158.1 E189.09384
G0 F12000 X54.4 Y158.1
G1 F1800 X54.4 Y61.9 E196.77294
G0 F12000 X56 Y61.9
G1 F1800 X56 Y158.1 E204.45204
G0 F12000 X57.6 Y158.1
G1 F1800 X57.6 Y61.9 E212.13114
G0 F12000 X59.2 Y61.9
G1 F1800 X59.2 Y158.1 E219.81024
G0 F12000 X60.8 Y158.1
G1 F1800 X60.8 Y61.9 E227.48934
G0 F12000 X62.4 Y61.9
G1 F1800 X62.4 Y158.1 E235.16844
G0 F12000 X64 Y158.1
G1 F1800 X64 Y61.9 E242.84754
G0 F12000 X65.6 Y61.9
G1 F1800 X65.6 Y158.1 E250.52664
G0 F12000 X67.2 Y158.1
G1 F1800 X67.2 Y61.9 E258.20574
G0 F12000 X68.8 Y61.9
G1 F1800 X68.8 Y158.1 E265.88484
G0 F12000 X70.4 Y158.1
G1 F1800 X70.4 Y61.9 E273.56394
G0 F12000 X72 Y61.9
G1 F1800 X72 Y158.1 E281.24304
G0 F12000 X73.6 Y158.1
G1 F1800 X73.6 Y61.9 E288.92214
G0 F12000 X75.2 Y61.9
G1 F1800 X75.2 Y158.1 E296.60124
G0 F12000 X76.8 Y158.1
G1 F1800 X76.8 Y61.9 E304.28034
G0 F12000 X78.4 Y61.9
G1 F1800 X78.4 Y158.1 E311.95944
G0 F12000 X80 Y158.1
G1 F1800 X80 Y61.9 E319.63854
G0 F12000 X81.6 Y61.9
G1 F1800 X81.6 Y158.1 E327.31764
G0 F12000 X83.2 Y158.1
G1 F1800 X83.2 Y61.9 E334.99674
G0 F12000 X84.8 Y61.9
G1 F1800 X84.8 Y158.1 E342.67584
G0 F12000 X86.4 Y158.1
G1 F1800 X86.4 Y61.9 E350.35494
G0 F12000 X88 Y61.9
G1 F1800 X88 Y158.1 E358.03404
G0 F12000 X89.6 Y158.1
G1 F1800 X89.6 Y61.9 E365.71314
G0 F12000 X91.2 Y61.9
G1 F1800 X91.2 Y158.1 E373.39224
G0 F12000 X92.8 Y158.1
G1 F1800 X92.8 Y61.9 E381.07134
G0 F12000 X94.4 Y61.9
G1 F1800 X94.4 Y158.1 E388.75044
G0 F12000 X96 Y158.1
G1 F1800 X96 Y61.9 E396.42954
G0 F12000 X97.6 Y61.9
G1 F1800 X97.6 Y158.1 E404.10864
G0 F12000 X99.2 Y158.1
G1 F1800 X99.2 Y61.9 E411.78774
G0 F12000 X100.8 Y61.9
G1 F1800 X100.8 Y158.1 E419.46684
G0 F12000 X102.4 Y158.1
G1 F1800 X102.4 Y61.9 E427.14594
G0 F12000 X104 Y61.9
G1 F1800 X104 Y158.1 E434.82504
G0 F12000 X105.6 Y158.1
G1 F1800 X105.6 Y61.9 E442.50414
G0 F12000 X107.2 Y61.9
G1 F1800 X107.2 Y158.1 E450.18324
G0 F12000 X108.8 Y158.1
G1 F1800 X108.8 Y61.9 E457.86234
G0 F12000 X110.4 Y61.9
G1 F1800 X110.4 Y158.1 E465.54144
G0 F12000 X112 Y158.1
G1 F1800 X112 Y61.9 E473.22054
G0 F12000 X113.6 Y61.9
G1 F1800 X113.6 Y158.1 E480.89964
G0 F12000 X115.2 Y158.1
G1 F1800 X115.2 Y61.9 E488.57874
G0 F12000 X116.8 Y61.9
G1 F1800 X116.8 Y158.1 E496.25784
G0 F12000 X118.4 Y158.1
G1 F1800 X118.4 Y61.9 E503.93694
G0 F12000 X120 Y61.9
G1 F1800 X120 Y158.1 E511.61604
G0 F12000 X121.6 Y158.1
G1 F1800 X121.6 Y61.9 E519.29514
G0 F12000 X123.2 Y61.9
G1 F1800 X123.2 Y158.1 E526.97424
G0 F12000 X124.8 Y158.1
G1 F1800 X124.8 Y61.9 E534.65334
G0 F12000 X126.4 Y61.9
G1 F1800 X126.4 Y158.1 E542.33244
G0 F12000 X128 Y158.1
G1 F1800 X128 Y61.9 E550.01154
G0 F12000 X129.6 Y61.9
G1 F1800 X129.6 Y158.1 E557.69064
G0 F12000 X131.2 Y158.1
G1 F1800 X131.2 Y61.9 E565.36974
G0 F12000 X132.8 Y61.9
G1 F1800 X132.8 Y158.1 E573.04884
G0 F12000 X134.4 Y158.1
G1 F1800 X134.4 Y61.9 E580.72794
G0 F12000 X136 Y61.9
G1 F1800 X136 Y158.1 E588.40704
G0 F12000 X137.6 Y158.1
G1 F1800 X137.6 Y61.9 E596.08614
G0 F12000 X139.2 Y61.9
G1 F1800 X139.2 Y158.1 E603.76524
G0 F12000 X140.8 Y158.1
G1 F1800 X140.8 Y61.9 E611.44434
G0 F12000 X142.4 Y61.9
G1 F1800 X142.4 Y158.1 E619.12344
G0 F12000 X144 Y158.1
G1 F1800 X144 Y61.9 E626.80254
G0 F12000 X145.6 Y61.9
G1 F1800 X145.6 Y158.1 E634.48164
G0 F12000 X147.2 Y158.1
G1 F1800 X147.2 Y61.9 E642.16074
G0 F12000 X148.8 Y61.9
G1 F1800 X148.8 Y158.1 E649.83984
G0 F12000 X150.4 Y158.1
G1 F1800 X150.4 Y61.9 E657.51894
G0 F12000 X152 Y61.9
G1 F1800 X152 Y158.1 E665.19804
G0 F12000 X153.6 Y158.1
G1 F1800 X153.6 Y61.9 E672.87714
G0 F12000 X155.2 Y61.9
G1 F1800 X155.2 Y158.1 E680.55624
G0 F12000 X156.8 Y158.1
G1 F1800 X156.8 Y61.9 E688.23534
G0 F12000 X158.4 Y61.9
G1 F1800 X158.4 Y158.1 E695.91444
G0 F12000 X160 Y158.1
G1 F1800 X160 Y61.9 E703.59354
G0 F12000 X161.6 Y61.9
G1 F1800 X161.6 Y158.1 E711.27264
G0 F12000 X163.2 Y158.1
G1 F1800 X163.2 Y61.9 E718.95174
G0 F12000 X164.8 Y61.9
G1 F1800 X164.8 Y158.1 E726.63084
G0 F12000 X166.4 Y158.1
G1 F1800 X166.4 Y61.9 E734.30994
G0 F12000 X168 Y61.9
G1 F1800 X168 Y158.1 E741.98904
G0 F12000 X169.6 Y158.1
G1 F1800 X169.6 Y61.9 E749.66814
G0 F12000 X171.2 Y61.9
G1 F1800 X171.2 Y158.1 E757.34724
G0 F12000 X172.8 Y158.1
G1 F1800 X172.8 Y61.9 E765.02634
G0 F12000 X174.4 Y61.9
G1 F1800 X174.4 Y158.1 E772.70544
G0 F12000 X176 Y158.1
G1 F1800 X176 Y61.9 E780.38454
G0 F12000 X177.6 Y61.9
G1 F1800 X177.6 Y158.1 E788.06364
G0 F12000 X179.2 Y158.1
G1 F1800 X179.2 Y61.9 E795.74274
G0 F12000 X180.8 Y61.9
G1 F1800 X180.8 Y158.1 E803.42184
G0 F12000 X182.4 Y158.1
G1 F1800 X182.4 Y61.9 E811.10094
G0 F12000 X184 Y61.9
G1 F1800 X184 Y158.1 E818.78004
G0 F12000 X185.6 Y158.1
G1 F1800 X185.6 Y61.9 E826.45914
G0 F12000 X187.2 Y61.9
G1 F1800 X187.2 Y158.1 E834.13824
G0 F12000 X188.8 Y158.1
G1 F1800 X188.8 Y61.9 E841.81734
G0 F12000 X190.4 Y61.917
G1 F1800 X190.4 Y158.093 E849.49452
G0 F12000 X192 Y157.953
G1 F1800 X192 Y62.044 E857.15039
G0 F12000 X193.6 Y62.362
G1 F1800 X193.6 Y157.646 E864.75637
G0 F12000 X195.2 Y157.131
G1 F1800 X195.2 Y62.861 E872.28141
G0 F12000 X196.8 Y63.591
G1 F1800 X196.8 Y156.414 E879.69094
G0 F12000 X198.4 Y155.436
G1 F1800 X198.4 Y64.57 E886.94426
G0 F12000 X200 Y65.875
G1 F1800 X200 Y154.13 E893.98916
G0 F12000 X201.6 Y152.361
G1 F1800 X201.6 Y67.651 E900.75107
G0 F12000 X203.2 Y70.285
G1 F1800 X203.2 Y149.731 E907.0928
G1 F2700 E902.0928
G0 F12000 X204.132 Y150.249
G0 X203.126 Y152.043
G0 X202.338 Y153.148
G0 X200.945 Y154.703
G0 X199.944 Y155.599
G0 X198.24 Y156.819
G0 X197.086 Y157.466
G0 X195.159 Y158.287
G0 X193.878 Y158.673
G0 X191.82 Y159.055
G0 X189.947 Y159.165
G0 X28.943 Y159.126
G0 X27.617 Y158.979
G0 X25.59 Y158.527
G0 X24.3 Y158.087
G0 X23.768 Y157.838
G0 X22.257 Y157.113
G0 X22.4 Y155.954
G1 F2700 E907.0928
G1 F1800 X22.4 Y64.037 E914.43001
G0 F12000 X20.8 Y65.17
G1 F1800 X20.8 Y154.825 E921.58666
G0 F12000 X19.2 Y153.31
G1 F1800 X19.2 Y66.681 E928.50176
G0 F12000 X17.6 Y68.811
G1 F1800 X17.6 Y151.2 E935.07841
G0 F12000 X16 Y147.607
G1 F1800 X16 Y72.37 E941.08415
G1 F2700 E936.08415
G0 F300 X16 Y72.37 Z0.54
G0 F12000 X15.036 Y71.88
G0 X15.769 Y69.962
G0 X16.387 Y68.757
G0 X17.534 Y67.019
G0 X18.392 Y65.986
G0 X19.897 Y64.532
G0 X20.977 Y63.701
G0 X22.743 Y62.622
G0 X23.961 Y62.05
G0 X25.927 Y61.379
G0 X26.382 Y62.357
;TIME_ELAPSED:416.572155
;LAYER:-5
M140 S50
;TYPE:SUPPORT
G1 F2700 E941.08415
G1 F1800 X26.889 Y62.244 E941.13598
G1 X122.743 Y158.099 E954.66209
G1 X124.158 Y158.099 E954.80328
G1 X28.092 Y62.033 E968.35923
G1 X28.312 Y62 E968.38142
G1 X28.482 Y61.982 E968.39848
G1 X29.392 Y61.919 E968.4895
G1 X125.572 Y158.099 E982.06153
G1 X126.986 Y158.099 E982.20262
G1 X30.787 Y61.9 E995.77734
G1 X32.201 Y61.9 E995.91843
G1 X128.4 Y158.099 E1009.49315
G1 X129.814 Y158.099 E1009.63424
G1 X33.615 Y61.9 E1023.20896
G1 X35.03 Y61.9 E1023.35015
G1 X131.229 Y158.099 E1036.92486
G1 X132.643 Y158.099 E1037.06595
G1 X36.444 Y61.9 E1050.64067
G1 X37.858 Y61.9 E1050.78176
G1 X134.057 Y158.099 E1064.35648
G1 X135.471 Y158.099 E1064.49757
G1 X39.272 Y61.9 E1078.07229
G1 X40.686 Y61.9 E1078.21338
G1 X136.885 Y158.099 E1091.78809
G1 X138.3 Y158.099 E1091.92928
G1 X42.101 Y61.9 E1105.504
G1 X43.515 Y61.9 E1105.64509
G1 X139.714 Y158.099 E1119.21981
G1 X141.128 Y158.099 E1119.3609
G1 X44.929 Y61.9 E1132.93562
G1 X46.343 Y61.9 E1133.07671
G1 X142.542 Y158.099 E1146.65142
G1 X143.957 Y158.099 E1146.79261
G1 X47.757 Y61.9 E1160.3674
G1 X49.172 Y61.9 E1160.50859
G1 X145.371 Y158.099 E1174.08331
G1 X146.785 Y158.099 E1174.2244
G1 X50.586 Y61.9 E1187.79912
G1 X52 Y61.9 E1187.94021
G1 X148.199 Y158.099 E1201.51493
G1 X149.613 Y158.099 E1201.65601
G1 X53.414 Y61.9 E1215.23073
G1 X54.829 Y61.9 E1215.37192
G1 X151.028 Y158.099 E1228.94664
G1 X152.442 Y158.099 E1229.08773
G1 X56.243 Y61.9 E1242.66245
G1 X57.657 Y61.9 E1242.80354
G1 X153.856 Y158.099 E1256.37826
G1 X155.27 Y158.099 E1256.51934
G1 X59.071 Y61.9 E1270.09406
G1 X60.485 Y61.9 E1270.23515
G1 X156.684 Y158.099 E1283.80987
G1 X158.099 Y158.099 E1283.95106
G1 X61.9 Y61.9 E1297.52578
G1 X63.314 Y61.9 E1297.66687
G1 X159.513 Y158.099 E1311.24159
G1 X160.927 Y158.099 E1311.38267
G1 X64.728 Y61.9 E1324.95739
G1 X66.142 Y61.9 E1325.09848
G1 X162.341 Y158.099 E1338.6732
G1 X163.756 Y158.099 E1338.81439
G1 X67.556 Y61.9 E1352.38918
G1 X68.971 Y61.9 E1352.53037
G1 X165.17 Y158.099 E1366.10509
G1 X166.584 Y158.099 E1366.24617
G1 X70.385 Y61.9 E1379.82089
G1 X71.799 Y61.9 E1379.96198
G1 X167.998 Y158.099 E1393.5367
G1 X169.412 Y158.099 E1393.67779
G1 X73.213 Y61.9 E1407.25251
G1 X74.628 Y61.9 E1407.3937
G1 X170.827 Y158.099 E1420.96842
