;FLAVOR:Marlin
;TIME:988
;Filament used: 0.888016m
;Layer height: 0.2
;MINX:88.847
;MINY:88.841
;MINZ:0.24
;MAXX:131.138
;MAXY:131.141
;MAXZ:8.09
;Generated with Cura_SteamEngine 4.8.0
M140 S50
M105
M190 S50
M104 S200
M105
M109 S200
M82 ;absolute extrusion mode
M201 X500.00 Y500.00 Z100.00 E5000.00 ;Setup machine max acceleration
M203 X500.00 Y500.00 Z10.00 E50.00 ;Setup machine max feedrate
M204 P500.00 R1000.00 T500.00 ;Setup Print/Retract/Travel acceleration
M205 X8.00 Y8.00 Z0.40 E5.00 ;Setup Jerk
M220 S100 ;Reset Feedrate
M221 S100 ;Reset Flowrate

G28 ;Home

G92 E0 ;Reset Extruder
G1 Z2.0 F3000 ;Move Z Axis up
G1 X10.1 Y20 Z0.28 F5000.0 ;Move to start position
G1 X10.1 Y200.0 Z0.28 F1500.0 E15 ;Draw the first line
G1 X10.4 Y200.0 Z0.28 F5000.0 ;Move to side a little
G1 X10.4 Y20 Z0.28 F1500.0 E30 ;Draw the second line
G92 E0 ;Reset Extruder
G1 Z2.0 F3000 ;Move Z Axis up

G92 E0
G92 E0
G1 F2700 E-5
;LAYER_COUNT:35
;LAYER:-6
M107
G0 F12000 X94.21 Y94.744 Z0.24
;TYPE:SUPPORT-INTERFACE
G1 F2700 E0
G1 F1800 X95.145 Y93.842 E0.1037
G1 X95.254 Y93.744 E0.11541
G1 X95.513 Y93.523 E0.14258
G1 X95.598 Y93.455 E0.15127
G1 X96.642 Y92.667 E0.25568
G1 X96.77 Y92.577 E0.26817
G1 X97.121 Y92.348 E0.30163
G1 X97.854 Y91.906 E0.36995
G1 X97.996 Y91.825 E0.383
G1 X98.35 Y91.64 E0.41489
G1 X98.722 Y91.455 E0.44805
G1 X98.827 Y91.405 E0.45733
G1 X99.615 Y91.053 E0.52623
G1 X99.685 Y91.025 E0.53224
G1 X100.143 Y90.854 E0.57127
G1 X100.554 Y90.711 E0.60601
G1 X100.624 Y90.689 E0.61186
G1 X101.852 Y90.341 E0.71375
G1 X101.984 Y90.308 E0.72461
G1 X102.32 Y90.233 E0.75209
G1 X103.211 Y90.072 E0.82436
G1 X103.382 Y90.048 E0.83815
G1 X103.893 Y89.988 E0.87922
G1 X104.364 Y89.948 E0.91695
G1 X105.216 Y89.905 E0.98505
G1 X105.342 Y89.903 E0.99511
G1 X105.774 Y89.909 E1.0296
G1 X106.17 Y89.921 E1.06122
G1 X106.32 Y89.929 E1.07321
G1 X107.106 Y89.987 E1.13612
G1 X107.282 Y90.005 E1.15025
G1 X107.729 Y90.067 E1.18627
G1 X108.072 Y90.121 E1.21399
G1 X108.223 Y90.15 E1.22626
G1 X108.817 Y90.28 E1.2748
G1 X109.479 Y90.382 E1.32826
G1 X110.167 Y90.401 E1.3832
G1 X111.106 Y90.281 E1.45877
G1 X111.435 Y90.211 E1.48562
G1 X112.211 Y90.072 E1.54855
G1 X112.382 Y90.048 E1.56233
G1 X112.893 Y89.988 E1.6034
G1 X113.364 Y89.948 E1.64114
G1 X114.216 Y89.905 E1.70923
G1 X114.342 Y89.903 E1.71929
G1 X114.774 Y89.909 E1.75378
G1 X115.17 Y89.921 E1.7854
G1 X115.32 Y89.929 E1.79739
G1 X116.106 Y89.987 E1.86031
G1 X116.282 Y90.005 E1.87443
G1 X116.729 Y90.067 E1.91045
G1 X117.086 Y90.123 E1.9393
G1 X117.25 Y90.156 E1.95265
G1 X118.438 Y90.417 E2.04974
G1 X118.614 Y90.46 E2.06421
G1 X119.011 Y90.574 E2.09718
G1 X119.819 Y90.84 E2.16508
G1 X119.97 Y90.894 E2.17788
G1 X120.378 Y91.057 E2.21295
G1 X120.777 Y91.227 E2.24757
G1 X120.875 Y91.271 E2.25615
G1 X121.616 Y91.624 E2.32167
G1 X121.76 Y91.698 E2.33459
G1 X122.154 Y91.916 E2.37054
G1 X122.479 Y92.105 E2.40055
G1 X122.586 Y92.172 E2.41062
G1 X123.665 Y92.89 E2.51408
G1 X123.755 Y92.953 E2.52285
G1 X124.13 Y93.239 E2.5605
G1 X124.754 Y93.751 E2.62493
G1 X124.892 Y93.873 E2.63963
G1 X125.226 Y94.186 E2.67617
G1 X125.495 Y94.447 E2.70609
G1 X125.592 Y94.546 E2.71715
G1 X126.133 Y95.117 E2.77994
G1 X126.252 Y95.25 E2.79419
G1 X126.513 Y95.564 E2.82678
G1 X126.759 Y95.872 E2.85825
G1 X126.858 Y96.003 E2.87135
G1 X127.607 Y97.064 E2.97502
G1 X127.664 Y97.15 E2.98326
G1 X127.881 Y97.5 E3.01613
G1 X128.324 Y98.287 E3.08822
G1 X128.374 Y98.381 E3.09672
G1 X128.567 Y98.778 E3.13196
G1 X128.746 Y99.169 E3.16629
G1 X128.786 Y99.261 E3.17429
G1 X129.098 Y100.021 E3.23987
G1 X129.155 Y100.175 E3.25298
G1 X129.292 Y100.577 E3.28688
G1 X129.413 Y100.961 E3.31902
G1 X129.456 Y101.113 E3.33163
G1 X129.768 Y102.363 E3.43447
G1 X129.792 Y102.468 E3.44307
G1 X129.857 Y102.818 E3.47149
G1 X129.876 Y102.943 E3.48158
G1 X130.033 Y104.218 E3.58412
G1 X130.05 Y104.403 E3.59895
G1 X130.074 Y104.818 E3.63214
G1 X130.092 Y105.656 E3.69904
G1 X130.091 Y105.8 E3.71054
G1 X130.074 Y106.216 E3.74377
G1 X130.047 Y106.644 E3.77801
G1 X130.037 Y106.765 E3.7877
G1 X129.952 Y107.594 E3.85422
G1 X129.935 Y107.716 E3.86405
G1 X129.867 Y108.129 E3.89746
G1 X129.783 Y108.573 E3.93353
G1 X129.659 Y109.127 E3.97885
G1 X129.675 Y109.132 E3.98019
G1 X129.632 Y109.367 E3.99926
G1 X129.594 Y110.048 E4.0537
G1 X129.643 Y110.728 E4.10812
G1 X129.753 Y111.305 E4.15501
G1 X129.771 Y111.376 E4.16086
G1 X129.793 Y111.478 E4.16919
G1 X129.857 Y111.818 E4.19681
G1 X129.876 Y111.943 E4.2069
G1 X130.033 Y113.218 E4.30944
G1 X130.05 Y113.403 E4.32427
G1 X130.074 Y113.818 E4.35746
G1 X130.092 Y114.656 E4.42436
G1 X130.091 Y114.8 E4.43586
G1 X130.074 Y115.216 E4.46909
G1 X130.047 Y115.644 E4.50333
G1 X130.037 Y115.765 E4.51302
G1 X129.952 Y116.594 E4.57954
G1 X129.935 Y116.716 E4.58937
G1 X129.86 Y117.169 E4.62602
G1 X129.783 Y117.573 E4.65885
G1 X129.75 Y117.721 E4.67096
G1 X129.437 Y118.954 E4.7725
G1 X129.399 Y119.088 E4.78362
G1 X129.303 Y119.387 E4.80869
G1 X129.251 Y119.538 E4.82144
G1 X128.783 Y120.739 E4.92433
G1 X128.721 Y120.884 E4.93692
G1 X128.547 Y121.262 E4.97013
G1 X128.145 Y122.048 E5.0406
G1 X128.095 Y122.14 E5.04896
G1 X127.876 Y122.509 E5.08322
G1 X127.607 Y122.941 E5.12384
G1 X127.132 Y123.642 E5.19143
G1 X127.036 Y123.775 E5.20452
G1 X126.782 Y124.104 E5.2377
G1 X126.516 Y124.434 E5.27154
G1 X126.451 Y124.51 E5.27952
G1 X125.562 Y125.484 E5.38479
G1 X125.487 Y125.562 E5.39342
G1 X125.172 Y125.866 E5.42837
G1 X124.511 Y126.458 E5.4992
G1 X124.431 Y126.525 E5.50753
G1 X124.025 Y126.843 E5.5487
G1 X123.714 Y127.076 E5.57972
G1 X123.628 Y127.137 E5.58813
G1 X122.545 Y127.854 E5.69181
G1 X122.463 Y127.904 E5.69948
G1 X122.137 Y128.093 E5.72956
G1 X121.306 Y128.532 E5.80458
G1 X121.209 Y128.58 E5.81322
G1 X120.76 Y128.781 E5.85249
G1 X120.349 Y128.955 E5.88811
G1 X119.528 Y129.264 E5.95814
G1 X119.409 Y129.304 E5.96816
G1 X119.025 Y129.422 E6.00022
G1 X118.606 Y129.541 E6.03499
G1 X118.445 Y129.582 E6.04826
G1 X117.19 Y129.856 E6.1508
G1 X117.048 Y129.883 E6.16233
G1 X116.733 Y129.932 E6.18778
G1 X116.589 Y129.952 E6.19939
G1 X115.775 Y130.045 E6.26479
G1 X115.653 Y130.055 E6.27456
G1 X115.211 Y130.077 E6.30988
G1 X114.793 Y130.09 E6.34326
G1 X114.684 Y130.09 E6.35197
G1 X113.346 Y130.05 E6.45882
G1 X113.242 Y130.043 E6.46714
G1 X112.878 Y130.009 E6.49632
G1 X112.797 Y130 E6.50283
G1 X111.932 Y129.886 E6.57247
G1 X111.832 Y129.868 E6.58058
G1 X111.383 Y129.78 E6.61711
G1 X111.106 Y129.72 E6.63973
G1 X110.444 Y129.618 E6.6932
G1 X109.756 Y129.599 E6.74814
G1 X108.825 Y129.717 E6.82305
G1 X108.19 Y129.856 E6.87494
G1 X108.048 Y129.883 E6.88648
G1 X107.733 Y129.932 E6.91192
G1 X107.589 Y129.952 E6.92353
G1 X106.775 Y130.045 E6.98893
G1 X106.653 Y130.055 E6.9987
G1 X106.211 Y130.077 E7.03402
G1 X105.793 Y130.09 E7.06741
G1 X105.684 Y130.09 E7.07611
G1 X104.346 Y130.05 E7.18296
G1 X104.242 Y130.043 E7.19128
G1 X103.878 Y130.009 E7.22046
G1 X103.797 Y130 E7.22697
G1 X102.932 Y129.886 E7.29661
G1 X102.832 Y129.868 E7.30472
G1 X102.354 Y129.774 E7.34361
G1 X101.979 Y129.691 E7.37427
G1 X101.855 Y129.66 E7.38447
G1 X100.615 Y129.307 E7.48739
G1 X100.489 Y129.267 E7.49794
G1 X100.076 Y129.121 E7.53291
G1 X99.259 Y128.797 E7.60306
G1 X99.168 Y128.757 E7.611
G1 X98.733 Y128.551 E7.64942
G1 X98.305 Y128.337 E7.68762
G1 X97.54 Y127.915 E7.75736
G1 X97.431 Y127.851 E7.76745
G1 X97.071 Y127.623 E7.80146
G1 X96.738 Y127.402 E7.83337
G1 X96.631 Y127.327 E7.8438
G1 X95.605 Y126.55 E7.94653
G1 X95.462 Y126.435 E7.96118
G1 X95.203 Y126.214 E7.98836
G1 X94.526 Y125.587 E8.06202
G1 X94.427 Y125.489 E8.07313
G1 X94.115 Y125.16 E8.10933
G1 X93.844 Y124.864 E8.14136
G1 X93.237 Y124.143 E8.2166
G1 X93.161 Y124.046 E8.22643
G1 X92.882 Y123.667 E8.264
G1 X92.671 Y123.37 E8.29308
G1 X92.592 Y123.253 E8.30435
G1 X92.154 Y122.579 E8.36852
G1 X92.071 Y122.441 E8.38137
G1 X91.84 Y122.029 E8.41907
G1 X91.684 Y121.737 E8.4455
G1 X91.599 Y121.572 E8.46032
G1 X91.259 Y120.87 E8.52258
G1 X91.205 Y120.748 E8.53323
G1 X91.031 Y120.325 E8.56974
G1 X90.89 Y119.962 E8.60083
G1 X90.583 Y119.068 E8.67628
G1 X90.541 Y118.934 E8.68749
G1 X90.416 Y118.473 E8.72562
G1 X90.31 Y118.044 E8.76089
G1 X90.134 Y117.194 E8.83018
G1 X90.108 Y117.047 E8.8421
G1 X90.049 Y116.632 E8.87556
G1 X89.989 Y116.137 E8.91536
G1 X89.918 Y115.271 E8.98472
G1 X89.912 Y115.147 E8.99463
G1 X89.904 Y114.667 E9.03295
G1 X89.905 Y114.308 E9.06161
G1 X89.91 Y114.157 E9.07367
G1 X89.986 Y112.911 E9.17331
G1 X90 Y112.758 E9.18558
G1 X90.054 Y112.331 E9.21993
G1 X90.195 Y111.476 E9.28911
G1 X90.219 Y111.35 E9.29934
G1 X90.257 Y111.187 E9.3127
G1 X90.365 Y110.526 E9.36617
G1 X90.39 Y109.838 E9.42112
G1 X90.282 Y108.91 E9.4957
G1 X90.134 Y108.195 E9.55398
G1 X90.108 Y108.047 E9.56598
G1 X90.049 Y107.632 E9.59944
G1 X89.989 Y107.137 E9.63924
G1 X89.918 Y106.271 E9.7086
G1 X89.912 Y106.147 E9.71851
G1 X89.904 Y105.667 E9.75683
G1 X89.905 Y105.308 E9.78549
G1 X89.91 Y105.157 E9.79755
G1 X89.986 Y103.911 E9.8972
G1 X90 Y103.758 E9.90946
G1 X90.054 Y103.331 E9.94382
G1 X90.195 Y102.477 E10.01291
G1 X90.224 Y102.329 E10.02495
G1 X90.333 Y101.858 E10.06354
G1 X90.417 Y101.527 E10.0908
G1 X90.462 Y101.36 E10.1046
G1 X90.695 Y100.577 E10.16982
G1 X90.729 Y100.477 E10.17825
G1 X90.879 Y100.066 E10.21317
G1 X91.067 Y99.586 E10.25432
G1 X91.408 Y98.807 E10.3222
G1 X91.471 Y98.676 E10.3338
G1 X91.685 Y98.261 E10.37108
G1 X91.853 Y97.951 E10.39922
G1 X91.93 Y97.819 E10.41142
G1 X92.601 Y96.739 E10.51292
G1 X92.688 Y96.607 E10.52553
G1 X92.887 Y96.327 E10.55296
G1 X92.964 Y96.223 E10.56328
G1 X93.441 Y95.604 E10.62566
G1 X93.559 Y95.46 E10.64053
G1 X93.836 Y95.146 E10.67395
G1 X94.117 Y94.84 E10.70711
G1 X94.21 Y94.744 E10.71778
G0 F12000 X94.4 Y94.56
G1 F1800 X94.4 Y125.46 E13.18435
G0 F12000 X96 Y126.849
G1 F1800 X96 Y93.151 E15.87427
G0 F12000 X97.6 Y92.059
G1 F1800 X97.6 Y127.948 E18.73909
G0 F12000 X99.2 Y128.771
G1 F1800 X99.2 Y91.238 E21.73514
G0 F12000 X100.8 Y90.639
G1 F1800 X100.8 Y129.359 E24.82593
G0 F12000 X102.4 Y129.783
G1 F1800 X102.4 Y90.218 E27.98418
G0 F12000 X104 Y89.978
G1 F1800 X104 Y130.02 E31.18051
G0 F12000 X105.6 Y130.087
G1 F1800 X105.6 Y89.907 E34.38785
G0 F12000 X107.2 Y89.997
G1 F1800 X107.2 Y129.997 E37.58082
G0 F12000 X108.8 Y129.723
G1 F1800 X108.8 Y90.277 E40.72957
G0 F12000 X110.4 Y90.371
G1 F1800 X110.4 Y129.616 E43.86228
G0 F12000 X112 Y129.894
G1 F1800 X112 Y90.109 E47.03809
G0 F12000 X113.6 Y89.936
G1 F1800 X113.6 Y130.057 E50.24072
G0 F12000 X115.2 Y130.078
G1 F1800 X115.2 Y89.923 E53.44607
G0 F12000 X116.8 Y90.079
G1 F1800 X116.8 Y129.922 E56.62651
G0 F12000 X118.4 Y129.592
G1 F1800 X118.4 Y90.409 E59.75426
G0 F12000 X120 Y90.906
G1 F1800 X120 Y129.087 E62.80204
G0 F12000 X121.6 Y128.377
G1 F1800 X121.6 Y91.617 E65.73638
G0 F12000 X123.2 Y92.581
G1 F1800 X123.2 Y127.421 E68.51746
G0 F12000 X124.8 Y126.2
G1 F1800 X124.8 Y93.792 E71.1044
G0 F12000 X126.4 Y95.429
G1 F1800 X126.4 Y124.566 E73.43025
G0 F12000 X128 Y122.301
G1 F1800 X128 Y97.712 E75.39305
G0 F12000 X129.6 Y101.69
G1 F1800 X129.6 Y109.941 E76.05168
G0 F12000 X129.6 Y110.132
G1 F1800 X129.6 Y118.312 E76.70464
G1 F2700 E71.70464
G0 F12000 X130.633 Y118.572
G0 X130.248 Y119.912
G0 X129.497 Y121.741
G0 X128.493 Y123.53
G0 X127.329 Y125.12
G0 X125.883 Y126.658
G0 X124.338 Y127.939
G0 X122.559 Y129.075
G0 X120.727 Y129.949
G0 X119.732 Y130.321
G0 X117.408 Y130.898
G0 X115.257 Y131.141
G0 X104.303 Y131.113
G0 X102.13 Y130.815
G0 X99.692 Y130.114
G0 X97.8 Y129.274
G0 X96.011 Y128.192
G0 X94.426 Y126.946
G0 X93.26 Y125.774
G0 X92.076 Y124.368
G0 X92.8 Y123.551
G1 F2700 E76.70464
G1 F1800 X92.8 Y96.449 E78.86804
G0 F12000 X91.2 Y99.282
G1 F1800 X91.2 Y120.735 E80.58051
G0 F300 X91.2 Y120.735 Z0.54
G0 F12000 X91.34 Y121.039
;TIME_ELAPSED:42.959800
;LAYER:-5
;TYPE:SUPPORT
G1 F1800 X98.958 Y128.656 E81.65542
G1 X98.733 Y128.55 E81.68024
G1 X98.305 Y128.336 E81.72798
G1 X97.539 Y127.914 E81.81525
G1 X97.43 Y127.85 E81.82786
G1 X97.07 Y127.622 E81.87038
G1 X96.737 Y127.4 E81.91031
G1 X96.631 Y127.326 E81.92321
G1 X95.605 Y126.549 E82.05163
G1 X95.461 Y126.434 E82.07002
G1 X95.202 Y126.213 E82.10399
G1 X94.526 Y125.586 E82.19599
G1 X94.427 Y125.488 E82.20989
G1 X94.114 Y125.159 E82.2552
G1 X93.843 Y124.863 E82.29524
G1 X93.236 Y124.141 E82.38936
G1 X93.161 Y124.044 E82.4016
G1 X92.882 Y123.666 E82.44848
G1 X92.671 Y123.369 E82.48483
G1 X92.592 Y123.252 E82.49891
G1 X92.154 Y122.578 E82.57912
G1 X92.07 Y122.439 E82.59532
G1 X91.84 Y122.028 E82.64232
G1 X91.684 Y121.736 E82.67535
G1 X91.598 Y121.571 E82.69392
G1 F2700 E77.69392
G0 F12000 X90.742 Y122.234
G0 X91.798 Y123.979
G0 X93.054 Y125.577
G0 X94.505 Y127.018
G0 X96.5 Y128.521
G0 X98.26 Y129.504
G0 X98.958 Y128.656
G1 F2700 E82.69392
G1 F1800 X99.168 Y128.756 E82.71713
G1 X99.258 Y128.795 E82.72691
G1 X100.076 Y129.119 E82.8147
G1 X100.489 Y129.266 E82.85844
G1 X100.614 Y129.306 E82.87154
G1 X101.184 Y129.468 E82.93067
G1 X90.5 Y118.784 E84.4383
G1 X90.415 Y118.472 E84.47056
G1 X90.31 Y118.042 E84.51473
G1 X90.134 Y117.193 E84.60124
G1 X90.108 Y117.045 E84.61624
G1 X90.096 Y116.966 E84.62421
G1 X103.027 Y129.897 E86.44891
G1 X103.796 Y129.999 E86.52632
G1 X103.878 Y130.008 E86.53455
G1 X104.241 Y130.042 E86.57093
G1 X104.346 Y130.049 E86.58143
G1 X104.6 Y130.056 E86.60678
G1 X89.927 Y115.382 E88.67737
G1 X89.917 Y115.27 E88.68859
G1 X89.912 Y115.145 E88.70107
G1 X89.903 Y114.666 E88.74888
G1 X89.905 Y114.307 E88.7847
G1 X89.91 Y114.156 E88.79977
G1 X89.921 Y113.962 E88.81916
G1 X106.039 Y130.08 E91.09358
G1 X106.21 Y130.075 E91.11065
G1 X106.652 Y130.053 E91.15481
G1 X106.775 Y130.044 E91.16712
G1 X107.35 Y129.978 E91.22487
G1 X90.013 Y112.641 E93.67131
G1 X90.053 Y112.33 E93.70259
G1 X90.195 Y111.474 E93.78917
G1 X90.205 Y111.418 E93.79485
G1 X108.559 Y129.773 E96.38487
G1 X108.825 Y129.715 E96.41203
G1 X109.755 Y129.598 E96.50556
G1 X109.8 Y129.599 E96.51005
G1 X90.377 Y110.176 E99.25085
G1 X90.39 Y109.837 E99.2847
G1 X90.282 Y108.909 E99.37792
G1 X90.218 Y108.603 E99.40911
G1 X111.396 Y129.78 E102.39748
G1 X111.831 Y129.867 E102.44175
G1 X111.932 Y129.885 E102.45199
G1 X112.796 Y129.999 E102.53894
G1 X112.878 Y130.008 E102.54717
G1 X113.054 Y130.024 E102.56481
G1 X89.972 Y106.943 E105.82186
G1 X89.917 Y106.27 E105.88923
G1 X89.912 Y106.145 E105.90172
G1 X89.903 Y105.666 E105.94952
G1 X89.904 Y105.46 E105.97007
G1 X114.527 Y130.084 E109.44472
G1 X114.684 Y130.089 E109.46039
G1 X114.793 Y130.089 E109.47126
G1 X115.211 Y130.075 E109.513
G1 X115.652 Y130.053 E109.55705
G1 X115.774 Y130.044 E109.56926
G1 X115.888 Y130.03 E109.58072
G1 X89.972 Y104.115 E113.23768
G1 X89.985 Y103.91 E113.25817
G1 X89.999 Y103.757 E113.2735
G1 X90.053 Y103.33 E113.31645
G1 X90.131 Y102.859 E113.36409
G1 X117.137 Y129.865 E117.17492
G1 X117.189 Y129.855 E117.18021
G1 X118.298 Y129.612 E117.29349
G1 X90.375 Y101.689 E121.23373
G1 X90.417 Y101.525 E121.25062
G1 X90.461 Y101.359 E121.26775
G1 X90.69 Y100.59 E121.34782
G1 X119.404 Y129.303 E125.3996
G1 X119.409 Y129.302 E125.40011
G1 X119.527 Y129.263 E125.41251
G1 X120.348 Y128.954 E125.50004
G1 X120.433 Y128.918 E125.50925
G1 X91.076 Y99.562 E129.65177
G1 X91.408 Y98.806 E129.73416
G1 X91.471 Y98.675 E129.74866
G1 X91.516 Y98.587 E129.75852
G1 X121.406 Y128.477 E133.97633
G1 X122.137 Y128.092 E134.05876
G1 X122.325 Y127.982 E134.0805
G1 X92.017 Y97.674 E138.35728
G1 X92.56 Y96.802 E138.45978
G1 X123.185 Y127.428 E142.78137
G1 X123.627 Y127.136 E142.83423
G1 X123.713 Y127.075 E142.84475
G1 X124.018 Y126.846 E142.88281
G1 X93.15 Y95.979 E147.23854
G1 X93.441 Y95.603 E147.28598
G1 X93.558 Y95.459 E147.3045
G1 X93.786 Y95.2 E147.33893
G1 X124.79 Y126.205 E151.714
G1 X125.172 Y125.865 E151.76502
G1 X125.486 Y125.561 E151.80863
G1 X125.524 Y125.524 E151.81393
G1 X94.481 Y94.481 E156.19443
G1 X95.144 Y93.841 E156.28638
G1 X95.203 Y93.789 E156.29422
G1 X126.199 Y124.785 E160.66809
G1 X126.45 Y124.51 E160.70524
G1 X126.515 Y124.433 E160.7153
G1 X126.781 Y124.104 E160.75751
G1 X126.847 Y124.019 E160.76825
G1 X95.988 Y93.159 E165.12286
G1 X96.64 Y92.667 E165.20436
G1 X96.768 Y92.577 E165.21997
G1 X96.8 Y92.557 E165.22374
G1 X127.436 Y123.193 E169.54681
