;FLAVOR:Marlin
;TIME:383
;Filament used: 0.199117m
;Layer height: 0.2
;MINX:99.035
;MINY:99.9
;MINZ:0.24
;MAXX:120.824
;MAXY:120.95
;MAXZ:5.09
;Generated with Cura_SteamEngine 4.8.0
M140 S50
M105
M190 S50
M104 S200
M105
M109 S200
M82 ;absolute extrusion mode
M201 X500.00 Y500.00 Z100.00 E5000.00 ;Setup machine max acceleration
M203 X500.00 Y500.00 Z10.00 E50.00 ;Setup machine max feedrate
M204 P500.00 R1000.00 T500.00 ;Setup Print/Retract/Travel acceleration
M205 X8.00 Y8.00 Z0.40 E5.00 ;Setup Jerk
M220 S100 ;Reset Feedrate
M221 S100 ;Reset Flowrate

G28 ;Home

G92 E0 ;Reset Extruder
G1 Z2.0 F3000 ;Move Z Axis up
G1 X10.1 Y20 Z0.28 F5000.0 ;Move to start position
G1 X10.1 Y200.0 Z0.28 F1500.0 E15 ;Draw the first line
G1 X10.4 Y200.0 Z0.28 F5000.0 ;Move to side a little
G1 X10.4 Y20 Z0.28 F1500.0 E30 ;Draw the second line
G92 E0 ;Reset Extruder
G1 Z2.0 F3000 ;Move Z Axis up

G92 E0
G92 E0
G1 F2700 E-5
;LAYER_COUNT:20
;LAYER:-6
M106 S255
G0 F12000 X102.631 Y103.355 Z0.24
;TYPE:SUPPORT-INTERFACE
G1 F2700 E0
G1 F1693.7 X102.833 Y103.157 E0.02258
G1 X103.052 Y102.967 E0.04572
G1 X103.267 Y102.803 E0.06731
G1 X103.535 Y102.625 E0.09299
G1 X103.63 Y102.57 E0.10175
G1 X104.188 Y102.199 E0.15524
G1 X104.236 Y102.157 E0.16033
G1 X104.244 Y102.165 E0.16123
G1 X104.875 Y101.606 E0.22853
G1 X105.097 Y101.432 E0.25104
G1 X105.343 Y101.265 E0.27478
G1 X105.616 Y101.102 E0.30016
G1 X105.835 Y100.987 E0.3199
G1 X106.072 Y100.879 E0.34069
G1 X106.422 Y100.737 E0.37084
G1 X106.57 Y100.683 E0.38342
G1 X106.942 Y100.56 E0.41469
G1 X107.208 Y100.492 E0.43661
G1 X107.487 Y100.438 E0.45929
G1 X107.803 Y100.398 E0.48472
G1 X108.062 Y100.381 E0.50544
G1 X108.2 Y100.381 E0.51646
G1 X108.864 Y100.339 E0.56956
G1 X109.296 Y100.266 E0.60454
G1 X109.741 Y100.172 E0.64084
G1 X110.029 Y100.13 E0.66408
G1 X110.321 Y100.107 E0.68746
G1 X110.628 Y100.101 E0.71197
G1 X110.889 Y100.112 E0.73282
G1 X111.147 Y100.136 E0.7535
G1 X111.232 Y100.146 E0.76034
G1 X111.538 Y100.189 E0.785
G1 X111.688 Y100.216 E0.79717
G1 X112.058 Y100.292 E0.82732
G1 X112.328 Y100.366 E0.84967
G1 X112.604 Y100.46 E0.87294
G1 X112.873 Y100.573 E0.89623
G1 X113.139 Y100.703 E0.91986
G1 X113.296 Y100.794 E0.93435
G1 X113.895 Y101.087 E0.98758
G1 X114.308 Y101.239 E1.02271
G1 X114.657 Y101.35 E1.05194
G1 X114.931 Y101.458 E1.07545
G1 X115.183 Y101.576 E1.09766
G1 X115.461 Y101.728 E1.12295
G1 X115.686 Y101.867 E1.14407
G1 X115.973 Y102.071 E1.17217
G1 X116.211 Y102.254 E1.19614
G1 X116.314 Y102.339 E1.2068
G1 X116.596 Y102.586 E1.23672
G1 X116.813 Y102.803 E1.26122
G1 X117.007 Y103.022 E1.28457
G1 X117.176 Y103.238 E1.30647
G1 X117.348 Y103.49 E1.33082
G1 X117.475 Y103.706 E1.35082
G1 X117.85 Y104.255 E1.40389
G1 X118.096 Y104.548 E1.43443
G1 X118.357 Y104.837 E1.46552
G1 X118.547 Y105.077 E1.48995
G1 X118.713 Y105.316 E1.51318
G1 X118.877 Y105.587 E1.53847
G1 X118.984 Y105.787 E1.55657
G1 X119.084 Y106.001 E1.57543
G1 X119.132 Y106.109 E1.58486
G1 X119.255 Y106.406 E1.61052
G1 X119.293 Y106.506 E1.61906
G1 X119.42 Y106.876 E1.65029
G1 X119.492 Y107.139 E1.67205
G1 X119.557 Y107.451 E1.69749
G1 X119.595 Y107.72 E1.71918
G1 X119.617 Y108.01 E1.74239
G1 X119.621 Y108.3 E1.76555
G1 X119.673 Y108.963 E1.81863
G1 X119.739 Y109.34 E1.84918
G1 X119.818 Y109.704 E1.87892
G1 X119.862 Y109.998 E1.90265
G1 X119.888 Y110.3 E1.92684
G1 X119.895 Y110.59 E1.95
G1 X119.884 Y110.882 E1.97332
G1 X119.86 Y111.141 E1.99409
G1 X119.848 Y111.241 E2.00213
G1 X119.804 Y111.545 E2.02665
G1 X119.779 Y111.686 E2.03808
G1 X119.698 Y112.075 E2.06979
G1 X119.624 Y112.342 E2.09191
G1 X119.532 Y112.609 E2.11445
G1 X119.419 Y112.88 E2.13789
G1 X119.287 Y113.147 E2.16167
G1 X119.22 Y113.263 E2.17236
G1 X118.925 Y113.86 E2.22552
G1 X118.765 Y114.296 E2.26259
G1 X118.65 Y114.658 E2.29291
G1 X118.542 Y114.931 E2.31634
G1 X118.421 Y115.19 E2.33916
G1 X118.272 Y115.464 E2.36406
G1 X118.144 Y115.668 E2.38328
G1 X117.98 Y115.902 E2.40609
G1 X117.889 Y116.024 E2.41824
G1 X117.714 Y116.246 E2.44081
G1 X117.619 Y116.358 E2.45253
G1 X117.367 Y116.638 E2.4826
G1 X117.159 Y116.844 E2.50597
G1 X116.939 Y117.035 E2.52922
G1 X116.715 Y117.206 E2.55172
G1 X116.477 Y117.364 E2.57452
G1 X116.337 Y117.445 E2.58743
G1 X115.784 Y117.813 E2.64046
G1 X115.457 Y118.084 E2.67436
G1 X115.139 Y118.368 E2.70839
G1 X114.943 Y118.521 E2.72824
G1 X114.639 Y118.724 E2.75742
G1 X114.123 Y119.011 E2.80455
G1 X113.922 Y119.11 E2.82244
G1 X113.716 Y119.201 E2.84041
G1 X113.56 Y119.264 E2.85384
G1 X113.229 Y119.386 E2.882
G1 X112.925 Y119.476 E2.90731
G1 X112.649 Y119.539 E2.92991
G1 X112.372 Y119.584 E2.95231
G1 X112.084 Y119.612 E2.97541
G1 X111.232 Y119.641 E3.04346
G1 X111.232 Y119.652 E3.04434
G1 X110.653 Y119.741 E3.0911
G1 X110.298 Y119.818 E3.12009
G1 X110.002 Y119.862 E3.14398
G1 X109.706 Y119.887 E3.16769
G1 X109.381 Y119.895 E3.19364
G1 X109.148 Y119.888 E3.21225
G1 X108.906 Y119.866 E3.23165
G1 X108.82 Y119.857 E3.23855
G1 X108.494 Y119.815 E3.26479
G1 X108.368 Y119.793 E3.275
G1 X107.99 Y119.719 E3.30575
G1 X107.72 Y119.648 E3.32803
G1 X107.435 Y119.553 E3.35201
G1 X107.164 Y119.444 E3.37533
G1 X106.903 Y119.319 E3.39843
G1 X106.67 Y119.189 E3.41973
G1 X106.059 Y118.897 E3.47378
G1 X105.279 Y118.63 E3.53959
G1 X105.01 Y118.52 E3.56279
G1 X104.746 Y118.392 E3.58621
G1 X104.459 Y118.229 E3.61256
G1 X104.264 Y118.105 E3.631
G1 X104.066 Y117.963 E3.65045
G1 X103.757 Y117.722 E3.68173
G1 X103.645 Y117.629 E3.69336
G1 X103.372 Y117.385 E3.72258
G1 X103.164 Y117.174 E3.74623
G1 X102.966 Y116.946 E3.77034
G1 X102.801 Y116.731 E3.79197
G1 X102.629 Y116.473 E3.81672
G1 X102.558 Y116.353 E3.82785
G1 X102.185 Y115.795 E3.88143
G1 X102.157 Y115.764 E3.88477
G1 X102.165 Y115.756 E3.88567
G1 X101.606 Y115.125 E3.95296
G1 X101.432 Y114.903 E3.97548
G1 X101.265 Y114.657 E3.99921
G1 X101.102 Y114.384 E4.02459
G1 X100.987 Y114.165 E4.04434
G1 X100.879 Y113.928 E4.06513
G1 X100.832 Y113.818 E4.07467
G1 X100.737 Y113.578 E4.09528
G1 X100.679 Y113.419 E4.10879
G1 X100.56 Y113.058 E4.13913
G1 X100.492 Y112.792 E4.16105
G1 X100.438 Y112.513 E4.18373
G1 X100.397 Y112.191 E4.20964
G1 X100.381 Y111.932 E4.23036
G1 X100.38 Y111.774 E4.24297
G1 X100.336 Y111.11 E4.29609
G1 X100.255 Y110.653 E4.33314
G1 X100.178 Y110.3 E4.36198
G1 X100.133 Y110.013 E4.38517
G1 X100.109 Y109.735 E4.40744
G1 X100.1 Y109.432 E4.43164
G1 X100.109 Y109.142 E4.4548
G1 X100.136 Y108.851 E4.47813
G1 X100.149 Y108.745 E4.48665
G1 X100.19 Y108.458 E4.50979
G1 X100.215 Y108.316 E4.5213
G1 X100.296 Y107.925 E4.55318
G1 X100.371 Y107.657 E4.57539
G1 X100.462 Y107.394 E4.59761
G1 X100.575 Y107.123 E4.62104
G1 X100.707 Y106.855 E4.64489
G1 X100.78 Y106.727 E4.65665
G1 X101.076 Y106.126 E4.71013
G1 X101.082 Y106.108 E4.71165
G1 X101.09 Y106.111 E4.71233
G1 X101.37 Y105.278 E4.78248
G1 X101.48 Y105.01 E4.8056
G1 X101.605 Y104.751 E4.82856
G1 X101.772 Y104.457 E4.85555
G1 X101.897 Y104.262 E4.87404
G1 X102.079 Y104.009 E4.89892
G1 X102.292 Y103.739 E4.92637
G1 X102.364 Y103.654 E4.93526
G1 X102.631 Y103.355 E4.96726
G0 F12000 X102.4 Y103.613
G1 F1693.7 X102.4 Y116.116 E5.9653
G0 F12000 X104 Y117.911
G1 F1693.7 X104 Y102.323 E7.2096
G0 F12000 X105.6 Y101.111
G1 F1693.7 X105.6 Y118.739 E8.61675
G0 F12000 X107.2 Y119.458
G1 F1693.7 X107.2 Y100.494 E10.13054
G0 F12000 X108.8 Y100.343
G1 F1693.7 X108.8 Y119.854 E11.68799
G0 F12000 X110.4 Y119.796
G1 F1693.7 X110.4 Y100.105 E13.25981
G0 F12000 X112 Y100.281
G1 F1693.7 X112 Y119.615 E14.80313
G0 F12000 X113.6 Y119.248
G1 F1693.7 X113.6 Y100.943 E16.26432
G0 F12000 X115.2 Y101.586
G1 F1693.7 X115.2 Y118.314 E17.59962
G0 F12000 X116.8 Y117.142
G1 F1693.7 X116.8 Y102.79 E18.74526
G0 F12000 X118.4 Y104.892
G1 F1693.7 X118.4 Y115.229 E19.5704
G1 F2700 E14.5704
G0 F12000 X119.189 Y116.005
G0 X118.418 Y117.062
G0 X117.613 Y117.859
G0 X115.198 Y119.631
G0 X113.938 Y120.259
G0 X112.851 Y120.585
G0 X109.771 Y120.95
G0 X108.692 Y120.914
G0 X107.411 Y120.667
G0 X104.244 Y119.332
G0 X103.092 Y118.554
G0 X102.144 Y117.624
G0 X100.365 Y115.226
G0 X99.907 Y114.361
G0 X100.8 Y113.737
G1 F2700 E19.5704
G1 F1693.7 X100.8 Y106.686 E20.13324
G1 F2700 E15.13324
G0 F300 X100.8 Y106.686 Z0.54
G0 F12000 X99.611 Y106.671
G0 X99.26 Y107.679
G0 X99.046 Y109.09
G0 X99.077 Y110.146
G0 X99.378 Y112.468
G0 X99.542 Y113.371
G0 X100.673 Y113.401
;TIME_ELAPSED:16.644120
;LAYER:-5
M107
;TYPE:SUPPORT
G1 F2700 E20.13324
G1 F1800 X106.267 Y118.995 E20.92262
G1 X106.058 Y118.895 E20.94573
G1 X105.279 Y118.629 E21.02787
G1 X105.009 Y118.519 E21.05696
G1 X104.745 Y118.391 E21.08623
G1 X104.459 Y118.228 E21.11908
G1 X104.263 Y118.104 E21.14222
G1 X104.066 Y117.962 E21.16645
G1 X103.757 Y117.721 E21.20556
G1 X103.644 Y117.628 E21.22016
G1 X103.371 Y117.383 E21.25676
G1 X103.164 Y117.173 E21.28618
G1 X102.966 Y116.945 E21.31631
G1 X102.801 Y116.729 E21.34343
G1 X102.628 Y116.472 E21.37435
G1 X102.558 Y116.352 E21.38821
G1 X102.185 Y115.794 E21.45518
G1 X102.157 Y115.763 E21.45935
G1 X102.164 Y115.755 E21.46041
G1 X101.605 Y115.124 E21.54452
G1 X101.431 Y114.902 E21.57267
G1 X101.264 Y114.655 E21.60242
G1 X101.102 Y114.383 E21.63401
G1 X100.986 Y114.164 E21.65873
G1 X100.878 Y113.927 E21.68472
G1 X100.832 Y113.817 E21.69662
G1 X100.737 Y113.576 E21.72247
G1 X100.679 Y113.418 E21.73926
G1 F2700 E16.73926
G0 F12000 X99.85 Y114.225
G0 X100.365 Y115.226
G0 X102.381 Y117.896
G0 X103.439 Y118.823
G0 X104.464 Y119.426
G0 X105.662 Y119.887
G0 X106.267 Y118.995
G1 F2700 E21.73926
G1 F1800 X106.669 Y119.188 E21.78376
G1 X106.903 Y119.318 E21.81047
G1 X107.164 Y119.443 E21.83934
G1 X107.434 Y119.551 E21.86836
G1 X107.719 Y119.647 E21.89837
G1 X107.99 Y119.718 E21.92632
G1 X108.368 Y119.792 E21.96475
G1 X108.493 Y119.814 E21.97742
G1 X108.501 Y119.815 E21.97822
G1 X100.373 Y111.687 E23.12517
G1 X100.335 Y111.109 E23.18297
G1 X100.255 Y110.652 E23.22926
G1 X100.177 Y110.299 E23.26533
G1 X100.136 Y110.035 E23.29199
G1 X109.965 Y119.864 E24.67897
G1 X110.001 Y119.861 E24.68257
G1 X110.298 Y119.817 E24.71253
G1 X110.653 Y119.74 E24.74878
G1 X111.174 Y119.659 E24.80139
G1 X100.162 Y108.647 E26.3553
G1 X100.189 Y108.457 E26.37445
G1 X100.214 Y108.315 E26.38883
G1 X100.296 Y107.924 E26.4287
G1 X100.371 Y107.656 E26.45646
G1 X100.426 Y107.497 E26.47325
G1 X112.492 Y119.563 E28.1759
G1 X112.649 Y119.537 E28.19177
G1 X112.924 Y119.475 E28.2199
G1 X113.229 Y119.385 E28.25163
G1 X113.559 Y119.263 E28.28674
G1 X113.593 Y119.25 E28.29037
G1 X100.875 Y106.532 E30.08502
G1 X101.075 Y106.124 E30.13036
G1 X101.082 Y106.107 E30.13219
G1 X101.09 Y106.11 E30.13304
G1 X101.285 Y105.527 E30.19438
G1 X114.537 Y118.779 E32.06438
G1 X114.638 Y118.723 E32.07591
G1 X114.942 Y118.52 E32.11238
G1 X115.138 Y118.367 E32.13719
G1 X115.349 Y118.178 E32.16546
G1 X101.719 Y104.547 E34.08887
G1 X101.771 Y104.455 E34.09941
G1 X101.896 Y104.261 E34.12244
G1 X102.079 Y104.008 E34.15359
G1 X102.291 Y103.738 E34.18785
G1 X102.306 Y103.72 E34.19019
G1 X116.152 Y117.566 E36.14401
G1 X116.336 Y117.444 E36.16603
G1 X116.476 Y117.363 E36.18217
G1 X116.715 Y117.205 E36.21076
G1 X116.939 Y117.033 E36.23894
G1 X116.989 Y116.989 E36.24559
G1 X103.006 Y103.006 E38.21874
G1 X103.051 Y102.966 E38.22475
G1 X103.266 Y102.802 E38.25173
G1 X103.534 Y102.625 E38.28377
G1 X103.629 Y102.57 E38.29473
G1 X103.842 Y102.428 E38.32027
G1 X117.689 Y116.275 E40.27423
G1 X117.713 Y116.245 E40.27807
G1 X117.888 Y116.024 E40.30619
G1 X117.979 Y115.901 E40.32146
G1 X118.143 Y115.668 E40.34989
G1 X118.271 Y115.464 E40.37392
G1 X118.279 Y115.45 E40.37553
G1 X104.641 Y101.813 E42.29993
G1 X104.874 Y101.606 E42.33103
G1 X105.096 Y101.432 E42.35917
G1 X105.341 Y101.264 E42.38881
G1 X105.445 Y101.203 E42.40084
G1 X118.71 Y114.467 E44.27261
G1 X118.764 Y114.296 E44.2905
G1 X118.924 Y113.859 E44.33694
G1 X119.12 Y113.463 E44.38102
G1 X106.401 Y100.745 E46.17574
G1 X106.42 Y100.737 E46.1778
G1 X106.569 Y100.683 E46.19361
G1 X106.941 Y100.56 E46.23271
G1 X107.207 Y100.492 E46.2601
G1 X107.486 Y100.438 E46.28846
G1 X107.507 Y100.436 E46.29056
G1 X119.569 Y112.498 E47.99264
G1 X119.623 Y112.341 E48.00921
G1 X119.697 Y112.075 E48.03676
G1 X119.778 Y111.686 E48.0764
G1 X119.802 Y111.545 E48.09067
G1 X119.832 Y111.347 E48.11066
G1 X108.826 Y100.341 E49.66372
G1 X108.863 Y100.338 E49.66743
G1 X109.295 Y100.265 E49.71114
G1 X109.74 Y100.171 E49.75652
G1 X110.027 Y100.129 E49.78547
G0 F12000 X110.029 Y100.129
G1 F1800 X119.854 Y109.955 E51.17195
G1 X119.817 Y109.704 E51.19727
G1 X119.738 Y109.339 E51.23453
G1 X119.672 Y108.963 E51.27262
G1 X119.621 Y108.307 E51.33827
G1 X111.498 Y100.184 E52.48452
G1 X111.536 Y100.189 E52.48834
G1 X111.686 Y100.216 E52.50355
G1 X112.057 Y100.292 E52.54134
G1 X112.327 Y100.366 E52.56927
G1 X112.603 Y100.459 E52.59833
G1 X112.872 Y100.573 E52.62748
G1 X113.138 Y100.703 E52.65702
G1 X113.295 Y100.793 E52.67508
G1 X113.739 Y101.011 E52.72444
G1 X119.322 Y106.594 E53.51226
G0 F12000 X119.292 Y106.506
G1 F1800 X119.254 Y106.406 E53.52293
G1 X119.131 Y106.109 E53.55501
G1 X119.083 Y106 E53.56689
G1 X118.983 Y105.787 E53.59037
G1 X118.876 Y105.587 E53.613
G1 X118.712 Y105.315 E53.64469
G1 X118.546 Y105.077 E53.67365
G1 X118.356 Y104.836 E53.70427
G1 X118.095 Y104.548 E53.74305
G1 X117.849 Y104.254 E53.7813
G1 X117.474 Y103.705 E53.84764
G1 X117.347 Y103.49 E53.87256
G1 X117.175 Y103.238 E53.903
G1 X117.005 Y103.021 E53.93051
G1 X116.811 Y102.802 E53.9597
G1 X116.595 Y102.586 E53.99018
G1 X116.313 Y102.339 E54.02758
G1 X116.21 Y102.254 E54.04091
G1 X115.972 Y102.07 E54.07093
G1 X115.685 Y101.867 E54.106
G1 X115.459 Y101.727 E54.13253
G1 X115.182 Y101.575 E54.16406
G1 X114.93 Y101.458 E54.19178
G1 X114.656 Y101.35 E54.22117
G1 X114.307 Y101.238 E54.25774
G1 X113.894 Y101.087 E54.30162
G1 X113.739 Y101.011 E54.31884
G0 F300 X113.739 Y101.011 Z0.74
G0 F12000 X111.574 Y99.992
;TIME_ELAPSED:30.548531
;LAYER:-4
;TYPE:SUPPORT-INTERFACE
G1 F2400 X111.265 Y99.949 E54.32922
G1 X111.161 Y99.937 E54.3327
G1 X110.897 Y99.912 E54.34152
G1 X110.633 Y99.901 E54.35031
G1 X110.302 Y99.907 E54.36132
G1 X110.016 Y99.93 E54.37086
G1 X109.713 Y99.974 E54.38104
G1 X109.59 Y100 E54.38523
G1 X111.619 Y100 E54.45271
G1 X111.724 Y100.019 E54.45626
G1 X112.099 Y100.096 E54.46899
G1 X112.388 Y100.175 E54.47896
G1 X112.67 Y100.272 E54.48888
G1 X112.956 Y100.391 E54.49918
G1 X112.975 Y100.4 E54.49988
G1 X106.789 Y100.4 E54.70563
G1 X106.513 Y100.491 E54.71529
G1 X106.36 Y100.547 E54.72071
G1 X105.983 Y100.7 E54.73424
G1 X105.763 Y100.8 E54.74228
G1 X113.764 Y100.8 E55.00839
G1 X113.973 Y100.903 E55.01614
G1 X114.373 Y101.049 E55.03031
G1 X114.714 Y101.158 E55.04221
G1 X114.821 Y101.2 E55.04604
G1 X105.083 Y101.2 E55.36992
G1 X104.991 Y101.262 E55.37361
G1 X104.754 Y101.447 E55.38361
G1 X104.582 Y101.6 E55.39127
G1 X115.635 Y101.6 E55.7589
G1 X115.789 Y101.696 E55.76493
G1 X115.995 Y101.84 E55.77329
G1 X116.09 Y101.908 E55.77718
G1 X116.21 Y102 E55.78221
G1 X104.117 Y102 E56.18442
G1 X104.067 Y102.039 E56.18653
G1 X103.525 Y102.4 E56.20819
G1 X116.689 Y102.4 E56.64603
G1 X116.736 Y102.442 E56.64812
G1 X116.957 Y102.664 E56.65854
G1 X117.078 Y102.8 E56.6646
G1 X102.942 Y102.8 E57.13476
G1 X102.928 Y102.81 E57.13533
G1 X102.693 Y103.014 E57.14568
G1 X102.504 Y103.2 E57.1545
G1 X117.393 Y103.2 E57.64971
G1 X117.511 Y103.374 E57.65671
G1 X117.644 Y103.598 E57.66537
G0 F12000 X117.646 Y103.6
G1 F2400 X102.148 Y103.6 E58.18084
G1 X102.131 Y103.62 E58.18171
G1 X101.927 Y103.879 E58.19267
G1 X101.841 Y104 E58.19761
G1 X117.918 Y104 E58.73233
G1 X118.009 Y104.134 E58.73772
G1 X118.234 Y104.4 E58.74931
G1 X101.575 Y104.4 E59.30339
G1 X101.431 Y104.652 E59.31304
G1 X101.36 Y104.8 E59.3185
G1 X118.583 Y104.8 E59.89134
G1 X118.704 Y104.953 E59.89783
G1 X118.877 Y105.2 E59.90786
G1 X101.187 Y105.2 E60.49623
G0 F12000 X101.185 Y105.203
G1 F2400 X101.052 Y105.6 E60.51016
G1 X119.111 Y105.6 E61.1108
G1 X119.171 Y105.712 E61.11503
G1 X119.303 Y106 E61.12557
G1 X100.91 Y106 E61.73732
G1 X100.891 Y106.049 E61.73907
G1 X100.719 Y106.4 E61.75207
G1 X119.468 Y106.4 E62.37566
G1 X119.478 Y106.428 E62.37665
G1 X119.606 Y106.8 E62.38974
G1 X100.511 Y106.8 E63.02484
G1 X100.401 Y107.023 E63.03311
