;FLAVOR:Marlin
;TIME:4417
;Filament used: 3.37236m
;Layer height: 0.2
;MINX:73.876
;MINY:73.856
;MINZ:0.24
;MAXX:146.097
;MAXY:146.141
;MAXZ:10.09
;Generated with Cura_SteamEngine 4.8.0
M140 S50
M105
M190 S50
M104 S200
M105
M109 S200
M82 ;absolute extrusion mode
M201 X500.00 Y500.00 Z100.00 E5000.00 ;Setup machine max acceleration
M203 X500.00 Y500.00 Z10.00 E50.00 ;Setup machine max feedrate
M204 P500.00 R1000.00 T500.00 ;Setup Print/Retract/Travel acceleration
M205 X8.00 Y8.00 Z0.40 E5.00 ;Setup Jerk
M220 S100 ;Reset Feedrate
M221 S100 ;Reset Flowrate

G28 ;Home

G92 E0 ;Reset Extruder
G1 Z2.0 F3000 ;Move Z Axis up
G1 X10.1 Y20 Z0.28 F5000.0 ;Move to start position
G1 X10.1 Y200.0 Z0.28 F1500.0 E15 ;Draw the first line
G1 X10.4 Y200.0 Z0.28 F5000.0 ;Move to side a little
G1 X10.4 Y20 Z0.28 F1500.0 E30 ;Draw the second line
G92 E0 ;Reset Extruder
G1 Z2.0 F3000 ;Move Z Axis up

G92 E0
G92 E0
G1 F2700 E-5
;LAYER_COUNT:45
;LAYER:-6
M107
G0 F12000 X85.354 Y85.039 Z0.24
;TYPE:SUPPORT-INTERFACE
G1 F2700 E0
G1 F1800 X85.78 Y84.625 E0.04742
G1 X85.885 Y84.529 E0.05877
G1 X86.17 Y84.285 E0.08872
G1 X86.416 Y84.1 E0.11329
G1 X86.455 Y84.075 E0.11699
G1 X86.989 Y83.673 E0.17035
G1 X87.368 Y83.314 E0.21202
G1 X87.727 Y82.939 E0.25346
G1 X88.055 Y82.641 E0.28883
G1 X88.216 Y82.506 E0.3056
G1 X88.66 Y82.159 E0.35059
G1 X88.798 Y82.059 E0.36419
G1 X89.102 Y81.851 E0.39359
G1 X89.339 Y81.711 E0.41557
G1 X89.387 Y81.686 E0.41989
G1 X89.967 Y81.343 E0.47367
G1 X90.101 Y81.234 E0.48746
G1 X90.112 Y81.248 E0.48888
G1 X90.805 Y80.672 E0.56081
G1 X91.165 Y80.412 E0.59626
G1 X91.298 Y80.323 E0.60904
G1 X91.792 Y80.018 E0.65538
G1 X91.95 Y79.928 E0.6699
G1 X92.257 Y79.764 E0.69768
G1 X92.535 Y79.637 E0.72208
G1 X92.559 Y79.628 E0.72412
G1 X93.17 Y79.352 E0.77764
G1 X93.314 Y79.259 E0.79132
G1 X93.324 Y79.275 E0.79283
G1 X94.087 Y78.77 E0.86587
G1 X94.47 Y78.551 E0.90109
G1 X94.614 Y78.476 E0.91405
G1 X95.154 Y78.218 E0.96182
G1 X95.276 Y78.165 E0.97244
G1 X95.634 Y78.02 E1.00327
G1 X95.893 Y77.935 E1.02503
G1 X95.954 Y77.919 E1.03006
G1 X96.594 Y77.708 E1.08385
G1 X96.795 Y77.608 E1.10177
G1 X96.801 Y77.619 E1.10277
G1 X97.577 Y77.22 E1.17243
G1 X97.958 Y77.057 E1.20551
G1 X98.12 Y76.995 E1.21935
G1 X98.658 Y76.806 E1.26487
G1 X98.82 Y76.755 E1.27843
G1 X99.177 Y76.654 E1.30804
G1 X99.459 Y76.593 E1.33107
G1 X99.504 Y76.587 E1.3347
G1 X100.159 Y76.449 E1.38813
G1 X100.681 Y76.273 E1.4321
G1 X101.143 Y76.091 E1.47174
G1 X101.564 Y75.958 E1.50698
G1 X101.764 Y75.903 E1.52354
G1 X102.329 Y75.771 E1.56986
G1 X102.481 Y75.74 E1.58224
G1 X102.832 Y75.681 E1.61065
G1 X103.12 Y75.651 E1.63377
G1 X103.19 Y75.647 E1.63936
G1 X103.853 Y75.579 E1.69256
G1 X104.377 Y75.463 E1.7354
G1 X104.859 Y75.332 E1.77528
G1 X105.328 Y75.24 E1.81343
G1 X105.498 Y75.213 E1.82717
G1 X106.079 Y75.143 E1.87388
G1 X106.232 Y75.129 E1.88614
G1 X106.593 Y75.108 E1.91501
G1 X106.891 Y75.111 E1.9388
G1 X106.92 Y75.113 E1.94112
G1 X107.593 Y75.119 E1.99484
G1 X107.79 Y75.091 E2.01073
G1 X107.793 Y75.109 E2.01218
G1 X108.652 Y74.976 E2.08157
G1 X109.098 Y74.938 E2.1173
G1 X109.276 Y74.929 E2.13153
G1 X109.882 Y74.921 E2.1799
G1 X110.003 Y74.923 E2.18956
G1 X110.388 Y74.942 E2.22033
G1 X110.662 Y74.974 E2.24235
G1 X110.719 Y74.984 E2.24697
G1 X111.388 Y75.063 E2.30075
G1 X111.581 Y75.057 E2.31616
G1 X111.582 Y75.075 E2.3176
G1 X112.464 Y75.035 E2.38808
G1 X112.916 Y75.046 E2.42417
G1 X113.062 Y75.054 E2.43584
G1 X113.662 Y75.113 E2.48397
G1 X113.807 Y75.132 E2.49564
G1 X114.182 Y75.192 E2.52595
G1 X114.463 Y75.256 E2.54896
G1 X114.52 Y75.273 E2.55371
G1 X115.175 Y75.42 E2.60729
G1 X115.316 Y75.431 E2.61858
G1 X115.314 Y75.449 E2.62003
G1 X116.215 Y75.507 E2.6921
G1 X116.653 Y75.564 E2.72736
G1 X116.842 Y75.596 E2.74266
G1 X117.398 Y75.711 E2.78798
G1 X117.561 Y75.75 E2.80136
G1 X117.908 Y75.845 E2.83008
G1 X118.194 Y75.943 E2.85421
G1 X118.242 Y75.963 E2.85836
G1 X118.874 Y76.179 E2.91167
G1 X119.385 Y76.292 E2.95345
G1 X119.886 Y76.376 E2.994
G1 X120.357 Y76.49 E3.03268
G1 X120.495 Y76.529 E3.04413
G1 X121.044 Y76.706 E3.09018
G1 X121.217 Y76.768 E3.10485
G1 X121.572 Y76.907 E3.13528
G1 X121.815 Y77.021 E3.1567
G1 X121.881 Y77.057 E3.1627
G1 X122.49 Y77.341 E3.21634
G1 X122.633 Y77.385 E3.22829
G1 X122.628 Y77.403 E3.22978
G1 X123.487 Y77.648 E3.30108
G1 X123.919 Y77.805 E3.33777
G1 X124.059 Y77.862 E3.34984
G1 X124.586 Y78.097 E3.3959
G1 X124.745 Y78.174 E3.41
G1 X125.07 Y78.344 E3.43928
G1 X125.312 Y78.492 E3.46192
G1 X125.369 Y78.531 E3.46744
G1 X125.938 Y78.877 E3.52059
G1 X126.415 Y79.098 E3.56256
G1 X126.888 Y79.29 E3.60331
G1 X127.305 Y79.493 E3.64033
G1 X127.471 Y79.581 E3.65533
G1 X127.955 Y79.864 E3.70008
G1 X128.096 Y79.953 E3.71339
G1 X128.408 Y80.163 E3.74341
G1 X128.629 Y80.332 E3.76562
G1 X128.704 Y80.397 E3.77354
G1 X129.233 Y80.805 E3.82687
G1 X129.707 Y81.09 E3.87102
G1 X130.102 Y81.3 E3.90673
G1 X130.452 Y81.518 E3.93964
G1 X130.566 Y81.594 E3.95058
G1 X131.075 Y81.96 E4.00062
G1 X131.192 Y82.05 E4.01241
G1 X131.469 Y82.278 E4.04105
G1 X131.687 Y82.48 E4.06477
G1 X131.817 Y82.618 E4.0799
G1 X132.308 Y83.075 E4.13345
G1 X132.354 Y83.108 E4.13797
G1 X132.344 Y83.122 E4.13934
G1 X133.107 Y83.646 E4.21323
G1 X133.455 Y83.922 E4.24868
G1 X133.579 Y84.027 E4.26165
G1 X134.022 Y84.436 E4.30978
G1 X134.145 Y84.558 E4.32361
G1 X134.383 Y84.808 E4.35116
G1 X134.578 Y85.039 E4.37529
G1 X134.614 Y85.086 E4.38002
G1 X135.046 Y85.603 E4.4338
G1 X135.194 Y85.735 E4.44963
G1 X135.186 Y85.744 E4.45059
G1 X135.846 Y86.321 E4.52057
G1 X136.138 Y86.612 E4.55348
G1 X136.255 Y86.739 E4.56726
G1 X136.654 Y87.197 E4.61575
G1 X136.738 Y87.299 E4.62629
G1 X136.969 Y87.601 E4.65664
G1 X137.133 Y87.845 E4.68011
G1 X137.182 Y87.928 E4.68781
G1 X137.555 Y88.482 E4.74112
G1 X137.894 Y88.881 E4.78291
G1 X138.224 Y89.233 E4.82143
G1 X138.484 Y89.548 E4.85403
G1 X138.544 Y89.625 E4.86182
G1 X138.917 Y90.145 E4.91291
G1 X139.012 Y90.287 E4.92654
G1 X139.202 Y90.593 E4.9553
G1 X139.347 Y90.862 E4.97969
G1 X139.436 Y91.054 E4.99658
G1 X139.752 Y91.64 E5.04973
G1 X140.019 Y92.029 E5.08739
G1 X140.29 Y92.387 E5.12323
G1 X140.523 Y92.742 E5.15713
G1 X140.598 Y92.865 E5.16863
G1 X140.903 Y93.405 E5.21813
G1 X140.963 Y93.52 E5.22849
G1 X141.133 Y93.871 E5.25962
G1 X141.241 Y94.137 E5.28253
G1 X141.312 Y94.35 E5.30046
G1 X141.565 Y94.973 E5.35413
G1 X141.635 Y95.095 E5.36536
G1 X141.627 Y95.1 E5.36611
G1 X142.048 Y95.82 E5.43269
G1 X142.213 Y96.146 E5.46186
G1 X142.262 Y96.25 E5.47103
G1 X142.523 Y96.859 E5.52392
G1 X142.555 Y96.94 E5.53087
G1 X142.693 Y97.326 E5.5636
G1 X142.767 Y97.588 E5.58533
G1 X142.806 Y97.765 E5.5998
G1 X142.987 Y98.405 E5.65289
G1 X143.159 Y98.833 E5.68971
G1 X143.383 Y99.327 E5.73301
G1 X143.555 Y99.795 E5.77281
G1 X143.618 Y99.992 E5.78932
G1 X143.771 Y100.543 E5.83496
G1 X143.802 Y100.668 E5.84524
G1 X143.885 Y101.06 E5.87723
G1 X144.014 Y101.96 E5.94981
G1 X144.022 Y101.958 E5.95046
G1 X144.186 Y102.565 E6.00065
G1 X144.321 Y102.961 E6.03405
G1 X144.426 Y103.353 E6.06645
G1 X144.469 Y103.538 E6.08161
G1 X144.582 Y104.129 E6.12964
G1 X144.605 Y104.273 E6.14128
G1 X144.653 Y104.661 E6.17249
G1 X144.67 Y104.94 E6.1948
G1 X144.67 Y105.132 E6.21012
G1 X144.712 Y105.796 E6.26323
G1 X144.788 Y106.245 E6.29958
G1 X144.898 Y106.755 E6.34123
G1 X144.963 Y107.215 E6.37831
G1 X144.982 Y107.392 E6.39252
G1 X145.018 Y107.967 E6.43851
G1 X145.024 Y108.133 E6.45177
G1 X145.024 Y108.513 E6.48211
G1 X145.007 Y108.784 E6.50378
G1 X145.002 Y108.821 E6.50676
G1 X144.961 Y109.492 E6.56042
G1 X144.976 Y109.674 E6.575
G1 X144.959 Y109.676 E6.57637
G1 X145.046 Y110.558 E6.64711
G1 X145.06 Y111.003 E6.68265
G1 X145.06 Y111.154 E6.69471
G1 X145.035 Y111.761 E6.7432
G1 X145.025 Y111.899 E6.75425
G1 X144.985 Y112.286 E6.7853
G1 X144.938 Y112.56 E6.80749
G1 X144.915 Y112.663 E6.81592
G1 X144.804 Y113.32 E6.86911
G1 X144.774 Y113.861 E6.91236
G1 X144.773 Y114.321 E6.94908
G1 X144.747 Y114.692 E6.97876
G1 X144.725 Y114.902 E6.99562
G1 X144.649 Y115.459 E7.04049
G1 X144.619 Y115.637 E7.0549
G1 X144.548 Y115.992 E7.0838
G1 X144.474 Y116.264 E7.1063
G1 X144.411 Y116.451 E7.12205
G1 X144.237 Y117.094 E7.17523
G1 X144.166 Y117.549 E7.21199
G1 X144.109 Y118.045 E7.25184
G1 X144.018 Y118.528 E7.29107
G1 X143.964 Y118.761 E7.31017
G1 X143.808 Y119.324 E7.3568
G1 X143.779 Y119.418 E7.36465
G1 X143.641 Y119.815 E7.3982
G1 X143.323 Y120.571 E7.46367
G1 X143.328 Y120.573 E7.4641
G1 X143.298 Y120.644 E7.47025
G1 X143.244 Y120.855 E7.48764
G1 X143.219 Y120.85 E7.48967
G1 X143.033 Y121.685 E7.55796
G1 X142.915 Y122.087 E7.59141
G1 X142.869 Y122.23 E7.6034
G1 X142.659 Y122.798 E7.65174
G1 X142.605 Y122.932 E7.66327
G1 X142.447 Y123.288 E7.69436
G1 X142.323 Y123.525 E7.71571
G1 X142.197 Y123.735 E7.73526
G1 X141.89 Y124.327 E7.78849
G1 X141.71 Y124.79 E7.82814
G1 X141.588 Y125.155 E7.85887
G1 X141.41 Y125.586 E7.89609
G1 X141.349 Y125.72 E7.90784
G1 X141.091 Y126.238 E7.95403
G1 X140.998 Y126.412 E7.96978
G1 X140.835 Y126.696 E7.99592
G1 X140.659 Y126.96 E8.02125
G1 X140.549 Y127.104 E8.03571
G1 X140.176 Y127.663 E8.08936
G1 X140.136 Y127.746 E8.09671
G1 X140.125 Y127.741 E8.09768
G1 X139.741 Y128.549 E8.16909
G1 X139.516 Y128.951 E8.20586
G1 X139.451 Y129.058 E8.21586
G1 X139.105 Y129.581 E8.26591
G1 X139.027 Y129.692 E8.27674
G1 X138.795 Y129.998 E8.3074
G1 X138.604 Y130.22 E8.33077
G1 X138.539 Y130.287 E8.33822
G1 X138.104 Y130.792 E8.39143
G1 X137.788 Y131.258 E8.43637
G1 X137.577 Y131.608 E8.469
G1 X137.301 Y132.002 E8.50739
G1 X137.206 Y132.128 E8.51999
G1 X136.814 Y132.601 E8.56903
G1 X136.715 Y132.713 E8.58096
G1 X136.458 Y132.987 E8.61095
G1 X136.251 Y133.181 E8.63359
G1 X136.224 Y133.204 E8.63643
G1 X135.735 Y133.664 E8.69002
G1 X135.6 Y133.833 E8.70728
G1 X135.59 Y133.826 E8.70826
G1 X135.047 Y134.521 E8.77866
G1 X134.726 Y134.874 E8.81675
G1 X134.598 Y135.005 E8.83137
G1 X134.163 Y135.416 E8.87914
G1 X134.052 Y135.515 E8.89101
G1 X133.778 Y135.744 E8.91951
G1 X133.071 Y136.26 E8.98938
G1 X133.075 Y136.265 E8.98989
G1 X133.036 Y136.293 E8.99373
G1 X132.6 Y136.704 E9.04156
G1 X132.281 Y137.04 E9.07854
G1 X131.985 Y137.314 E9.11074
G1 X131.859 Y137.422 E9.12398
G1 X131.375 Y137.811 E9.17355
G1 X131.265 Y137.893 E9.1845
G1 X130.965 Y138.105 E9.21383
G1 X130.697 Y138.269 E9.23891
G1 X130.523 Y138.361 E9.25462
G1 X129.946 Y138.712 E9.30853
G1 X129.905 Y138.747 E9.31283
G1 X129.894 Y138.733 E9.31425
G1 X129.206 Y139.309 E9.38588
G1 X128.886 Y139.544 E9.41757
G1 X128.764 Y139.628 E9.42939
G1 X128.254 Y139.952 E9.47762
G1 X128.097 Y140.044 E9.49215
G1 X127.79 Y140.212 E9.52009
G1 X127.518 Y140.341 E9.54412
G1 X127.345 Y140.409 E9.55895
G1 X126.742 Y140.692 E9.61213
G1 X126.335 Y140.939 E9.65013
G1 X125.933 Y141.209 E9.68878
G1 X125.573 Y141.417 E9.72197
G1 X125.463 Y141.477 E9.73197
G1 X124.886 Y141.762 E9.78335
G1 X124.781 Y141.81 E9.79256
G1 X124.426 Y141.958 E9.82326
G1 X124.144 Y142.056 E9.84709
G1 X123.93 Y142.115 E9.86481
G1 X123.295 Y142.334 E9.91843
G1 X123.212 Y142.376 E9.92586
G1 X123.207 Y142.365 E9.92682
G1 X122.442 Y142.76 E9.99555
G1 X122.118 Y142.903 E10.02382
G1 X121.959 Y142.967 E10.0375
G1 X121.39 Y143.176 E10.08589
G1 X121.231 Y143.228 E10.09924
G1 X120.886 Y143.33 E10.12796
G1 X120.594 Y143.397 E10.15187
G1 X120.367 Y143.434 E10.17023
G1 X119.718 Y143.583 E10.22339
G1 X119.265 Y143.74 E10.26166
G1 X118.873 Y143.895 E10.2953
G1 X118.492 Y144.019 E10.32729
G1 X118.303 Y144.073 E10.34298
G1 X117.729 Y144.215 E10.39018
G1 X117.59 Y144.245 E10.40153
G1 X117.222 Y144.312 E10.43139
G1 X116.938 Y144.346 E10.45422
G1 X116.682 Y144.359 E10.47468
G1 X116.022 Y144.438 E10.52774
G1 X115.557 Y144.544 E10.56581
G1 X115.155 Y144.655 E10.5991
G1 X114.735 Y144.742 E10.63334
G1 X114.567 Y144.771 E10.64695
G1 X113.976 Y144.85 E10.69454
G1 X113.843 Y144.863 E10.70521
G1 X113.458 Y144.89 E10.73602
G1 X113.167 Y144.892 E10.75925
G1 X112.999 Y144.882 E10.77268
G1 X112.326 Y144.886 E10.82641
G1 X112.196 Y144.905 E10.83689
G1 X112.194 Y144.893 E10.83786
G1 X111.348 Y145.024 E10.9062
G1 X110.902 Y145.062 E10.94193
G1 X110.724 Y145.071 E10.95616
G1 X110.117 Y145.079 E11.00462
G1 X109.996 Y145.077 E11.01428
G1 X109.614 Y145.058 E11.04481
G1 X109.336 Y145.026 E11.06714
G1 X109.276 Y145.015 E11.07201
G1 X108.606 Y144.937 E11.12586
G1 X108.421 Y144.943 E11.14063
G1 X108.42 Y144.925 E11.14207
G1 X107.536 Y144.965 E11.21271
G1 X107.084 Y144.954 E11.2488
G1 X106.938 Y144.946 E11.26047
G1 X106.338 Y144.887 E11.3086
G1 X106.193 Y144.868 E11.32027
G1 X105.818 Y144.808 E11.35059
G1 X105.537 Y144.744 E11.37359
G1 X105.48 Y144.727 E11.37834
G1 X104.825 Y144.58 E11.43192
G1 X104.684 Y144.569 E11.44321
G1 X104.686 Y144.551 E11.44466
G1 X103.785 Y144.493 E11.51673
G1 X103.347 Y144.436 E11.55199
G1 X103.158 Y144.404 E11.56729
G1 X102.602 Y144.289 E11.61261
G1 X102.439 Y144.25 E11.62599
G1 X102.092 Y144.155 E11.65471
G1 X101.806 Y144.057 E11.67884
G1 X101.758 Y144.037 E11.68299
G1 X101.126 Y143.821 E11.73631
G1 X100.611 Y143.708 E11.77839
G1 X100.13 Y143.628 E11.81732
G1 X99.661 Y143.514 E11.85584
G1 X99.476 Y143.462 E11.87118
G1 X98.918 Y143.282 E11.91799
G1 X98.784 Y143.233 E11.92937
G1 X98.449 Y143.102 E11.95809
G1 X98.177 Y142.974 E11.98208
G1 X98.117 Y142.942 E11.98751
G1 X97.508 Y142.658 E12.04115
G1 X97.371 Y142.616 E12.05259
G1 X97.376 Y142.598 E12.05408
G1 X96.506 Y142.349 E12.12632
G1 X96.104 Y142.203 E12.16046
G1 X95.92 Y142.129 E12.17629
G1 X95.397 Y141.894 E12.22206
G1 X95.235 Y141.815 E12.23644
G1 X94.918 Y141.649 E12.26501
G1 X94.695 Y141.513 E12.28586
G1 X94.644 Y141.477 E12.29084
G1 X94.075 Y141.13 E12.34404
G1 X93.583 Y140.901 E12.38736
G1 X93.113 Y140.711 E12.42783
G1 X92.695 Y140.507 E12.46495
G1 X92.529 Y140.419 E12.47995
G1 X92.045 Y140.136 E12.52471
G1 X91.895 Y140.041 E12.53888
G1 X91.59 Y139.836 E12.56821
G1 X91.382 Y139.676 E12.58916
G1 X91.316 Y139.62 E12.59607
G1 X90.787 Y139.215 E12.64925
G1 X90.338 Y138.944 E12.69112
G1 X89.895 Y138.707 E12.73122
G1 X89.492 Y138.454 E12.7692
G1 X89.342 Y138.351 E12.78373
G1 X88.871 Y138.002 E12.83052
G1 X88.777 Y137.928 E12.84007
G1 X88.464 Y137.664 E12.87276
G1 X88.277 Y137.485 E12.89342
G1 X88.233 Y137.437 E12.89862
G1 X87.751 Y136.975 E12.95191
G1 X87.327 Y136.651 E12.99451
G1 X86.893 Y136.352 E13.03658
G1 X86.535 Y136.069 E13.07301
G1 X86.421 Y135.973 E13.0849
G1 X85.978 Y135.564 E13.13303
G1 X85.855 Y135.442 E13.14686
G1 X85.616 Y135.191 E13.17453
G1 X85.42 Y134.958 E13.19883
G1 X85.386 Y134.914 E13.20327
G1 X84.954 Y134.397 E13.25705
G1 X84.806 Y134.265 E13.27288
G1 X84.814 Y134.256 E13.27384
G1 X84.154 Y133.679 E13.34382
G1 X83.862 Y133.388 E13.37673
G1 X83.745 Y133.261 E13.39051
G1 X83.346 Y132.803 E13.439
G1 X83.262 Y132.701 E13.44955
G1 X83.019 Y132.383 E13.48149
G1 X82.867 Y132.155 E13.50337
G1 X82.835 Y132.102 E13.50831
G1 X82.459 Y131.543 E13.56209
G1 X82.374 Y131.449 E13.5722
G1 X82.389 Y131.436 E13.57379
G1 X81.754 Y130.754 E13.64817
G1 X81.491 Y130.43 E13.68148
G1 X81.379 Y130.281 E13.69636
G1 X81.037 Y129.791 E13.74406
G1 X80.948 Y129.653 E13.75717
G1 X80.758 Y129.337 E13.7866
G1 X80.634 Y129.099 E13.80803
G1 X80.609 Y129.043 E13.81292
G1 X80.296 Y128.445 E13.8668
G1 X80.209 Y128.323 E13.87876
G1 X80.224 Y128.311 E13.88029
G1 X79.697 Y127.607 E13.95049
G1 X79.441 Y127.214 E13.98793
G1 X79.359 Y127.076 E14.00074
G1 X79.073 Y126.553 E14.04833
G1 X78.996 Y126.4 E14.062
G1 X78.846 Y126.08 E14.09021
G1 X78.742 Y125.814 E14.11301
G1 X78.718 Y125.743 E14.11899
G1 X78.473 Y125.118 E14.17258
G1 X78.399 Y124.987 E14.18459
G1 X78.409 Y124.982 E14.18548
G1 X77.941 Y124.178 E14.25974
G1 X77.769 Y123.83 E14.29073
G1 X77.687 Y123.651 E14.30644
G1 X77.465 Y123.114 E14.35283
G1 X77.401 Y122.945 E14.36725
G1 X77.292 Y122.626 E14.39416
G1 X77.212 Y122.329 E14.41871
G1 X77.202 Y122.281 E14.42263
G1 X77.027 Y121.638 E14.47582
G1 X76.834 Y121.154 E14.51742
G1 X76.618 Y120.68 E14.559
G1 X76.459 Y120.255 E14.59522
G1 X76.395 Y120.062 E14.61145
G1 X76.237 Y119.518 E14.65667
G1 X76.196 Y119.356 E14.67001
G1 X76.117 Y119.005 E14.69873
G1 X76.072 Y118.718 E14.72192
G1 X76.067 Y118.665 E14.72617
G1 X75.964 Y118.006 E14.77941
G1 X75.816 Y117.471 E14.82372
